( Made using CamBam - http://www.cambam.co.uk )
( Untitled 4/3/2018 5:27:26 PM )
( T3 : 2.0 )
G21 G90 G64 G40
G0 Z3.0
( T3 : 2.0 )
T3 M6
( Profile1 )
G17
M3 S1000
G0 X0.0 Y69.0
G0 Z0.1
G1 F100.0 Z-1.1
G2 F200.0 X59.0 Y10.0 I0.0 J-59.0
G0 Z3.0
G0 X0.0 Y69.0
G0 Z-1.0
G1 F100.0 Z-2.2
G2 F200.0 X59.0 Y10.0 I0.0 J-59.0
G0 Z3.0
M5
M30
