( Made using CamBam - http://www.cambam.co.uk )
( axle_lock 4/6/2018 12:39:32 PM )
( T6 : 6.0 )
G21 G90 G64 G40
G0 Z3.0
( T6 : 6.0 )
T6 M6
( Profile1 )
G17
M3 S1000
G0 X-3.3751 Y1.0556
G0 Z0.1
G1 F40.0 Z-0.5
G1 F80.0 X-0.7498 Y0.5428
G2 X-0.0164 Y0.3047 I-56.5152 J-175.278
G3 X-0.0013 Y0.2998 I0.9326 J2.8514
G2 X0.2183 Y0.2256 I-2.3823 J-7.4162
G3 X0.2831 Y0.2035 I1.0021 J2.8277
G2 X0.3666 Y0.1745 I-0.8704 J-2.6466
G3 X0.4019 Y0.1619 I1.0271 J2.8187
G2 X1.6376 Y-0.3056 I-8.8293 J-25.2052
G3 X1.6496 Y-0.3104 I1.1306 J2.7788
G2 X2.4715 Y-0.6557 I-10.6066 J-26.3971
G3 X2.5214 Y-0.6771 I1.2052 J2.7473
G2 X2.5487 Y-0.6891 I-0.3097 J-0.7424
G3 X2.643 Y-0.7306 I1.2569 J2.724
G2 X2.6789 Y-0.7466 I-0.375 J-0.8922
G3 X2.7815 Y-0.7924 I1.2737 J2.7162
G2 X2.8272 Y-0.813 I-0.4383 J-1.0338
G3 X2.877 Y-0.8362 I1.2931 J2.707
G2 X4.0631 Y-1.4053 I-13.5911 J-29.846
G2 X5.0932 Y-1.951 I-17.1106 J-33.5484
G3 X5.1279 Y-1.9697 I1.4451 J2.629
G2 X5.188 Y-2.0032 I-0.8668 J-1.6272
G3 X5.2226 Y-2.023 I1.5082 J2.5933
G2 X6.3608 Y-2.6925 I-17.7557 J-31.486
G1 X6.7427 Y-2.9322
G1 X7.1182 Y-3.1754
G1 X7.3935 Y-3.3585
G1 X7.6712 Y-3.5476
G1 X7.8517 Y-3.6728
G1 X8.0326 Y-3.8003
G1 X8.2083 Y-3.9259
G1 X8.5719 Y-4.192
G1 X8.8267 Y-4.3832
G1 X9.0933 Y-4.5877
G2 X9.2406 Y-4.7027 I-7.2701 J-9.4627
G3 X9.2589 Y-4.7171 I1.8647 J2.35
G2 X9.5319 Y-4.9344 I-11.6979 J-14.9803
G1 X9.8364 Y-5.1827
G1 X9.9077 Y-5.2418
G1 X10.2348 Y-5.5173
G1 X10.5636 Y-5.8021
G2 X10.8684 Y-6.0736 I-13.1629 J-15.0848
G3 X10.8897 Y-6.0928 I2.0181 J2.2197
G2 X11.182 Y-6.3604 I-10.0184 J-11.2334
G3 X11.2089 Y-6.3854 I2.055 J2.1856
G2 X11.4897 Y-6.6496 I-10.263 J-11.1867
G1 X11.8155 Y-6.9647
G2 X12.3595 Y-7.5119 I-19.7844 J-20.2133
G1 X12.6292 Y-7.7934
G1 X12.7097 Y-7.8789
G1 X12.8291 Y-8.0067
G3 X12.8357 Y-8.0138 I2.1925 J2.0477
G2 X12.876 Y-8.0572 I-2.8978 J-2.7241
G3 X12.9023 Y-8.0858 I2.2162 J2.022
G2 X13.1701 Y-8.38 I-10.2513 J-9.5991
G3 X13.2054 Y-8.4192 I2.247 J1.9877
G3 X13.2149 Y-8.43 I2.2578 J1.9755
G1 X13.4673 Y-8.7157
G1 X13.5369 Y-8.7956
G1 X13.8323 Y-9.1416
G1 X13.8841 Y-9.2033
G1 X13.9422 Y-9.2728
G1 X13.9583 Y-9.2921
G3 X13.9603 Y-9.2945 I2.3065 J1.9184
G2 X14.0803 Y-9.4399 I-15.8287 J-13.1936
G1 X14.3124 Y-9.7262
G1 X14.3866 Y-9.8191
G3 X14.3954 Y-9.8301 I2.3447 J1.8714
G3 X14.4029 Y-9.8397 I2.3629 J1.8484
G1 X14.5055 Y-9.9698
G1 X14.6178 Y-10.1137
G1 X14.6306 Y-10.1302
G1 X14.6748 Y-10.1874
G3 X14.6862 Y-10.2021 I2.3742 J1.8339
G2 X14.6894 Y-10.2062 I-0.2514 J-0.1967
G3 X14.7022 Y-10.223 I2.3924 J1.8101
G1 X14.7119 Y-10.2357
G1 X14.7527 Y-10.289
G1 X14.7787 Y-10.3231
G1 X14.8122 Y-10.3671
G1 X14.8756 Y-10.4512
G1 X15.703 Y-12.5847
G0 Z3.0
G0 X-3.3751 Y1.0556
G0 Z-0.4
G1 F40.0 Z-1.0
G1 F80.0 X-0.7498 Y0.5428
G2 X-0.0164 Y0.3047 I-56.5152 J-175.278
G3 X-0.0013 Y0.2998 I0.9326 J2.8514
G2 X0.2183 Y0.2256 I-2.3823 J-7.4162
G3 X0.2831 Y0.2035 I1.0021 J2.8277
G2 X0.3666 Y0.1745 I-0.8704 J-2.6466
G3 X0.4019 Y0.1619 I1.0271 J2.8187
G2 X1.6376 Y-0.3056 I-8.8293 J-25.2052
G3 X1.6496 Y-0.3104 I1.1306 J2.7788
G2 X2.4715 Y-0.6557 I-10.6066 J-26.3971
G3 X2.5214 Y-0.6771 I1.2052 J2.7473
G2 X2.5487 Y-0.6891 I-0.3097 J-0.7424
G3 X2.643 Y-0.7306 I1.2569 J2.724
G2 X2.6789 Y-0.7466 I-0.375 J-0.8922
G3 X2.7815 Y-0.7924 I1.2737 J2.7162
G2 X2.8272 Y-0.813 I-0.4383 J-1.0338
G3 X2.877 Y-0.8362 I1.2931 J2.707
G2 X4.0631 Y-1.4053 I-13.5911 J-29.846
G2 X5.0932 Y-1.951 I-17.1106 J-33.5484
G3 X5.1279 Y-1.9697 I1.4451 J2.629
G2 X5.188 Y-2.0032 I-0.8668 J-1.6272
G3 X5.2226 Y-2.023 I1.5082 J2.5933
G2 X6.3608 Y-2.6925 I-17.7557 J-31.486
G1 X6.7427 Y-2.9322
G1 X7.1182 Y-3.1754
G1 X7.3935 Y-3.3585
G1 X7.6712 Y-3.5476
G1 X7.8517 Y-3.6728
G1 X8.0326 Y-3.8003
G1 X8.2083 Y-3.9259
G1 X8.5719 Y-4.192
G1 X8.8267 Y-4.3832
G1 X9.0933 Y-4.5877
G2 X9.2406 Y-4.7027 I-7.2701 J-9.4627
G3 X9.2589 Y-4.7171 I1.8647 J2.35
G2 X9.5319 Y-4.9344 I-11.6979 J-14.9803
G1 X9.8364 Y-5.1827
G1 X9.9077 Y-5.2418
G1 X10.2348 Y-5.5173
G1 X10.5636 Y-5.8021
G2 X10.8684 Y-6.0736 I-13.1629 J-15.0848
G3 X10.8897 Y-6.0928 I2.0181 J2.2197
G2 X11.182 Y-6.3604 I-10.0184 J-11.2334
G3 X11.2089 Y-6.3854 I2.055 J2.1856
G2 X11.4897 Y-6.6496 I-10.263 J-11.1867
G1 X11.8155 Y-6.9647
G2 X12.3595 Y-7.5119 I-19.7844 J-20.2133
G1 X12.6292 Y-7.7934
G1 X12.7097 Y-7.8789
G1 X12.8291 Y-8.0067
G3 X12.8357 Y-8.0138 I2.1925 J2.0477
G2 X12.876 Y-8.0572 I-2.8978 J-2.7241
G3 X12.9023 Y-8.0858 I2.2162 J2.022
G2 X13.1701 Y-8.38 I-10.2513 J-9.5991
G3 X13.2054 Y-8.4192 I2.247 J1.9877
G3 X13.2149 Y-8.43 I2.2578 J1.9755
G1 X13.4673 Y-8.7157
G1 X13.5369 Y-8.7956
G1 X13.8323 Y-9.1416
G1 X13.8841 Y-9.2033
G1 X13.9422 Y-9.2728
G1 X13.9583 Y-9.2921
G3 X13.9603 Y-9.2945 I2.3065 J1.9184
G2 X14.0803 Y-9.4399 I-15.8287 J-13.1936
G1 X14.3124 Y-9.7262
G1 X14.3866 Y-9.8191
G3 X14.3954 Y-9.8301 I2.3447 J1.8714
G3 X14.4029 Y-9.8397 I2.3629 J1.8484
G1 X14.5055 Y-9.9698
G1 X14.6178 Y-10.1137
G1 X14.6306 Y-10.1302
G1 X14.6748 Y-10.1874
G3 X14.6862 Y-10.2021 I2.3742 J1.8339
G2 X14.6894 Y-10.2062 I-0.2514 J-0.1967
G3 X14.7022 Y-10.223 I2.3924 J1.8101
G1 X14.7119 Y-10.2357
G1 X14.7527 Y-10.289
G1 X14.7787 Y-10.3231
G1 X14.8122 Y-10.3671
G1 X14.8756 Y-10.4512
G1 X15.703 Y-12.5847
G0 Z3.0
G0 X-3.3751 Y1.0556
G0 Z-0.9
G1 F40.0 Z-1.5
G1 F80.0 X-0.7498 Y0.5428
G2 X-0.0164 Y0.3047 I-56.5152 J-175.278
G3 X-0.0013 Y0.2998 I0.9326 J2.8514
G2 X0.2183 Y0.2256 I-2.3823 J-7.4162
G3 X0.2831 Y0.2035 I1.0021 J2.8277
G2 X0.3666 Y0.1745 I-0.8704 J-2.6466
G3 X0.4019 Y0.1619 I1.0271 J2.8187
G2 X1.6376 Y-0.3056 I-8.8293 J-25.2052
G3 X1.6496 Y-0.3104 I1.1306 J2.7788
G2 X2.4715 Y-0.6557 I-10.6066 J-26.3971
G3 X2.5214 Y-0.6771 I1.2052 J2.7473
G2 X2.5487 Y-0.6891 I-0.3097 J-0.7424
G3 X2.643 Y-0.7306 I1.2569 J2.724
G2 X2.6789 Y-0.7466 I-0.375 J-0.8922
G3 X2.7815 Y-0.7924 I1.2737 J2.7162
G2 X2.8272 Y-0.813 I-0.4383 J-1.0338
G3 X2.877 Y-0.8362 I1.2931 J2.707
G2 X4.0631 Y-1.4053 I-13.5911 J-29.846
G2 X5.0932 Y-1.951 I-17.1106 J-33.5484
G3 X5.1279 Y-1.9697 I1.4451 J2.629
G2 X5.188 Y-2.0032 I-0.8668 J-1.6272
G3 X5.2226 Y-2.023 I1.5082 J2.5933
G2 X6.3608 Y-2.6925 I-17.7557 J-31.486
G1 X6.7427 Y-2.9322
G1 X7.1182 Y-3.1754
G1 X7.3935 Y-3.3585
G1 X7.6712 Y-3.5476
G1 X7.8517 Y-3.6728
G1 X8.0326 Y-3.8003
G1 X8.2083 Y-3.9259
G1 X8.5719 Y-4.192
G1 X8.8267 Y-4.3832
G1 X9.0933 Y-4.5877
G2 X9.2406 Y-4.7027 I-7.2701 J-9.4627
G3 X9.2589 Y-4.7171 I1.8647 J2.35
G2 X9.5319 Y-4.9344 I-11.6979 J-14.9803
G1 X9.8364 Y-5.1827
G1 X9.9077 Y-5.2418
G1 X10.2348 Y-5.5173
G1 X10.5636 Y-5.8021
G2 X10.8684 Y-6.0736 I-13.1629 J-15.0848
G3 X10.8897 Y-6.0928 I2.0181 J2.2197
G2 X11.182 Y-6.3604 I-10.0184 J-11.2334
G3 X11.2089 Y-6.3854 I2.055 J2.1856
G2 X11.4897 Y-6.6496 I-10.263 J-11.1867
G1 X11.8155 Y-6.9647
G2 X12.3595 Y-7.5119 I-19.7844 J-20.2133
G1 X12.6292 Y-7.7934
G1 X12.7097 Y-7.8789
G1 X12.8291 Y-8.0067
G3 X12.8357 Y-8.0138 I2.1925 J2.0477
G2 X12.876 Y-8.0572 I-2.8978 J-2.7241
G3 X12.9023 Y-8.0858 I2.2162 J2.022
G2 X13.1701 Y-8.38 I-10.2513 J-9.5991
G3 X13.2054 Y-8.4192 I2.247 J1.9877
G3 X13.2149 Y-8.43 I2.2578 J1.9755
G1 X13.4673 Y-8.7157
G1 X13.5369 Y-8.7956
G1 X13.8323 Y-9.1416
G1 X13.8841 Y-9.2033
G1 X13.9422 Y-9.2728
G1 X13.9583 Y-9.2921
G3 X13.9603 Y-9.2945 I2.3065 J1.9184
G2 X14.0803 Y-9.4399 I-15.8287 J-13.1936
G1 X14.3124 Y-9.7262
G1 X14.3866 Y-9.8191
G3 X14.3954 Y-9.8301 I2.3447 J1.8714
G3 X14.4029 Y-9.8397 I2.3629 J1.8484
G1 X14.5055 Y-9.9698
G1 X14.6178 Y-10.1137
G1 X14.6306 Y-10.1302
G1 X14.6748 Y-10.1874
G3 X14.6862 Y-10.2021 I2.3742 J1.8339
G2 X14.6894 Y-10.2062 I-0.2514 J-0.1967
G3 X14.7022 Y-10.223 I2.3924 J1.8101
G1 X14.7119 Y-10.2357
G1 X14.7527 Y-10.289
G1 X14.7787 Y-10.3231
G1 X14.8122 Y-10.3671
G1 X14.8756 Y-10.4512
G1 X15.703 Y-12.5847
G0 Z3.0
G0 X-3.3751 Y1.0556
G0 Z-1.4
G1 F40.0 Z-2.0
G1 F80.0 X-0.7498 Y0.5428
G2 X-0.0164 Y0.3047 I-56.5152 J-175.278
G3 X-0.0013 Y0.2998 I0.9326 J2.8514
G2 X0.2183 Y0.2256 I-2.3823 J-7.4162
G3 X0.2831 Y0.2035 I1.0021 J2.8277
G2 X0.3666 Y0.1745 I-0.8704 J-2.6466
G3 X0.4019 Y0.1619 I1.0271 J2.8187
G2 X1.6376 Y-0.3056 I-8.8293 J-25.2052
G3 X1.6496 Y-0.3104 I1.1306 J2.7788
G2 X2.4715 Y-0.6557 I-10.6066 J-26.3971
G3 X2.5214 Y-0.6771 I1.2052 J2.7473
G2 X2.5487 Y-0.6891 I-0.3097 J-0.7424
G3 X2.643 Y-0.7306 I1.2569 J2.724
G2 X2.6789 Y-0.7466 I-0.375 J-0.8922
G3 X2.7815 Y-0.7924 I1.2737 J2.7162
G2 X2.8272 Y-0.813 I-0.4383 J-1.0338
G3 X2.877 Y-0.8362 I1.2931 J2.707
G2 X4.0631 Y-1.4053 I-13.5911 J-29.846
G2 X5.0932 Y-1.951 I-17.1106 J-33.5484
G3 X5.1279 Y-1.9697 I1.4451 J2.629
G2 X5.188 Y-2.0032 I-0.8668 J-1.6272
G3 X5.2226 Y-2.023 I1.5082 J2.5933
G2 X6.3608 Y-2.6925 I-17.7557 J-31.486
G1 X6.7427 Y-2.9322
G1 X7.1182 Y-3.1754
G1 X7.3935 Y-3.3585
G1 X7.6712 Y-3.5476
G1 X7.8517 Y-3.6728
G1 X8.0326 Y-3.8003
G1 X8.2083 Y-3.9259
G1 X8.5719 Y-4.192
G1 X8.8267 Y-4.3832
G1 X9.0933 Y-4.5877
G2 X9.2406 Y-4.7027 I-7.2701 J-9.4627
G3 X9.2589 Y-4.7171 I1.8647 J2.35
G2 X9.5319 Y-4.9344 I-11.6979 J-14.9803
G1 X9.8364 Y-5.1827
G1 X9.9077 Y-5.2418
G1 X10.2348 Y-5.5173
G1 X10.5636 Y-5.8021
G2 X10.8684 Y-6.0736 I-13.1629 J-15.0848
G3 X10.8897 Y-6.0928 I2.0181 J2.2197
G2 X11.182 Y-6.3604 I-10.0184 J-11.2334
G3 X11.2089 Y-6.3854 I2.055 J2.1856
G2 X11.4897 Y-6.6496 I-10.263 J-11.1867
G1 X11.8155 Y-6.9647
G2 X12.3595 Y-7.5119 I-19.7844 J-20.2133
G1 X12.6292 Y-7.7934
G1 X12.7097 Y-7.8789
G1 X12.8291 Y-8.0067
G3 X12.8357 Y-8.0138 I2.1925 J2.0477
G2 X12.876 Y-8.0572 I-2.8978 J-2.7241
G3 X12.9023 Y-8.0858 I2.2162 J2.022
G2 X13.1701 Y-8.38 I-10.2513 J-9.5991
G3 X13.2054 Y-8.4192 I2.247 J1.9877
G3 X13.2149 Y-8.43 I2.2578 J1.9755
G1 X13.4673 Y-8.7157
G1 X13.5369 Y-8.7956
G1 X13.8323 Y-9.1416
G1 X13.8841 Y-9.2033
G1 X13.9422 Y-9.2728
G1 X13.9583 Y-9.2921
G3 X13.9603 Y-9.2945 I2.3065 J1.9184
G2 X14.0803 Y-9.4399 I-15.8287 J-13.1936
G1 X14.3124 Y-9.7262
G1 X14.3866 Y-9.8191
G3 X14.3954 Y-9.8301 I2.3447 J1.8714
G3 X14.4029 Y-9.8397 I2.3629 J1.8484
G1 X14.5055 Y-9.9698
G1 X14.6178 Y-10.1137
G1 X14.6306 Y-10.1302
G1 X14.6748 Y-10.1874
G3 X14.6862 Y-10.2021 I2.3742 J1.8339
G2 X14.6894 Y-10.2062 I-0.2514 J-0.1967
G3 X14.7022 Y-10.223 I2.3924 J1.8101
G1 X14.7119 Y-10.2357
G1 X14.7527 Y-10.289
G1 X14.7787 Y-10.3231
G1 X14.8122 Y-10.3671
G1 X14.8756 Y-10.4512
G1 X15.703 Y-12.5847
G0 Z3.0
G0 X-3.3751 Y1.0556
G0 Z-1.9
G1 F40.0 Z-2.5
G1 F80.0 X-0.7498 Y0.5428
G2 X-0.0164 Y0.3047 I-56.5152 J-175.278
G3 X-0.0013 Y0.2998 I0.9326 J2.8514
G2 X0.2183 Y0.2256 I-2.3823 J-7.4162
G3 X0.2831 Y0.2035 I1.0021 J2.8277
G2 X0.3666 Y0.1745 I-0.8704 J-2.6466
G3 X0.4019 Y0.1619 I1.0271 J2.8187
G2 X1.6376 Y-0.3056 I-8.8293 J-25.2052
G3 X1.6496 Y-0.3104 I1.1306 J2.7788
G2 X2.4715 Y-0.6557 I-10.6066 J-26.3971
G3 X2.5214 Y-0.6771 I1.2052 J2.7473
G2 X2.5487 Y-0.6891 I-0.3097 J-0.7424
G3 X2.643 Y-0.7306 I1.2569 J2.724
G2 X2.6789 Y-0.7466 I-0.375 J-0.8922
G3 X2.7815 Y-0.7924 I1.2737 J2.7162
G2 X2.8272 Y-0.813 I-0.4383 J-1.0338
G3 X2.877 Y-0.8362 I1.2931 J2.707
G2 X4.0631 Y-1.4053 I-13.5911 J-29.846
G2 X5.0932 Y-1.951 I-17.1106 J-33.5484
G3 X5.1279 Y-1.9697 I1.4451 J2.629
G2 X5.188 Y-2.0032 I-0.8668 J-1.6272
G3 X5.2226 Y-2.023 I1.5082 J2.5933
G2 X6.3608 Y-2.6925 I-17.7557 J-31.486
G1 X6.7427 Y-2.9322
G1 X7.1182 Y-3.1754
G1 X7.3935 Y-3.3585
G1 X7.6712 Y-3.5476
G1 X7.8517 Y-3.6728
G1 X8.0326 Y-3.8003
G1 X8.2083 Y-3.9259
G1 X8.5719 Y-4.192
G1 X8.8267 Y-4.3832
G1 X9.0933 Y-4.5877
G2 X9.2406 Y-4.7027 I-7.2701 J-9.4627
G3 X9.2589 Y-4.7171 I1.8647 J2.35
G2 X9.5319 Y-4.9344 I-11.6979 J-14.9803
G1 X9.8364 Y-5.1827
G1 X9.9077 Y-5.2418
G1 X10.2348 Y-5.5173
G1 X10.5636 Y-5.8021
G2 X10.8684 Y-6.0736 I-13.1629 J-15.0848
G3 X10.8897 Y-6.0928 I2.0181 J2.2197
G2 X11.182 Y-6.3604 I-10.0184 J-11.2334
G3 X11.2089 Y-6.3854 I2.055 J2.1856
G2 X11.4897 Y-6.6496 I-10.263 J-11.1867
G1 X11.8155 Y-6.9647
G2 X12.3595 Y-7.5119 I-19.7844 J-20.2133
G1 X12.6292 Y-7.7934
G1 X12.7097 Y-7.8789
G1 X12.8291 Y-8.0067
G3 X12.8357 Y-8.0138 I2.1925 J2.0477
G2 X12.876 Y-8.0572 I-2.8978 J-2.7241
G3 X12.9023 Y-8.0858 I2.2162 J2.022
G2 X13.1701 Y-8.38 I-10.2513 J-9.5991
G3 X13.2054 Y-8.4192 I2.247 J1.9877
G3 X13.2149 Y-8.43 I2.2578 J1.9755
G1 X13.4673 Y-8.7157
G1 X13.5369 Y-8.7956
G1 X13.8323 Y-9.1416
G1 X13.8841 Y-9.2033
G1 X13.9422 Y-9.2728
G1 X13.9583 Y-9.2921
G3 X13.9603 Y-9.2945 I2.3065 J1.9184
G2 X14.0803 Y-9.4399 I-15.8287 J-13.1936
G1 X14.3124 Y-9.7262
G1 X14.3866 Y-9.8191
G3 X14.3954 Y-9.8301 I2.3447 J1.8714
G3 X14.4029 Y-9.8397 I2.3629 J1.8484
G1 X14.5055 Y-9.9698
G1 X14.6178 Y-10.1137
G1 X14.6306 Y-10.1302
G1 X14.6748 Y-10.1874
G3 X14.6862 Y-10.2021 I2.3742 J1.8339
G2 X14.6894 Y-10.2062 I-0.2514 J-0.1967
G3 X14.7022 Y-10.223 I2.3924 J1.8101
G1 X14.7119 Y-10.2357
G1 X14.7527 Y-10.289
G1 X14.7787 Y-10.3231
G1 X14.8122 Y-10.3671
G1 X14.8756 Y-10.4512
G1 X15.703 Y-12.5847
G0 Z3.0
G0 X-3.3751 Y1.0556
G0 Z-2.4
G1 F40.0 Z-3.0
G1 F80.0 X-0.7498 Y0.5428
G2 X-0.0164 Y0.3047 I-56.5152 J-175.278
G3 X-0.0013 Y0.2998 I0.9326 J2.8514
G2 X0.2183 Y0.2256 I-2.3823 J-7.4162
G3 X0.2831 Y0.2035 I1.0021 J2.8277
G2 X0.3666 Y0.1745 I-0.8704 J-2.6466
G3 X0.4019 Y0.1619 I1.0271 J2.8187
G2 X1.6376 Y-0.3056 I-8.8293 J-25.2052
G3 X1.6496 Y-0.3104 I1.1306 J2.7788
G2 X2.4715 Y-0.6557 I-10.6066 J-26.3971
G3 X2.5214 Y-0.6771 I1.2052 J2.7473
G2 X2.5487 Y-0.6891 I-0.3097 J-0.7424
G3 X2.643 Y-0.7306 I1.2569 J2.724
G2 X2.6789 Y-0.7466 I-0.375 J-0.8922
G3 X2.7815 Y-0.7924 I1.2737 J2.7162
G2 X2.8272 Y-0.813 I-0.4383 J-1.0338
G3 X2.877 Y-0.8362 I1.2931 J2.707
G2 X4.0631 Y-1.4053 I-13.5911 J-29.846
G2 X5.0932 Y-1.951 I-17.1106 J-33.5484
G3 X5.1279 Y-1.9697 I1.4451 J2.629
G2 X5.188 Y-2.0032 I-0.8668 J-1.6272
G3 X5.2226 Y-2.023 I1.5082 J2.5933
G2 X6.3608 Y-2.6925 I-17.7557 J-31.486
G1 X6.7427 Y-2.9322
G1 X7.1182 Y-3.1754
G1 X7.3935 Y-3.3585
G1 X7.6712 Y-3.5476
G1 X7.8517 Y-3.6728
G1 X8.0326 Y-3.8003
G1 X8.2083 Y-3.9259
G1 X8.5719 Y-4.192
G1 X8.8267 Y-4.3832
G1 X9.0933 Y-4.5877
G2 X9.2406 Y-4.7027 I-7.2701 J-9.4627
G3 X9.2589 Y-4.7171 I1.8647 J2.35
G2 X9.5319 Y-4.9344 I-11.6979 J-14.9803
G1 X9.8364 Y-5.1827
G1 X9.9077 Y-5.2418
G1 X10.2348 Y-5.5173
G1 X10.5636 Y-5.8021
G2 X10.8684 Y-6.0736 I-13.1629 J-15.0848
G3 X10.8897 Y-6.0928 I2.0181 J2.2197
G2 X11.182 Y-6.3604 I-10.0184 J-11.2334
G3 X11.2089 Y-6.3854 I2.055 J2.1856
G2 X11.4897 Y-6.6496 I-10.263 J-11.1867
G1 X11.8155 Y-6.9647
G2 X12.3595 Y-7.5119 I-19.7844 J-20.2133
G1 X12.6292 Y-7.7934
G1 X12.7097 Y-7.8789
G1 X12.8291 Y-8.0067
G3 X12.8357 Y-8.0138 I2.1925 J2.0477
G2 X12.876 Y-8.0572 I-2.8978 J-2.7241
G3 X12.9023 Y-8.0858 I2.2162 J2.022
G2 X13.1701 Y-8.38 I-10.2513 J-9.5991
G3 X13.2054 Y-8.4192 I2.247 J1.9877
G3 X13.2149 Y-8.43 I2.2578 J1.9755
G1 X13.4673 Y-8.7157
G1 X13.5369 Y-8.7956
G1 X13.8323 Y-9.1416
G1 X13.8841 Y-9.2033
G1 X13.9422 Y-9.2728
G1 X13.9583 Y-9.2921
G3 X13.9603 Y-9.2945 I2.3065 J1.9184
G2 X14.0803 Y-9.4399 I-15.8287 J-13.1936
G1 X14.3124 Y-9.7262
G1 X14.3866 Y-9.8191
G3 X14.3954 Y-9.8301 I2.3447 J1.8714
G3 X14.4029 Y-9.8397 I2.3629 J1.8484
G1 X14.5055 Y-9.9698
G1 X14.6178 Y-10.1137
G1 X14.6306 Y-10.1302
G1 X14.6748 Y-10.1874
G3 X14.6862 Y-10.2021 I2.3742 J1.8339
G2 X14.6894 Y-10.2062 I-0.2514 J-0.1967
G3 X14.7022 Y-10.223 I2.3924 J1.8101
G1 X14.7119 Y-10.2357
G1 X14.7527 Y-10.289
G1 X14.7787 Y-10.3231
G1 X14.8122 Y-10.3671
G1 X14.8756 Y-10.4512
G1 X15.703 Y-12.5847
G0 Z3.0
G0 X-3.3751 Y1.0556
G0 Z-2.9
G1 F40.0 Z-3.5
G1 F80.0 X-0.7498 Y0.5428
G2 X-0.0164 Y0.3047 I-56.5152 J-175.278
G3 X-0.0013 Y0.2998 I0.9326 J2.8514
G2 X0.2183 Y0.2256 I-2.3823 J-7.4162
G3 X0.2831 Y0.2035 I1.0021 J2.8277
G2 X0.3666 Y0.1745 I-0.8704 J-2.6466
G3 X0.4019 Y0.1619 I1.0271 J2.8187
G2 X1.6376 Y-0.3056 I-8.8293 J-25.2052
G3 X1.6496 Y-0.3104 I1.1306 J2.7788
G2 X2.4715 Y-0.6557 I-10.6066 J-26.3971
G3 X2.5214 Y-0.6771 I1.2052 J2.7473
G2 X2.5487 Y-0.6891 I-0.3097 J-0.7424
G3 X2.643 Y-0.7306 I1.2569 J2.724
G2 X2.6789 Y-0.7466 I-0.375 J-0.8922
G3 X2.7815 Y-0.7924 I1.2737 J2.7162
G2 X2.8272 Y-0.813 I-0.4383 J-1.0338
G3 X2.877 Y-0.8362 I1.2931 J2.707
G2 X4.0631 Y-1.4053 I-13.5911 J-29.846
G2 X5.0932 Y-1.951 I-17.1106 J-33.5484
G3 X5.1279 Y-1.9697 I1.4451 J2.629
G2 X5.188 Y-2.0032 I-0.8668 J-1.6272
G3 X5.2226 Y-2.023 I1.5082 J2.5933
G2 X6.3608 Y-2.6925 I-17.7557 J-31.486
G1 X6.7427 Y-2.9322
G1 X7.1182 Y-3.1754
G1 X7.3935 Y-3.3585
G1 X7.6712 Y-3.5476
G1 X7.8517 Y-3.6728
G1 X8.0326 Y-3.8003
G1 X8.2083 Y-3.9259
G1 X8.5719 Y-4.192
G1 X8.8267 Y-4.3832
G1 X9.0933 Y-4.5877
G2 X9.2406 Y-4.7027 I-7.2701 J-9.4627
G3 X9.2589 Y-4.7171 I1.8647 J2.35
G2 X9.5319 Y-4.9344 I-11.6979 J-14.9803
G1 X9.8364 Y-5.1827
G1 X9.9077 Y-5.2418
G1 X10.2348 Y-5.5173
G1 X10.5636 Y-5.8021
G2 X10.8684 Y-6.0736 I-13.1629 J-15.0848
G3 X10.8897 Y-6.0928 I2.0181 J2.2197
G2 X11.182 Y-6.3604 I-10.0184 J-11.2334
G3 X11.2089 Y-6.3854 I2.055 J2.1856
G2 X11.4897 Y-6.6496 I-10.263 J-11.1867
G1 X11.8155 Y-6.9647
G2 X12.3595 Y-7.5119 I-19.7844 J-20.2133
G1 X12.6292 Y-7.7934
G1 X12.7097 Y-7.8789
G1 X12.8291 Y-8.0067
G3 X12.8357 Y-8.0138 I2.1925 J2.0477
G2 X12.876 Y-8.0572 I-2.8978 J-2.7241
G3 X12.9023 Y-8.0858 I2.2162 J2.022
G2 X13.1701 Y-8.38 I-10.2513 J-9.5991
G3 X13.2054 Y-8.4192 I2.247 J1.9877
G3 X13.2149 Y-8.43 I2.2578 J1.9755
G1 X13.4673 Y-8.7157
G1 X13.5369 Y-8.7956
G1 X13.8323 Y-9.1416
G1 X13.8841 Y-9.2033
G1 X13.9422 Y-9.2728
G1 X13.9583 Y-9.2921
G3 X13.9603 Y-9.2945 I2.3065 J1.9184
G2 X14.0803 Y-9.4399 I-15.8287 J-13.1936
G1 X14.3124 Y-9.7262
G1 X14.3866 Y-9.8191
G3 X14.3954 Y-9.8301 I2.3447 J1.8714
G3 X14.4029 Y-9.8397 I2.3629 J1.8484
G1 X14.5055 Y-9.9698
G1 X14.6178 Y-10.1137
G1 X14.6306 Y-10.1302
G1 X14.6748 Y-10.1874
G3 X14.6862 Y-10.2021 I2.3742 J1.8339
G2 X14.6894 Y-10.2062 I-0.2514 J-0.1967
G3 X14.7022 Y-10.223 I2.3924 J1.8101
G1 X14.7119 Y-10.2357
G1 X14.7527 Y-10.289
G1 X14.7787 Y-10.3231
G1 X14.8122 Y-10.3671
G1 X14.8756 Y-10.4512
G1 X15.703 Y-12.5847
G0 Z3.0
G0 X-3.3751 Y1.0556
G0 Z-3.4
G1 F40.0 Z-4.0
G1 F80.0 X-0.7498 Y0.5428
G2 X-0.0164 Y0.3047 I-56.5152 J-175.278
G3 X-0.0013 Y0.2998 I0.9326 J2.8514
G2 X0.2183 Y0.2256 I-2.3823 J-7.4162
G3 X0.2831 Y0.2035 I1.0021 J2.8277
G2 X0.3666 Y0.1745 I-0.8704 J-2.6466
G3 X0.4019 Y0.1619 I1.0271 J2.8187
G2 X1.6376 Y-0.3056 I-8.8293 J-25.2052
G3 X1.6496 Y-0.3104 I1.1306 J2.7788
G2 X2.4715 Y-0.6557 I-10.6066 J-26.3971
G3 X2.5214 Y-0.6771 I1.2052 J2.7473
G2 X2.5487 Y-0.6891 I-0.3097 J-0.7424
G3 X2.643 Y-0.7306 I1.2569 J2.724
G2 X2.6789 Y-0.7466 I-0.375 J-0.8922
G3 X2.7815 Y-0.7924 I1.2737 J2.7162
G2 X2.8272 Y-0.813 I-0.4383 J-1.0338
G3 X2.877 Y-0.8362 I1.2931 J2.707
G2 X4.0631 Y-1.4053 I-13.5911 J-29.846
G2 X5.0932 Y-1.951 I-17.1106 J-33.5484
G3 X5.1279 Y-1.9697 I1.4451 J2.629
G2 X5.188 Y-2.0032 I-0.8668 J-1.6272
G3 X5.2226 Y-2.023 I1.5082 J2.5933
G2 X6.3608 Y-2.6925 I-17.7557 J-31.486
G1 X6.7427 Y-2.9322
G1 X7.1182 Y-3.1754
G1 X7.3935 Y-3.3585
G1 X7.6712 Y-3.5476
G1 X7.8517 Y-3.6728
G1 X8.0326 Y-3.8003
G1 X8.2083 Y-3.9259
G1 X8.5719 Y-4.192
G1 X8.8267 Y-4.3832
G1 X9.0933 Y-4.5877
G2 X9.2406 Y-4.7027 I-7.2701 J-9.4627
G3 X9.2589 Y-4.7171 I1.8647 J2.35
G2 X9.5319 Y-4.9344 I-11.6979 J-14.9803
G1 X9.8364 Y-5.1827
G1 X9.9077 Y-5.2418
G1 X10.2348 Y-5.5173
G1 X10.5636 Y-5.8021
G2 X10.8684 Y-6.0736 I-13.1629 J-15.0848
G3 X10.8897 Y-6.0928 I2.0181 J2.2197
G2 X11.182 Y-6.3604 I-10.0184 J-11.2334
G3 X11.2089 Y-6.3854 I2.055 J2.1856
G2 X11.4897 Y-6.6496 I-10.263 J-11.1867
G1 X11.8155 Y-6.9647
G2 X12.3595 Y-7.5119 I-19.7844 J-20.2133
G1 X12.6292 Y-7.7934
G1 X12.7097 Y-7.8789
G1 X12.8291 Y-8.0067
G3 X12.8357 Y-8.0138 I2.1925 J2.0477
G2 X12.876 Y-8.0572 I-2.8978 J-2.7241
G3 X12.9023 Y-8.0858 I2.2162 J2.022
G2 X13.1701 Y-8.38 I-10.2513 J-9.5991
G3 X13.2054 Y-8.4192 I2.247 J1.9877
G3 X13.2149 Y-8.43 I2.2578 J1.9755
G1 X13.4673 Y-8.7157
G1 X13.5369 Y-8.7956
G1 X13.8323 Y-9.1416
G1 X13.8841 Y-9.2033
G1 X13.9422 Y-9.2728
G1 X13.9583 Y-9.2921
G3 X13.9603 Y-9.2945 I2.3065 J1.9184
G2 X14.0803 Y-9.4399 I-15.8287 J-13.1936
G1 X14.3124 Y-9.7262
G1 X14.3866 Y-9.8191
G3 X14.3954 Y-9.8301 I2.3447 J1.8714
G3 X14.4029 Y-9.8397 I2.3629 J1.8484
G1 X14.5055 Y-9.9698
G1 X14.6178 Y-10.1137
G1 X14.6306 Y-10.1302
G1 X14.6748 Y-10.1874
G3 X14.6862 Y-10.2021 I2.3742 J1.8339
G2 X14.6894 Y-10.2062 I-0.2514 J-0.1967
G3 X14.7022 Y-10.223 I2.3924 J1.8101
G1 X14.7119 Y-10.2357
G1 X14.7527 Y-10.289
G1 X14.7787 Y-10.3231
G1 X14.8122 Y-10.3671
G1 X14.8756 Y-10.4512
G1 X15.703 Y-12.5847
G0 Z3.0
G0 X-3.3751 Y1.0556
G0 Z-3.9
G1 F40.0 Z-4.5
G1 F80.0 X-0.7498 Y0.5428
G2 X-0.0164 Y0.3047 I-56.5152 J-175.278
G3 X-0.0013 Y0.2998 I0.9326 J2.8514
G2 X0.2183 Y0.2256 I-2.3823 J-7.4162
G3 X0.2831 Y0.2035 I1.0021 J2.8277
G2 X0.3666 Y0.1745 I-0.8704 J-2.6466
G3 X0.4019 Y0.1619 I1.0271 J2.8187
G2 X1.6376 Y-0.3056 I-8.8293 J-25.2052
G3 X1.6496 Y-0.3104 I1.1306 J2.7788
G2 X2.4715 Y-0.6557 I-10.6066 J-26.3971
G3 X2.5214 Y-0.6771 I1.2052 J2.7473
G2 X2.5487 Y-0.6891 I-0.3097 J-0.7424
G3 X2.643 Y-0.7306 I1.2569 J2.724
G2 X2.6789 Y-0.7466 I-0.375 J-0.8922
G3 X2.7815 Y-0.7924 I1.2737 J2.7162
G2 X2.8272 Y-0.813 I-0.4383 J-1.0338
G3 X2.877 Y-0.8362 I1.2931 J2.707
G2 X4.0631 Y-1.4053 I-13.5911 J-29.846
G2 X5.0932 Y-1.951 I-17.1106 J-33.5484
G3 X5.1279 Y-1.9697 I1.4451 J2.629
G2 X5.188 Y-2.0032 I-0.8668 J-1.6272
G3 X5.2226 Y-2.023 I1.5082 J2.5933
G2 X6.3608 Y-2.6925 I-17.7557 J-31.486
G1 X6.7427 Y-2.9322
G1 X7.1182 Y-3.1754
G1 X7.3935 Y-3.3585
G1 X7.6712 Y-3.5476
G1 X7.8517 Y-3.6728
G1 X8.0326 Y-3.8003
G1 X8.2083 Y-3.9259
G1 X8.5719 Y-4.192
G1 X8.8267 Y-4.3832
G1 X9.0933 Y-4.5877
G2 X9.2406 Y-4.7027 I-7.2701 J-9.4627
G3 X9.2589 Y-4.7171 I1.8647 J2.35
G2 X9.5319 Y-4.9344 I-11.6979 J-14.9803
G1 X9.8364 Y-5.1827
G1 X9.9077 Y-5.2418
G1 X10.2348 Y-5.5173
G1 X10.5636 Y-5.8021
G2 X10.8684 Y-6.0736 I-13.1629 J-15.0848
G3 X10.8897 Y-6.0928 I2.0181 J2.2197
G2 X11.182 Y-6.3604 I-10.0184 J-11.2334
G3 X11.2089 Y-6.3854 I2.055 J2.1856
G2 X11.4897 Y-6.6496 I-10.263 J-11.1867
G1 X11.8155 Y-6.9647
G2 X12.3595 Y-7.5119 I-19.7844 J-20.2133
G1 X12.6292 Y-7.7934
G1 X12.7097 Y-7.8789
G1 X12.8291 Y-8.0067
G3 X12.8357 Y-8.0138 I2.1925 J2.0477
G2 X12.876 Y-8.0572 I-2.8978 J-2.7241
G3 X12.9023 Y-8.0858 I2.2162 J2.022
G2 X13.1701 Y-8.38 I-10.2513 J-9.5991
G3 X13.2054 Y-8.4192 I2.247 J1.9877
G3 X13.2149 Y-8.43 I2.2578 J1.9755
G1 X13.4673 Y-8.7157
G1 X13.5369 Y-8.7956
G1 X13.8323 Y-9.1416
G1 X13.8841 Y-9.2033
G1 X13.9422 Y-9.2728
G1 X13.9583 Y-9.2921
G3 X13.9603 Y-9.2945 I2.3065 J1.9184
G2 X14.0803 Y-9.4399 I-15.8287 J-13.1936
G1 X14.3124 Y-9.7262
G1 X14.3866 Y-9.8191
G3 X14.3954 Y-9.8301 I2.3447 J1.8714
G3 X14.4029 Y-9.8397 I2.3629 J1.8484
G1 X14.5055 Y-9.9698
G1 X14.6178 Y-10.1137
G1 X14.6306 Y-10.1302
G1 X14.6748 Y-10.1874
G3 X14.6862 Y-10.2021 I2.3742 J1.8339
G2 X14.6894 Y-10.2062 I-0.2514 J-0.1967
G3 X14.7022 Y-10.223 I2.3924 J1.8101
G1 X14.7119 Y-10.2357
G1 X14.7527 Y-10.289
G1 X14.7787 Y-10.3231
G1 X14.8122 Y-10.3671
G1 X14.8756 Y-10.4512
G1 X15.703 Y-12.5847
G0 Z3.0
G0 X-3.3751 Y1.0556
G0 Z-4.4
G1 F40.0 Z-5.0
G1 F80.0 X-0.7498 Y0.5428
G2 X-0.0164 Y0.3047 I-56.5152 J-175.278
G3 X-0.0013 Y0.2998 I0.9326 J2.8514
G2 X0.2183 Y0.2256 I-2.3823 J-7.4162
G3 X0.2831 Y0.2035 I1.0021 J2.8277
G2 X0.3666 Y0.1745 I-0.8704 J-2.6466
G3 X0.4019 Y0.1619 I1.0271 J2.8187
G2 X1.6376 Y-0.3056 I-8.8293 J-25.2052
G3 X1.6496 Y-0.3104 I1.1306 J2.7788
G2 X2.4715 Y-0.6557 I-10.6066 J-26.3971
G3 X2.5214 Y-0.6771 I1.2052 J2.7473
G2 X2.5487 Y-0.6891 I-0.3097 J-0.7424
G3 X2.643 Y-0.7306 I1.2569 J2.724
G2 X2.6789 Y-0.7466 I-0.375 J-0.8922
G3 X2.7815 Y-0.7924 I1.2737 J2.7162
G2 X2.8272 Y-0.813 I-0.4383 J-1.0338
G3 X2.877 Y-0.8362 I1.2931 J2.707
G2 X4.0631 Y-1.4053 I-13.5911 J-29.846
G2 X5.0932 Y-1.951 I-17.1106 J-33.5484
G3 X5.1279 Y-1.9697 I1.4451 J2.629
G2 X5.188 Y-2.0032 I-0.8668 J-1.6272
G3 X5.2226 Y-2.023 I1.5082 J2.5933
G2 X6.3608 Y-2.6925 I-17.7557 J-31.486
G1 X6.7427 Y-2.9322
G1 X7.1182 Y-3.1754
G1 X7.3935 Y-3.3585
G1 X7.6712 Y-3.5476
G1 X7.8517 Y-3.6728
G1 X8.0326 Y-3.8003
G1 X8.2083 Y-3.9259
G1 X8.5719 Y-4.192
G1 X8.8267 Y-4.3832
G1 X9.0933 Y-4.5877
G2 X9.2406 Y-4.7027 I-7.2701 J-9.4627
G3 X9.2589 Y-4.7171 I1.8647 J2.35
G2 X9.5319 Y-4.9344 I-11.6979 J-14.9803
G1 X9.8364 Y-5.1827
G1 X9.9077 Y-5.2418
G1 X10.2348 Y-5.5173
G1 X10.5636 Y-5.8021
G2 X10.8684 Y-6.0736 I-13.1629 J-15.0848
G3 X10.8897 Y-6.0928 I2.0181 J2.2197
G2 X11.182 Y-6.3604 I-10.0184 J-11.2334
G3 X11.2089 Y-6.3854 I2.055 J2.1856
G2 X11.4897 Y-6.6496 I-10.263 J-11.1867
G1 X11.8155 Y-6.9647
G2 X12.3595 Y-7.5119 I-19.7844 J-20.2133
G1 X12.6292 Y-7.7934
G1 X12.7097 Y-7.8789
G1 X12.8291 Y-8.0067
G3 X12.8357 Y-8.0138 I2.1925 J2.0477
G2 X12.876 Y-8.0572 I-2.8978 J-2.7241
G3 X12.9023 Y-8.0858 I2.2162 J2.022
G2 X13.1701 Y-8.38 I-10.2513 J-9.5991
G3 X13.2054 Y-8.4192 I2.247 J1.9877
G3 X13.2149 Y-8.43 I2.2578 J1.9755
G1 X13.4673 Y-8.7157
G1 X13.5369 Y-8.7956
G1 X13.8323 Y-9.1416
G1 X13.8841 Y-9.2033
G1 X13.9422 Y-9.2728
G1 X13.9583 Y-9.2921
G3 X13.9603 Y-9.2945 I2.3065 J1.9184
G2 X14.0803 Y-9.4399 I-15.8287 J-13.1936
G1 X14.3124 Y-9.7262
G1 X14.3866 Y-9.8191
G3 X14.3954 Y-9.8301 I2.3447 J1.8714
G3 X14.4029 Y-9.8397 I2.3629 J1.8484
G1 X14.5055 Y-9.9698
G1 X14.6178 Y-10.1137
G1 X14.6306 Y-10.1302
G1 X14.6748 Y-10.1874
G3 X14.6862 Y-10.2021 I2.3742 J1.8339
G2 X14.6894 Y-10.2062 I-0.2514 J-0.1967
G3 X14.7022 Y-10.223 I2.3924 J1.8101
G1 X14.7119 Y-10.2357
G1 X14.7527 Y-10.289
G1 X14.7787 Y-10.3231
G1 X14.8122 Y-10.3671
G1 X14.8756 Y-10.4512
G1 X15.703 Y-12.5847
G0 Z3.0
G0 X-3.3751 Y1.0556
G0 Z-4.9
G1 F40.0 Z-5.5
G1 F80.0 X-0.7498 Y0.5428
G2 X-0.0164 Y0.3047 I-56.5152 J-175.278
G3 X-0.0013 Y0.2998 I0.9326 J2.8514
G2 X0.2183 Y0.2256 I-2.3823 J-7.4162
G3 X0.2831 Y0.2035 I1.0021 J2.8277
G2 X0.3666 Y0.1745 I-0.8704 J-2.6466
G3 X0.4019 Y0.1619 I1.0271 J2.8187
G2 X1.6376 Y-0.3056 I-8.8293 J-25.2052
G3 X1.6496 Y-0.3104 I1.1306 J2.7788
G2 X2.4715 Y-0.6557 I-10.6066 J-26.3971
G3 X2.5214 Y-0.6771 I1.2052 J2.7473
G2 X2.5487 Y-0.6891 I-0.3097 J-0.7424
G3 X2.643 Y-0.7306 I1.2569 J2.724
G2 X2.6789 Y-0.7466 I-0.375 J-0.8922
G3 X2.7815 Y-0.7924 I1.2737 J2.7162
G2 X2.8272 Y-0.813 I-0.4383 J-1.0338
G3 X2.877 Y-0.8362 I1.2931 J2.707
G2 X4.0631 Y-1.4053 I-13.5911 J-29.846
G2 X5.0932 Y-1.951 I-17.1106 J-33.5484
G3 X5.1279 Y-1.9697 I1.4451 J2.629
G2 X5.188 Y-2.0032 I-0.8668 J-1.6272
G3 X5.2226 Y-2.023 I1.5082 J2.5933
G2 X6.3608 Y-2.6925 I-17.7557 J-31.486
G1 X6.7427 Y-2.9322
G1 X7.1182 Y-3.1754
G1 X7.3935 Y-3.3585
G1 X7.6712 Y-3.5476
G1 X7.8517 Y-3.6728
G1 X8.0326 Y-3.8003
G1 X8.2083 Y-3.9259
G1 X8.5719 Y-4.192
G1 X8.8267 Y-4.3832
G1 X9.0933 Y-4.5877
G2 X9.2406 Y-4.7027 I-7.2701 J-9.4627
G3 X9.2589 Y-4.7171 I1.8647 J2.35
G2 X9.5319 Y-4.9344 I-11.6979 J-14.9803
G1 X9.8364 Y-5.1827
G1 X9.9077 Y-5.2418
G1 X10.2348 Y-5.5173
G1 X10.5636 Y-5.8021
G2 X10.8684 Y-6.0736 I-13.1629 J-15.0848
G3 X10.8897 Y-6.0928 I2.0181 J2.2197
G2 X11.182 Y-6.3604 I-10.0184 J-11.2334
G3 X11.2089 Y-6.3854 I2.055 J2.1856
G2 X11.4897 Y-6.6496 I-10.263 J-11.1867
G1 X11.8155 Y-6.9647
G2 X12.3595 Y-7.5119 I-19.7844 J-20.2133
G1 X12.6292 Y-7.7934
G1 X12.7097 Y-7.8789
G1 X12.8291 Y-8.0067
G3 X12.8357 Y-8.0138 I2.1925 J2.0477
G2 X12.876 Y-8.0572 I-2.8978 J-2.7241
G3 X12.9023 Y-8.0858 I2.2162 J2.022
G2 X13.1701 Y-8.38 I-10.2513 J-9.5991
G3 X13.2054 Y-8.4192 I2.247 J1.9877
G3 X13.2149 Y-8.43 I2.2578 J1.9755
G1 X13.4673 Y-8.7157
G1 X13.5369 Y-8.7956
G1 X13.8323 Y-9.1416
G1 X13.8841 Y-9.2033
G1 X13.9422 Y-9.2728
G1 X13.9583 Y-9.2921
G3 X13.9603 Y-9.2945 I2.3065 J1.9184
G2 X14.0803 Y-9.4399 I-15.8287 J-13.1936
G1 X14.3124 Y-9.7262
G1 X14.3866 Y-9.8191
G3 X14.3954 Y-9.8301 I2.3447 J1.8714
G3 X14.4029 Y-9.8397 I2.3629 J1.8484
G1 X14.5055 Y-9.9698
G1 X14.6178 Y-10.1137
G1 X14.6306 Y-10.1302
G1 X14.6748 Y-10.1874
G3 X14.6862 Y-10.2021 I2.3742 J1.8339
G2 X14.6894 Y-10.2062 I-0.2514 J-0.1967
G3 X14.7022 Y-10.223 I2.3924 J1.8101
G1 X14.7119 Y-10.2357
G1 X14.7527 Y-10.289
G1 X14.7787 Y-10.3231
G1 X14.8122 Y-10.3671
G1 X14.8756 Y-10.4512
G1 X15.703 Y-12.5847
G0 Z3.0
G0 X-3.3751 Y1.0556
G0 Z-5.4
G1 F40.0 Z-6.0
G1 F80.0 X-0.7498 Y0.5428
G2 X-0.0164 Y0.3047 I-56.5152 J-175.278
G3 X-0.0013 Y0.2998 I0.9326 J2.8514
G2 X0.2183 Y0.2256 I-2.3823 J-7.4162
G3 X0.2831 Y0.2035 I1.0021 J2.8277
G2 X0.3666 Y0.1745 I-0.8704 J-2.6466
G3 X0.4019 Y0.1619 I1.0271 J2.8187
G2 X1.6376 Y-0.3056 I-8.8293 J-25.2052
G3 X1.6496 Y-0.3104 I1.1306 J2.7788
G2 X2.4715 Y-0.6557 I-10.6066 J-26.3971
G3 X2.5214 Y-0.6771 I1.2052 J2.7473
G2 X2.5487 Y-0.6891 I-0.3097 J-0.7424
G3 X2.643 Y-0.7306 I1.2569 J2.724
G2 X2.6789 Y-0.7466 I-0.375 J-0.8922
G3 X2.7815 Y-0.7924 I1.2737 J2.7162
G2 X2.8272 Y-0.813 I-0.4383 J-1.0338
G3 X2.877 Y-0.8362 I1.2931 J2.707
G2 X4.0631 Y-1.4053 I-13.5911 J-29.846
G2 X5.0932 Y-1.951 I-17.1106 J-33.5484
G3 X5.1279 Y-1.9697 I1.4451 J2.629
G2 X5.188 Y-2.0032 I-0.8668 J-1.6272
G3 X5.2226 Y-2.023 I1.5082 J2.5933
G2 X6.3608 Y-2.6925 I-17.7557 J-31.486
G1 X6.7427 Y-2.9322
G1 X7.1182 Y-3.1754
G1 X7.3935 Y-3.3585
G1 X7.6712 Y-3.5476
G1 X7.8517 Y-3.6728
G1 X8.0326 Y-3.8003
G1 X8.2083 Y-3.9259
G1 X8.5719 Y-4.192
G1 X8.8267 Y-4.3832
G1 X9.0933 Y-4.5877
G2 X9.2406 Y-4.7027 I-7.2701 J-9.4627
G3 X9.2589 Y-4.7171 I1.8647 J2.35
G2 X9.5319 Y-4.9344 I-11.6979 J-14.9803
G1 X9.8364 Y-5.1827
G1 X9.9077 Y-5.2418
G1 X10.2348 Y-5.5173
G1 X10.5636 Y-5.8021
G2 X10.8684 Y-6.0736 I-13.1629 J-15.0848
G3 X10.8897 Y-6.0928 I2.0181 J2.2197
G2 X11.182 Y-6.3604 I-10.0184 J-11.2334
G3 X11.2089 Y-6.3854 I2.055 J2.1856
G2 X11.4897 Y-6.6496 I-10.263 J-11.1867
G1 X11.8155 Y-6.9647
G2 X12.3595 Y-7.5119 I-19.7844 J-20.2133
G1 X12.6292 Y-7.7934
G1 X12.7097 Y-7.8789
G1 X12.8291 Y-8.0067
G3 X12.8357 Y-8.0138 I2.1925 J2.0477
G2 X12.876 Y-8.0572 I-2.8978 J-2.7241
G3 X12.9023 Y-8.0858 I2.2162 J2.022
G2 X13.1701 Y-8.38 I-10.2513 J-9.5991
G3 X13.2054 Y-8.4192 I2.247 J1.9877
G3 X13.2149 Y-8.43 I2.2578 J1.9755
G1 X13.4673 Y-8.7157
G1 X13.5369 Y-8.7956
G1 X13.8323 Y-9.1416
G1 X13.8841 Y-9.2033
G1 X13.9422 Y-9.2728
G1 X13.9583 Y-9.2921
G3 X13.9603 Y-9.2945 I2.3065 J1.9184
G2 X14.0803 Y-9.4399 I-15.8287 J-13.1936
G1 X14.3124 Y-9.7262
G1 X14.3866 Y-9.8191
G3 X14.3954 Y-9.8301 I2.3447 J1.8714
G3 X14.4029 Y-9.8397 I2.3629 J1.8484
G1 X14.5055 Y-9.9698
G1 X14.6178 Y-10.1137
G1 X14.6306 Y-10.1302
G1 X14.6748 Y-10.1874
G3 X14.6862 Y-10.2021 I2.3742 J1.8339
G2 X14.6894 Y-10.2062 I-0.2514 J-0.1967
G3 X14.7022 Y-10.223 I2.3924 J1.8101
G1 X14.7119 Y-10.2357
G1 X14.7527 Y-10.289
G1 X14.7787 Y-10.3231
G1 X14.8122 Y-10.3671
G1 X14.8756 Y-10.4512
G1 X15.703 Y-12.5847
G0 Z3.0
G0 X-3.3751 Y1.0556
G0 Z-5.9
G1 F40.0 Z-6.5
G1 F80.0 X-0.7498 Y0.5428
G2 X-0.0164 Y0.3047 I-56.5152 J-175.278
G3 X-0.0013 Y0.2998 I0.9326 J2.8514
G2 X0.2183 Y0.2256 I-2.3823 J-7.4162
G3 X0.2831 Y0.2035 I1.0021 J2.8277
G2 X0.3666 Y0.1745 I-0.8704 J-2.6466
G3 X0.4019 Y0.1619 I1.0271 J2.8187
G2 X1.6376 Y-0.3056 I-8.8293 J-25.2052
G3 X1.6496 Y-0.3104 I1.1306 J2.7788
G2 X2.4715 Y-0.6557 I-10.6066 J-26.3971
G3 X2.5214 Y-0.6771 I1.2052 J2.7473
G2 X2.5487 Y-0.6891 I-0.3097 J-0.7424
G3 X2.643 Y-0.7306 I1.2569 J2.724
G2 X2.6789 Y-0.7466 I-0.375 J-0.8922
G3 X2.7815 Y-0.7924 I1.2737 J2.7162
G2 X2.8272 Y-0.813 I-0.4383 J-1.0338
G3 X2.877 Y-0.8362 I1.2931 J2.707
G2 X4.0631 Y-1.4053 I-13.5911 J-29.846
G2 X5.0932 Y-1.951 I-17.1106 J-33.5484
G3 X5.1279 Y-1.9697 I1.4451 J2.629
G2 X5.188 Y-2.0032 I-0.8668 J-1.6272
G3 X5.2226 Y-2.023 I1.5082 J2.5933
G2 X6.3608 Y-2.6925 I-17.7557 J-31.486
G1 X6.7427 Y-2.9322
G1 X7.1182 Y-3.1754
G1 X7.3935 Y-3.3585
G1 X7.6712 Y-3.5476
G1 X7.8517 Y-3.6728
G1 X8.0326 Y-3.8003
G1 X8.2083 Y-3.9259
G1 X8.5719 Y-4.192
G1 X8.8267 Y-4.3832
G1 X9.0933 Y-4.5877
G2 X9.2406 Y-4.7027 I-7.2701 J-9.4627
G3 X9.2589 Y-4.7171 I1.8647 J2.35
G2 X9.5319 Y-4.9344 I-11.6979 J-14.9803
G1 X9.8364 Y-5.1827
G1 X9.9077 Y-5.2418
G1 X10.2348 Y-5.5173
G1 X10.5636 Y-5.8021
G2 X10.8684 Y-6.0736 I-13.1629 J-15.0848
G3 X10.8897 Y-6.0928 I2.0181 J2.2197
G2 X11.182 Y-6.3604 I-10.0184 J-11.2334
G3 X11.2089 Y-6.3854 I2.055 J2.1856
G2 X11.4897 Y-6.6496 I-10.263 J-11.1867
G1 X11.8155 Y-6.9647
G2 X12.3595 Y-7.5119 I-19.7844 J-20.2133
G1 X12.6292 Y-7.7934
G1 X12.7097 Y-7.8789
G1 X12.8291 Y-8.0067
G3 X12.8357 Y-8.0138 I2.1925 J2.0477
G2 X12.876 Y-8.0572 I-2.8978 J-2.7241
G3 X12.9023 Y-8.0858 I2.2162 J2.022
G2 X13.1701 Y-8.38 I-10.2513 J-9.5991
G3 X13.2054 Y-8.4192 I2.247 J1.9877
G3 X13.2149 Y-8.43 I2.2578 J1.9755
G1 X13.4673 Y-8.7157
G1 X13.5369 Y-8.7956
G1 X13.8323 Y-9.1416
G1 X13.8841 Y-9.2033
G1 X13.9422 Y-9.2728
G1 X13.9583 Y-9.2921
G3 X13.9603 Y-9.2945 I2.3065 J1.9184
G2 X14.0803 Y-9.4399 I-15.8287 J-13.1936
G1 X14.3124 Y-9.7262
G1 X14.3866 Y-9.8191
G3 X14.3954 Y-9.8301 I2.3447 J1.8714
G3 X14.4029 Y-9.8397 I2.3629 J1.8484
G1 X14.5055 Y-9.9698
G1 X14.6178 Y-10.1137
G1 X14.6306 Y-10.1302
G1 X14.6748 Y-10.1874
G3 X14.6862 Y-10.2021 I2.3742 J1.8339
G2 X14.6894 Y-10.2062 I-0.2514 J-0.1967
G3 X14.7022 Y-10.223 I2.3924 J1.8101
G1 X14.7119 Y-10.2357
G1 X14.7527 Y-10.289
G1 X14.7787 Y-10.3231
G1 X14.8122 Y-10.3671
G1 X14.8756 Y-10.4512
G1 X15.703 Y-12.5847
G0 Z3.0
G0 X-3.3751 Y1.0556
G0 Z-6.4
G1 F40.0 Z-7.0
G1 F80.0 X-0.7498 Y0.5428
G2 X-0.0164 Y0.3047 I-56.5152 J-175.278
G3 X-0.0013 Y0.2998 I0.9326 J2.8514
G2 X0.2183 Y0.2256 I-2.3823 J-7.4162
G3 X0.2831 Y0.2035 I1.0021 J2.8277
G2 X0.3666 Y0.1745 I-0.8704 J-2.6466
G3 X0.4019 Y0.1619 I1.0271 J2.8187
G2 X1.6376 Y-0.3056 I-8.8293 J-25.2052
G3 X1.6496 Y-0.3104 I1.1306 J2.7788
G2 X2.4715 Y-0.6557 I-10.6066 J-26.3971
G3 X2.5214 Y-0.6771 I1.2052 J2.7473
G2 X2.5487 Y-0.6891 I-0.3097 J-0.7424
G3 X2.643 Y-0.7306 I1.2569 J2.724
G2 X2.6789 Y-0.7466 I-0.375 J-0.8922
G3 X2.7815 Y-0.7924 I1.2737 J2.7162
G2 X2.8272 Y-0.813 I-0.4383 J-1.0338
G3 X2.877 Y-0.8362 I1.2931 J2.707
G2 X4.0631 Y-1.4053 I-13.5911 J-29.846
G2 X5.0932 Y-1.951 I-17.1106 J-33.5484
G3 X5.1279 Y-1.9697 I1.4451 J2.629
G2 X5.188 Y-2.0032 I-0.8668 J-1.6272
G3 X5.2226 Y-2.023 I1.5082 J2.5933
G2 X6.3608 Y-2.6925 I-17.7557 J-31.486
G1 X6.7427 Y-2.9322
G1 X7.1182 Y-3.1754
G1 X7.3935 Y-3.3585
G1 X7.6712 Y-3.5476
G1 X7.8517 Y-3.6728
G1 X8.0326 Y-3.8003
G1 X8.2083 Y-3.9259
G1 X8.5719 Y-4.192
G1 X8.8267 Y-4.3832
G1 X9.0933 Y-4.5877
G2 X9.2406 Y-4.7027 I-7.2701 J-9.4627
G3 X9.2589 Y-4.7171 I1.8647 J2.35
G2 X9.5319 Y-4.9344 I-11.6979 J-14.9803
G1 X9.8364 Y-5.1827
G1 X9.9077 Y-5.2418
G1 X10.2348 Y-5.5173
G1 X10.5636 Y-5.8021
G2 X10.8684 Y-6.0736 I-13.1629 J-15.0848
G3 X10.8897 Y-6.0928 I2.0181 J2.2197
G2 X11.182 Y-6.3604 I-10.0184 J-11.2334
G3 X11.2089 Y-6.3854 I2.055 J2.1856
G2 X11.4897 Y-6.6496 I-10.263 J-11.1867
G1 X11.8155 Y-6.9647
G2 X12.3595 Y-7.5119 I-19.7844 J-20.2133
G1 X12.6292 Y-7.7934
G1 X12.7097 Y-7.8789
G1 X12.8291 Y-8.0067
G3 X12.8357 Y-8.0138 I2.1925 J2.0477
G2 X12.876 Y-8.0572 I-2.8978 J-2.7241
G3 X12.9023 Y-8.0858 I2.2162 J2.022
G2 X13.1701 Y-8.38 I-10.2513 J-9.5991
G3 X13.2054 Y-8.4192 I2.247 J1.9877
G3 X13.2149 Y-8.43 I2.2578 J1.9755
G1 X13.4673 Y-8.7157
G1 X13.5369 Y-8.7956
G1 X13.8323 Y-9.1416
G1 X13.8841 Y-9.2033
G1 X13.9422 Y-9.2728
G1 X13.9583 Y-9.2921
G3 X13.9603 Y-9.2945 I2.3065 J1.9184
G2 X14.0803 Y-9.4399 I-15.8287 J-13.1936
G1 X14.3124 Y-9.7262
G1 X14.3866 Y-9.8191
G3 X14.3954 Y-9.8301 I2.3447 J1.8714
G3 X14.4029 Y-9.8397 I2.3629 J1.8484
G1 X14.5055 Y-9.9698
G1 X14.6178 Y-10.1137
G1 X14.6306 Y-10.1302
G1 X14.6748 Y-10.1874
G3 X14.6862 Y-10.2021 I2.3742 J1.8339
G2 X14.6894 Y-10.2062 I-0.2514 J-0.1967
G3 X14.7022 Y-10.223 I2.3924 J1.8101
G1 X14.7119 Y-10.2357
G1 X14.7527 Y-10.289
G1 X14.7787 Y-10.3231
G1 X14.8122 Y-10.3671
G1 X14.8756 Y-10.4512
G1 X15.703 Y-12.5847
G0 Z3.0
G0 X-3.3751 Y1.0556
G0 Z-6.9
G1 F40.0 Z-7.5
G1 F80.0 X-0.7498 Y0.5428
G2 X-0.0164 Y0.3047 I-56.5152 J-175.278
G3 X-0.0013 Y0.2998 I0.9326 J2.8514
G2 X0.2183 Y0.2256 I-2.3823 J-7.4162
G3 X0.2831 Y0.2035 I1.0021 J2.8277
G2 X0.3666 Y0.1745 I-0.8704 J-2.6466
G3 X0.4019 Y0.1619 I1.0271 J2.8187
G2 X1.6376 Y-0.3056 I-8.8293 J-25.2052
G3 X1.6496 Y-0.3104 I1.1306 J2.7788
G2 X2.4715 Y-0.6557 I-10.6066 J-26.3971
G3 X2.5214 Y-0.6771 I1.2052 J2.7473
G2 X2.5487 Y-0.6891 I-0.3097 J-0.7424
G3 X2.643 Y-0.7306 I1.2569 J2.724
G2 X2.6789 Y-0.7466 I-0.375 J-0.8922
G3 X2.7815 Y-0.7924 I1.2737 J2.7162
G2 X2.8272 Y-0.813 I-0.4383 J-1.0338
G3 X2.877 Y-0.8362 I1.2931 J2.707
G2 X4.0631 Y-1.4053 I-13.5911 J-29.846
G2 X5.0932 Y-1.951 I-17.1106 J-33.5484
G3 X5.1279 Y-1.9697 I1.4451 J2.629
G2 X5.188 Y-2.0032 I-0.8668 J-1.6272
G3 X5.2226 Y-2.023 I1.5082 J2.5933
G2 X6.3608 Y-2.6925 I-17.7557 J-31.486
G1 X6.7427 Y-2.9322
G1 X7.1182 Y-3.1754
G1 X7.3935 Y-3.3585
G1 X7.6712 Y-3.5476
G1 X7.8517 Y-3.6728
G1 X8.0326 Y-3.8003
G1 X8.2083 Y-3.9259
G1 X8.5719 Y-4.192
G1 X8.8267 Y-4.3832
G1 X9.0933 Y-4.5877
G2 X9.2406 Y-4.7027 I-7.2701 J-9.4627
G3 X9.2589 Y-4.7171 I1.8647 J2.35
G2 X9.5319 Y-4.9344 I-11.6979 J-14.9803
G1 X9.8364 Y-5.1827
G1 X9.9077 Y-5.2418
G1 X10.2348 Y-5.5173
G1 X10.5636 Y-5.8021
G2 X10.8684 Y-6.0736 I-13.1629 J-15.0848
G3 X10.8897 Y-6.0928 I2.0181 J2.2197
G2 X11.182 Y-6.3604 I-10.0184 J-11.2334
G3 X11.2089 Y-6.3854 I2.055 J2.1856
G2 X11.4897 Y-6.6496 I-10.263 J-11.1867
G1 X11.8155 Y-6.9647
G2 X12.3595 Y-7.5119 I-19.7844 J-20.2133
G1 X12.6292 Y-7.7934
G1 X12.7097 Y-7.8789
G1 X12.8291 Y-8.0067
G3 X12.8357 Y-8.0138 I2.1925 J2.0477
G2 X12.876 Y-8.0572 I-2.8978 J-2.7241
G3 X12.9023 Y-8.0858 I2.2162 J2.022
G2 X13.1701 Y-8.38 I-10.2513 J-9.5991
G3 X13.2054 Y-8.4192 I2.247 J1.9877
G3 X13.2149 Y-8.43 I2.2578 J1.9755
G1 X13.4673 Y-8.7157
G1 X13.5369 Y-8.7956
G1 X13.8323 Y-9.1416
G1 X13.8841 Y-9.2033
G1 X13.9422 Y-9.2728
G1 X13.9583 Y-9.2921
G3 X13.9603 Y-9.2945 I2.3065 J1.9184
G2 X14.0803 Y-9.4399 I-15.8287 J-13.1936
G1 X14.3124 Y-9.7262
G1 X14.3866 Y-9.8191
G3 X14.3954 Y-9.8301 I2.3447 J1.8714
G3 X14.4029 Y-9.8397 I2.3629 J1.8484
G1 X14.5055 Y-9.9698
G1 X14.6178 Y-10.1137
G1 X14.6306 Y-10.1302
G1 X14.6748 Y-10.1874
G3 X14.6862 Y-10.2021 I2.3742 J1.8339
G2 X14.6894 Y-10.2062 I-0.2514 J-0.1967
G3 X14.7022 Y-10.223 I2.3924 J1.8101
G1 X14.7119 Y-10.2357
G1 X14.7527 Y-10.289
G1 X14.7787 Y-10.3231
G1 X14.8122 Y-10.3671
G1 X14.8756 Y-10.4512
G1 X15.703 Y-12.5847
G0 Z3.0
G0 X-3.3751 Y1.0556
G0 Z-7.4
G1 F40.0 Z-8.0
G1 F80.0 X-0.7498 Y0.5428
G2 X-0.0164 Y0.3047 I-56.5152 J-175.278
G3 X-0.0013 Y0.2998 I0.9326 J2.8514
G2 X0.2183 Y0.2256 I-2.3823 J-7.4162
G3 X0.2831 Y0.2035 I1.0021 J2.8277
G2 X0.3666 Y0.1745 I-0.8704 J-2.6466
G3 X0.4019 Y0.1619 I1.0271 J2.8187
G2 X1.6376 Y-0.3056 I-8.8293 J-25.2052
G3 X1.6496 Y-0.3104 I1.1306 J2.7788
G2 X2.4715 Y-0.6557 I-10.6066 J-26.3971
G3 X2.5214 Y-0.6771 I1.2052 J2.7473
G2 X2.5487 Y-0.6891 I-0.3097 J-0.7424
G3 X2.643 Y-0.7306 I1.2569 J2.724
G2 X2.6789 Y-0.7466 I-0.375 J-0.8922
G3 X2.7815 Y-0.7924 I1.2737 J2.7162
G2 X2.8272 Y-0.813 I-0.4383 J-1.0338
G3 X2.877 Y-0.8362 I1.2931 J2.707
G2 X4.0631 Y-1.4053 I-13.5911 J-29.846
G2 X5.0932 Y-1.951 I-17.1106 J-33.5484
G3 X5.1279 Y-1.9697 I1.4451 J2.629
G2 X5.188 Y-2.0032 I-0.8668 J-1.6272
G3 X5.2226 Y-2.023 I1.5082 J2.5933
G2 X6.3608 Y-2.6925 I-17.7557 J-31.486
G1 X6.7427 Y-2.9322
G1 X7.1182 Y-3.1754
G1 X7.3935 Y-3.3585
G1 X7.6712 Y-3.5476
G1 X7.8517 Y-3.6728
G1 X8.0326 Y-3.8003
G1 X8.2083 Y-3.9259
G1 X8.5719 Y-4.192
G1 X8.8267 Y-4.3832
G1 X9.0933 Y-4.5877
G2 X9.2406 Y-4.7027 I-7.2701 J-9.4627
G3 X9.2589 Y-4.7171 I1.8647 J2.35
G2 X9.5319 Y-4.9344 I-11.6979 J-14.9803
G1 X9.8364 Y-5.1827
G1 X9.9077 Y-5.2418
G1 X10.2348 Y-5.5173
G1 X10.5636 Y-5.8021
G2 X10.8684 Y-6.0736 I-13.1629 J-15.0848
G3 X10.8897 Y-6.0928 I2.0181 J2.2197
G2 X11.182 Y-6.3604 I-10.0184 J-11.2334
G3 X11.2089 Y-6.3854 I2.055 J2.1856
G2 X11.4897 Y-6.6496 I-10.263 J-11.1867
G1 X11.8155 Y-6.9647
G2 X12.3595 Y-7.5119 I-19.7844 J-20.2133
G1 X12.6292 Y-7.7934
G1 X12.7097 Y-7.8789
G1 X12.8291 Y-8.0067
G3 X12.8357 Y-8.0138 I2.1925 J2.0477
G2 X12.876 Y-8.0572 I-2.8978 J-2.7241
G3 X12.9023 Y-8.0858 I2.2162 J2.022
G2 X13.1701 Y-8.38 I-10.2513 J-9.5991
G3 X13.2054 Y-8.4192 I2.247 J1.9877
G3 X13.2149 Y-8.43 I2.2578 J1.9755
G1 X13.4673 Y-8.7157
G1 X13.5369 Y-8.7956
G1 X13.8323 Y-9.1416
G1 X13.8841 Y-9.2033
G1 X13.9422 Y-9.2728
G1 X13.9583 Y-9.2921
G3 X13.9603 Y-9.2945 I2.3065 J1.9184
G2 X14.0803 Y-9.4399 I-15.8287 J-13.1936
G1 X14.3124 Y-9.7262
G1 X14.3866 Y-9.8191
G3 X14.3954 Y-9.8301 I2.3447 J1.8714
G3 X14.4029 Y-9.8397 I2.3629 J1.8484
G1 X14.5055 Y-9.9698
G1 X14.6178 Y-10.1137
G1 X14.6306 Y-10.1302
G1 X14.6748 Y-10.1874
G3 X14.6862 Y-10.2021 I2.3742 J1.8339
G2 X14.6894 Y-10.2062 I-0.2514 J-0.1967
G3 X14.7022 Y-10.223 I2.3924 J1.8101
G1 X14.7119 Y-10.2357
G1 X14.7527 Y-10.289
G1 X14.7787 Y-10.3231
G1 X14.8122 Y-10.3671
G1 X14.8756 Y-10.4512
G1 X15.703 Y-12.5847
G0 Z3.0
G0 X-3.3751 Y1.0556
G0 Z-7.9
G1 F40.0 Z-8.5
G1 F80.0 X-0.7498 Y0.5428
G2 X-0.0164 Y0.3047 I-56.5152 J-175.278
G3 X-0.0013 Y0.2998 I0.9326 J2.8514
G2 X0.2183 Y0.2256 I-2.3823 J-7.4162
G3 X0.2831 Y0.2035 I1.0021 J2.8277
G2 X0.3666 Y0.1745 I-0.8704 J-2.6466
G3 X0.4019 Y0.1619 I1.0271 J2.8187
G2 X1.6376 Y-0.3056 I-8.8293 J-25.2052
G3 X1.6496 Y-0.3104 I1.1306 J2.7788
G2 X2.4715 Y-0.6557 I-10.6066 J-26.3971
G3 X2.5214 Y-0.6771 I1.2052 J2.7473
G2 X2.5487 Y-0.6891 I-0.3097 J-0.7424
G3 X2.643 Y-0.7306 I1.2569 J2.724
G2 X2.6789 Y-0.7466 I-0.375 J-0.8922
G3 X2.7815 Y-0.7924 I1.2737 J2.7162
G2 X2.8272 Y-0.813 I-0.4383 J-1.0338
G3 X2.877 Y-0.8362 I1.2931 J2.707
G2 X4.0631 Y-1.4053 I-13.5911 J-29.846
G2 X5.0932 Y-1.951 I-17.1106 J-33.5484
G3 X5.1279 Y-1.9697 I1.4451 J2.629
G2 X5.188 Y-2.0032 I-0.8668 J-1.6272
G3 X5.2226 Y-2.023 I1.5082 J2.5933
G2 X6.3608 Y-2.6925 I-17.7557 J-31.486
G1 X6.7427 Y-2.9322
G1 X7.1182 Y-3.1754
G1 X7.3935 Y-3.3585
G1 X7.6712 Y-3.5476
G1 X7.8517 Y-3.6728
G1 X8.0326 Y-3.8003
G1 X8.2083 Y-3.9259
G1 X8.5719 Y-4.192
G1 X8.8267 Y-4.3832
G1 X9.0933 Y-4.5877
G2 X9.2406 Y-4.7027 I-7.2701 J-9.4627
G3 X9.2589 Y-4.7171 I1.8647 J2.35
G2 X9.5319 Y-4.9344 I-11.6979 J-14.9803
G1 X9.8364 Y-5.1827
G1 X9.9077 Y-5.2418
G1 X10.2348 Y-5.5173
G1 X10.5636 Y-5.8021
G2 X10.8684 Y-6.0736 I-13.1629 J-15.0848
G3 X10.8897 Y-6.0928 I2.0181 J2.2197
G2 X11.182 Y-6.3604 I-10.0184 J-11.2334
G3 X11.2089 Y-6.3854 I2.055 J2.1856
G2 X11.4897 Y-6.6496 I-10.263 J-11.1867
G1 X11.8155 Y-6.9647
G2 X12.3595 Y-7.5119 I-19.7844 J-20.2133
G1 X12.6292 Y-7.7934
G1 X12.7097 Y-7.8789
G1 X12.8291 Y-8.0067
G3 X12.8357 Y-8.0138 I2.1925 J2.0477
G2 X12.876 Y-8.0572 I-2.8978 J-2.7241
G3 X12.9023 Y-8.0858 I2.2162 J2.022
G2 X13.1701 Y-8.38 I-10.2513 J-9.5991
G3 X13.2054 Y-8.4192 I2.247 J1.9877
G3 X13.2149 Y-8.43 I2.2578 J1.9755
G1 X13.4673 Y-8.7157
G1 X13.5369 Y-8.7956
G1 X13.8323 Y-9.1416
G1 X13.8841 Y-9.2033
G1 X13.9422 Y-9.2728
G1 X13.9583 Y-9.2921
G3 X13.9603 Y-9.2945 I2.3065 J1.9184
G2 X14.0803 Y-9.4399 I-15.8287 J-13.1936
G1 X14.3124 Y-9.7262
G1 X14.3866 Y-9.8191
G3 X14.3954 Y-9.8301 I2.3447 J1.8714
G3 X14.4029 Y-9.8397 I2.3629 J1.8484
G1 X14.5055 Y-9.9698
G1 X14.6178 Y-10.1137
G1 X14.6306 Y-10.1302
G1 X14.6748 Y-10.1874
G3 X14.6862 Y-10.2021 I2.3742 J1.8339
G2 X14.6894 Y-10.2062 I-0.2514 J-0.1967
G3 X14.7022 Y-10.223 I2.3924 J1.8101
G1 X14.7119 Y-10.2357
G1 X14.7527 Y-10.289
G1 X14.7787 Y-10.3231
G1 X14.8122 Y-10.3671
G1 X14.8756 Y-10.4512
G1 X15.703 Y-12.5847
G0 Z3.0
G0 X-3.3751 Y1.0556
G0 Z-8.4
G1 F40.0 Z-9.0
G1 F80.0 X-0.7498 Y0.5428
G2 X-0.0164 Y0.3047 I-56.5152 J-175.278
G3 X-0.0013 Y0.2998 I0.9326 J2.8514
G2 X0.2183 Y0.2256 I-2.3823 J-7.4162
G3 X0.2831 Y0.2035 I1.0021 J2.8277
G2 X0.3666 Y0.1745 I-0.8704 J-2.6466
G3 X0.4019 Y0.1619 I1.0271 J2.8187
G2 X1.6376 Y-0.3056 I-8.8293 J-25.2052
G3 X1.6496 Y-0.3104 I1.1306 J2.7788
G2 X2.4715 Y-0.6557 I-10.6066 J-26.3971
G3 X2.5214 Y-0.6771 I1.2052 J2.7473
G2 X2.5487 Y-0.6891 I-0.3097 J-0.7424
G3 X2.643 Y-0.7306 I1.2569 J2.724
G2 X2.6789 Y-0.7466 I-0.375 J-0.8922
G3 X2.7815 Y-0.7924 I1.2737 J2.7162
G2 X2.8272 Y-0.813 I-0.4383 J-1.0338
G3 X2.877 Y-0.8362 I1.2931 J2.707
G2 X4.0631 Y-1.4053 I-13.5911 J-29.846
G2 X5.0932 Y-1.951 I-17.1106 J-33.5484
G3 X5.1279 Y-1.9697 I1.4451 J2.629
G2 X5.188 Y-2.0032 I-0.8668 J-1.6272
G3 X5.2226 Y-2.023 I1.5082 J2.5933
G2 X6.3608 Y-2.6925 I-17.7557 J-31.486
G1 X6.7427 Y-2.9322
G1 X7.1182 Y-3.1754
G1 X7.3935 Y-3.3585
G1 X7.6712 Y-3.5476
G1 X7.8517 Y-3.6728
G1 X8.0326 Y-3.8003
G1 X8.2083 Y-3.9259
G1 X8.5719 Y-4.192
G1 X8.8267 Y-4.3832
G1 X9.0933 Y-4.5877
G2 X9.2406 Y-4.7027 I-7.2701 J-9.4627
G3 X9.2589 Y-4.7171 I1.8647 J2.35
G2 X9.5319 Y-4.9344 I-11.6979 J-14.9803
G1 X9.8364 Y-5.1827
G1 X9.9077 Y-5.2418
G1 X10.2348 Y-5.5173
G1 X10.5636 Y-5.8021
G2 X10.8684 Y-6.0736 I-13.1629 J-15.0848
G3 X10.8897 Y-6.0928 I2.0181 J2.2197
G2 X11.182 Y-6.3604 I-10.0184 J-11.2334
G3 X11.2089 Y-6.3854 I2.055 J2.1856
G2 X11.4897 Y-6.6496 I-10.263 J-11.1867
G1 X11.8155 Y-6.9647
G2 X12.3595 Y-7.5119 I-19.7844 J-20.2133
G1 X12.6292 Y-7.7934
G1 X12.7097 Y-7.8789
G1 X12.8291 Y-8.0067
G3 X12.8357 Y-8.0138 I2.1925 J2.0477
G2 X12.876 Y-8.0572 I-2.8978 J-2.7241
G3 X12.9023 Y-8.0858 I2.2162 J2.022
G2 X13.1701 Y-8.38 I-10.2513 J-9.5991
G3 X13.2054 Y-8.4192 I2.247 J1.9877
G3 X13.2149 Y-8.43 I2.2578 J1.9755
G1 X13.4673 Y-8.7157
G1 X13.5369 Y-8.7956
G1 X13.8323 Y-9.1416
G1 X13.8841 Y-9.2033
G1 X13.9422 Y-9.2728
G1 X13.9583 Y-9.2921
G3 X13.9603 Y-9.2945 I2.3065 J1.9184
G2 X14.0803 Y-9.4399 I-15.8287 J-13.1936
G1 X14.3124 Y-9.7262
G1 X14.3866 Y-9.8191
G3 X14.3954 Y-9.8301 I2.3447 J1.8714
G3 X14.4029 Y-9.8397 I2.3629 J1.8484
G1 X14.5055 Y-9.9698
G1 X14.6178 Y-10.1137
G1 X14.6306 Y-10.1302
G1 X14.6748 Y-10.1874
G3 X14.6862 Y-10.2021 I2.3742 J1.8339
G2 X14.6894 Y-10.2062 I-0.2514 J-0.1967
G3 X14.7022 Y-10.223 I2.3924 J1.8101
G1 X14.7119 Y-10.2357
G1 X14.7527 Y-10.289
G1 X14.7787 Y-10.3231
G1 X14.8122 Y-10.3671
G1 X14.8756 Y-10.4512
G1 X15.703 Y-12.5847
G0 Z3.0
G0 X-3.3751 Y1.0556
G0 Z-8.9
G1 F40.0 Z-9.5
G1 F80.0 X-0.7498 Y0.5428
G2 X-0.0164 Y0.3047 I-56.5152 J-175.278
G3 X-0.0013 Y0.2998 I0.9326 J2.8514
G2 X0.2183 Y0.2256 I-2.3823 J-7.4162
G3 X0.2831 Y0.2035 I1.0021 J2.8277
G2 X0.3666 Y0.1745 I-0.8704 J-2.6466
G3 X0.4019 Y0.1619 I1.0271 J2.8187
G2 X1.6376 Y-0.3056 I-8.8293 J-25.2052
G3 X1.6496 Y-0.3104 I1.1306 J2.7788
G2 X2.4715 Y-0.6557 I-10.6066 J-26.3971
G3 X2.5214 Y-0.6771 I1.2052 J2.7473
G2 X2.5487 Y-0.6891 I-0.3097 J-0.7424
G3 X2.643 Y-0.7306 I1.2569 J2.724
G2 X2.6789 Y-0.7466 I-0.375 J-0.8922
G3 X2.7815 Y-0.7924 I1.2737 J2.7162
G2 X2.8272 Y-0.813 I-0.4383 J-1.0338
G3 X2.877 Y-0.8362 I1.2931 J2.707
G2 X4.0631 Y-1.4053 I-13.5911 J-29.846
G2 X5.0932 Y-1.951 I-17.1106 J-33.5484
G3 X5.1279 Y-1.9697 I1.4451 J2.629
G2 X5.188 Y-2.0032 I-0.8668 J-1.6272
G3 X5.2226 Y-2.023 I1.5082 J2.5933
G2 X6.3608 Y-2.6925 I-17.7557 J-31.486
G1 X6.7427 Y-2.9322
G1 X7.1182 Y-3.1754
G1 X7.3935 Y-3.3585
G1 X7.6712 Y-3.5476
G1 X7.8517 Y-3.6728
G1 X8.0326 Y-3.8003
G1 X8.2083 Y-3.9259
G1 X8.5719 Y-4.192
G1 X8.8267 Y-4.3832
G1 X9.0933 Y-4.5877
G2 X9.2406 Y-4.7027 I-7.2701 J-9.4627
G3 X9.2589 Y-4.7171 I1.8647 J2.35
G2 X9.5319 Y-4.9344 I-11.6979 J-14.9803
G1 X9.8364 Y-5.1827
G1 X9.9077 Y-5.2418
G1 X10.2348 Y-5.5173
G1 X10.5636 Y-5.8021
G2 X10.8684 Y-6.0736 I-13.1629 J-15.0848
G3 X10.8897 Y-6.0928 I2.0181 J2.2197
G2 X11.182 Y-6.3604 I-10.0184 J-11.2334
G3 X11.2089 Y-6.3854 I2.055 J2.1856
G2 X11.4897 Y-6.6496 I-10.263 J-11.1867
G1 X11.8155 Y-6.9647
G2 X12.3595 Y-7.5119 I-19.7844 J-20.2133
G1 X12.6292 Y-7.7934
G1 X12.7097 Y-7.8789
G1 X12.8291 Y-8.0067
G3 X12.8357 Y-8.0138 I2.1925 J2.0477
G2 X12.876 Y-8.0572 I-2.8978 J-2.7241
G3 X12.9023 Y-8.0858 I2.2162 J2.022
G2 X13.1701 Y-8.38 I-10.2513 J-9.5991
G3 X13.2054 Y-8.4192 I2.247 J1.9877
G3 X13.2149 Y-8.43 I2.2578 J1.9755
G1 X13.4673 Y-8.7157
G1 X13.5369 Y-8.7956
G1 X13.8323 Y-9.1416
G1 X13.8841 Y-9.2033
G1 X13.9422 Y-9.2728
G1 X13.9583 Y-9.2921
G3 X13.9603 Y-9.2945 I2.3065 J1.9184
G2 X14.0803 Y-9.4399 I-15.8287 J-13.1936
G1 X14.3124 Y-9.7262
G1 X14.3866 Y-9.8191
G3 X14.3954 Y-9.8301 I2.3447 J1.8714
G3 X14.4029 Y-9.8397 I2.3629 J1.8484
G1 X14.5055 Y-9.9698
G1 X14.6178 Y-10.1137
G1 X14.6306 Y-10.1302
G1 X14.6748 Y-10.1874
G3 X14.6862 Y-10.2021 I2.3742 J1.8339
G2 X14.6894 Y-10.2062 I-0.2514 J-0.1967
G3 X14.7022 Y-10.223 I2.3924 J1.8101
G1 X14.7119 Y-10.2357
G1 X14.7527 Y-10.289
G1 X14.7787 Y-10.3231
G1 X14.8122 Y-10.3671
G1 X14.8756 Y-10.4512
G1 X15.703 Y-12.5847
G0 Z3.0
G0 X-3.3751 Y1.0556
G0 Z-9.4
G1 F40.0 Z-10.0
G1 F80.0 X-0.7498 Y0.5428
G2 X-0.0164 Y0.3047 I-56.5152 J-175.278
G3 X-0.0013 Y0.2998 I0.9326 J2.8514
G2 X0.2183 Y0.2256 I-2.3823 J-7.4162
G3 X0.2831 Y0.2035 I1.0021 J2.8277
G2 X0.3666 Y0.1745 I-0.8704 J-2.6466
G3 X0.4019 Y0.1619 I1.0271 J2.8187
G2 X1.6376 Y-0.3056 I-8.8293 J-25.2052
G3 X1.6496 Y-0.3104 I1.1306 J2.7788
G2 X2.4715 Y-0.6557 I-10.6066 J-26.3971
G3 X2.5214 Y-0.6771 I1.2052 J2.7473
G2 X2.5487 Y-0.6891 I-0.3097 J-0.7424
G3 X2.643 Y-0.7306 I1.2569 J2.724
G2 X2.6789 Y-0.7466 I-0.375 J-0.8922
G3 X2.7815 Y-0.7924 I1.2737 J2.7162
G2 X2.8272 Y-0.813 I-0.4383 J-1.0338
G3 X2.877 Y-0.8362 I1.2931 J2.707
G2 X4.0631 Y-1.4053 I-13.5911 J-29.846
G2 X5.0932 Y-1.951 I-17.1106 J-33.5484
G3 X5.1279 Y-1.9697 I1.4451 J2.629
G2 X5.188 Y-2.0032 I-0.8668 J-1.6272
G3 X5.2226 Y-2.023 I1.5082 J2.5933
G2 X6.3608 Y-2.6925 I-17.7557 J-31.486
G1 X6.7427 Y-2.9322
G1 X7.1182 Y-3.1754
G1 X7.3935 Y-3.3585
G1 X7.6712 Y-3.5476
G1 X7.8517 Y-3.6728
G1 X8.0326 Y-3.8003
G1 X8.2083 Y-3.9259
G1 X8.5719 Y-4.192
G1 X8.8267 Y-4.3832
G1 X9.0933 Y-4.5877
G2 X9.2406 Y-4.7027 I-7.2701 J-9.4627
G3 X9.2589 Y-4.7171 I1.8647 J2.35
G2 X9.5319 Y-4.9344 I-11.6979 J-14.9803
G1 X9.8364 Y-5.1827
G1 X9.9077 Y-5.2418
G1 X10.2348 Y-5.5173
G1 X10.5636 Y-5.8021
G2 X10.8684 Y-6.0736 I-13.1629 J-15.0848
G3 X10.8897 Y-6.0928 I2.0181 J2.2197
G2 X11.182 Y-6.3604 I-10.0184 J-11.2334
G3 X11.2089 Y-6.3854 I2.055 J2.1856
G2 X11.4897 Y-6.6496 I-10.263 J-11.1867
G1 X11.8155 Y-6.9647
G2 X12.3595 Y-7.5119 I-19.7844 J-20.2133
G1 X12.6292 Y-7.7934
G1 X12.7097 Y-7.8789
G1 X12.8291 Y-8.0067
G3 X12.8357 Y-8.0138 I2.1925 J2.0477
G2 X12.876 Y-8.0572 I-2.8978 J-2.7241
G3 X12.9023 Y-8.0858 I2.2162 J2.022
G2 X13.1701 Y-8.38 I-10.2513 J-9.5991
G3 X13.2054 Y-8.4192 I2.247 J1.9877
G3 X13.2149 Y-8.43 I2.2578 J1.9755
G1 X13.4673 Y-8.7157
G1 X13.5369 Y-8.7956
G1 X13.8323 Y-9.1416
G1 X13.8841 Y-9.2033
G1 X13.9422 Y-9.2728
G1 X13.9583 Y-9.2921
G3 X13.9603 Y-9.2945 I2.3065 J1.9184
G2 X14.0803 Y-9.4399 I-15.8287 J-13.1936
G1 X14.3124 Y-9.7262
G1 X14.3866 Y-9.8191
G3 X14.3954 Y-9.8301 I2.3447 J1.8714
G3 X14.4029 Y-9.8397 I2.3629 J1.8484
G1 X14.5055 Y-9.9698
G1 X14.6178 Y-10.1137
G1 X14.6306 Y-10.1302
G1 X14.6748 Y-10.1874
G3 X14.6862 Y-10.2021 I2.3742 J1.8339
G2 X14.6894 Y-10.2062 I-0.2514 J-0.1967
G3 X14.7022 Y-10.223 I2.3924 J1.8101
G1 X14.7119 Y-10.2357
G1 X14.7527 Y-10.289
G1 X14.7787 Y-10.3231
G1 X14.8122 Y-10.3671
G1 X14.8756 Y-10.4512
G1 X15.703 Y-12.5847
G0 Z3.0
G0 X-3.3751 Y1.0556
G0 Z-9.9
G1 F40.0 Z-10.5
G1 F80.0 X-0.7498 Y0.5428
G2 X-0.0164 Y0.3047 I-56.5152 J-175.278
G3 X-0.0013 Y0.2998 I0.9326 J2.8514
G2 X0.2183 Y0.2256 I-2.3823 J-7.4162
G3 X0.2831 Y0.2035 I1.0021 J2.8277
G2 X0.3666 Y0.1745 I-0.8704 J-2.6466
G3 X0.4019 Y0.1619 I1.0271 J2.8187
G2 X1.6376 Y-0.3056 I-8.8293 J-25.2052
G3 X1.6496 Y-0.3104 I1.1306 J2.7788
G2 X2.4715 Y-0.6557 I-10.6066 J-26.3971
G3 X2.5214 Y-0.6771 I1.2052 J2.7473
G2 X2.5487 Y-0.6891 I-0.3097 J-0.7424
G3 X2.643 Y-0.7306 I1.2569 J2.724
G2 X2.6789 Y-0.7466 I-0.375 J-0.8922
G3 X2.7815 Y-0.7924 I1.2737 J2.7162
G2 X2.8272 Y-0.813 I-0.4383 J-1.0338
G3 X2.877 Y-0.8362 I1.2931 J2.707
G2 X4.0631 Y-1.4053 I-13.5911 J-29.846
G2 X5.0932 Y-1.951 I-17.1106 J-33.5484
G3 X5.1279 Y-1.9697 I1.4451 J2.629
G2 X5.188 Y-2.0032 I-0.8668 J-1.6272
G3 X5.2226 Y-2.023 I1.5082 J2.5933
G2 X6.3608 Y-2.6925 I-17.7557 J-31.486
G1 X6.7427 Y-2.9322
G1 X7.1182 Y-3.1754
G1 X7.3935 Y-3.3585
G1 X7.6712 Y-3.5476
G1 X7.8517 Y-3.6728
G1 X8.0326 Y-3.8003
G1 X8.2083 Y-3.9259
G1 X8.5719 Y-4.192
G1 X8.8267 Y-4.3832
G1 X9.0933 Y-4.5877
G2 X9.2406 Y-4.7027 I-7.2701 J-9.4627
G3 X9.2589 Y-4.7171 I1.8647 J2.35
G2 X9.5319 Y-4.9344 I-11.6979 J-14.9803
G1 X9.8364 Y-5.1827
G1 X9.9077 Y-5.2418
G1 X10.2348 Y-5.5173
G1 X10.5636 Y-5.8021
G2 X10.8684 Y-6.0736 I-13.1629 J-15.0848
G3 X10.8897 Y-6.0928 I2.0181 J2.2197
G2 X11.182 Y-6.3604 I-10.0184 J-11.2334
G3 X11.2089 Y-6.3854 I2.055 J2.1856
G2 X11.4897 Y-6.6496 I-10.263 J-11.1867
G1 X11.8155 Y-6.9647
G2 X12.3595 Y-7.5119 I-19.7844 J-20.2133
G1 X12.6292 Y-7.7934
G1 X12.7097 Y-7.8789
G1 X12.8291 Y-8.0067
G3 X12.8357 Y-8.0138 I2.1925 J2.0477
G2 X12.876 Y-8.0572 I-2.8978 J-2.7241
G3 X12.9023 Y-8.0858 I2.2162 J2.022
G2 X13.1701 Y-8.38 I-10.2513 J-9.5991
G3 X13.2054 Y-8.4192 I2.247 J1.9877
G3 X13.2149 Y-8.43 I2.2578 J1.9755
G1 X13.4673 Y-8.7157
G1 X13.5369 Y-8.7956
G1 X13.8323 Y-9.1416
G1 X13.8841 Y-9.2033
G1 X13.9422 Y-9.2728
G1 X13.9583 Y-9.2921
G3 X13.9603 Y-9.2945 I2.3065 J1.9184
G2 X14.0803 Y-9.4399 I-15.8287 J-13.1936
G1 X14.3124 Y-9.7262
G1 X14.3866 Y-9.8191
G3 X14.3954 Y-9.8301 I2.3447 J1.8714
G3 X14.4029 Y-9.8397 I2.3629 J1.8484
G1 X14.5055 Y-9.9698
G1 X14.6178 Y-10.1137
G1 X14.6306 Y-10.1302
G1 X14.6748 Y-10.1874
G3 X14.6862 Y-10.2021 I2.3742 J1.8339
G2 X14.6894 Y-10.2062 I-0.2514 J-0.1967
G3 X14.7022 Y-10.223 I2.3924 J1.8101
G1 X14.7119 Y-10.2357
G1 X14.7527 Y-10.289
G1 X14.7787 Y-10.3231
G1 X14.8122 Y-10.3671
G1 X14.8756 Y-10.4512
G1 X15.703 Y-12.5847
G0 Z3.0
G0 X-3.3751 Y1.0556
G0 Z-10.4
G1 F40.0 Z-11.0
G1 F80.0 X-0.7498 Y0.5428
G2 X-0.0164 Y0.3047 I-56.5152 J-175.278
G3 X-0.0013 Y0.2998 I0.9326 J2.8514
G2 X0.2183 Y0.2256 I-2.3823 J-7.4162
G3 X0.2831 Y0.2035 I1.0021 J2.8277
G2 X0.3666 Y0.1745 I-0.8704 J-2.6466
G3 X0.4019 Y0.1619 I1.0271 J2.8187
G2 X1.6376 Y-0.3056 I-8.8293 J-25.2052
G3 X1.6496 Y-0.3104 I1.1306 J2.7788
G2 X2.4715 Y-0.6557 I-10.6066 J-26.3971
G3 X2.5214 Y-0.6771 I1.2052 J2.7473
G2 X2.5487 Y-0.6891 I-0.3097 J-0.7424
G3 X2.643 Y-0.7306 I1.2569 J2.724
G2 X2.6789 Y-0.7466 I-0.375 J-0.8922
G3 X2.7815 Y-0.7924 I1.2737 J2.7162
G2 X2.8272 Y-0.813 I-0.4383 J-1.0338
G3 X2.877 Y-0.8362 I1.2931 J2.707
G2 X4.0631 Y-1.4053 I-13.5911 J-29.846
G2 X5.0932 Y-1.951 I-17.1106 J-33.5484
G3 X5.1279 Y-1.9697 I1.4451 J2.629
G2 X5.188 Y-2.0032 I-0.8668 J-1.6272
G3 X5.2226 Y-2.023 I1.5082 J2.5933
G2 X6.3608 Y-2.6925 I-17.7557 J-31.486
G1 X6.7427 Y-2.9322
G1 X7.1182 Y-3.1754
G1 X7.3935 Y-3.3585
G1 X7.6712 Y-3.5476
G1 X7.8517 Y-3.6728
G1 X8.0326 Y-3.8003
G1 X8.2083 Y-3.9259
G1 X8.5719 Y-4.192
G1 X8.8267 Y-4.3832
G1 X9.0933 Y-4.5877
G2 X9.2406 Y-4.7027 I-7.2701 J-9.4627
G3 X9.2589 Y-4.7171 I1.8647 J2.35
G2 X9.5319 Y-4.9344 I-11.6979 J-14.9803
G1 X9.8364 Y-5.1827
G1 X9.9077 Y-5.2418
G1 X10.2348 Y-5.5173
G1 X10.5636 Y-5.8021
G2 X10.8684 Y-6.0736 I-13.1629 J-15.0848
G3 X10.8897 Y-6.0928 I2.0181 J2.2197
G2 X11.182 Y-6.3604 I-10.0184 J-11.2334
G3 X11.2089 Y-6.3854 I2.055 J2.1856
G2 X11.4897 Y-6.6496 I-10.263 J-11.1867
G1 X11.8155 Y-6.9647
G2 X12.3595 Y-7.5119 I-19.7844 J-20.2133
G1 X12.6292 Y-7.7934
G1 X12.7097 Y-7.8789
G1 X12.8291 Y-8.0067
G3 X12.8357 Y-8.0138 I2.1925 J2.0477
G2 X12.876 Y-8.0572 I-2.8978 J-2.7241
G3 X12.9023 Y-8.0858 I2.2162 J2.022
G2 X13.1701 Y-8.38 I-10.2513 J-9.5991
G3 X13.2054 Y-8.4192 I2.247 J1.9877
G3 X13.2149 Y-8.43 I2.2578 J1.9755
G1 X13.4673 Y-8.7157
G1 X13.5369 Y-8.7956
G1 X13.8323 Y-9.1416
G1 X13.8841 Y-9.2033
G1 X13.9422 Y-9.2728
G1 X13.9583 Y-9.2921
G3 X13.9603 Y-9.2945 I2.3065 J1.9184
G2 X14.0803 Y-9.4399 I-15.8287 J-13.1936
G1 X14.3124 Y-9.7262
G1 X14.3866 Y-9.8191
G3 X14.3954 Y-9.8301 I2.3447 J1.8714
G3 X14.4029 Y-9.8397 I2.3629 J1.8484
G1 X14.5055 Y-9.9698
G1 X14.6178 Y-10.1137
G1 X14.6306 Y-10.1302
G1 X14.6748 Y-10.1874
G3 X14.6862 Y-10.2021 I2.3742 J1.8339
G2 X14.6894 Y-10.2062 I-0.2514 J-0.1967
G3 X14.7022 Y-10.223 I2.3924 J1.8101
G1 X14.7119 Y-10.2357
G1 X14.7527 Y-10.289
G1 X14.7787 Y-10.3231
G1 X14.8122 Y-10.3671
G1 X14.8756 Y-10.4512
G1 X15.703 Y-12.5847
G0 Z3.0
G0 X-3.3751 Y1.0556
G0 Z-10.9
G1 F40.0 Z-11.5
G1 F80.0 X-0.7498 Y0.5428
G2 X-0.0164 Y0.3047 I-56.5152 J-175.278
G3 X-0.0013 Y0.2998 I0.9326 J2.8514
G2 X0.2183 Y0.2256 I-2.3823 J-7.4162
G3 X0.2831 Y0.2035 I1.0021 J2.8277
G2 X0.3666 Y0.1745 I-0.8704 J-2.6466
G3 X0.4019 Y0.1619 I1.0271 J2.8187
G2 X1.6376 Y-0.3056 I-8.8293 J-25.2052
G3 X1.6496 Y-0.3104 I1.1306 J2.7788
G2 X2.4715 Y-0.6557 I-10.6066 J-26.3971
G3 X2.5214 Y-0.6771 I1.2052 J2.7473
G2 X2.5487 Y-0.6891 I-0.3097 J-0.7424
G3 X2.643 Y-0.7306 I1.2569 J2.724
G2 X2.6789 Y-0.7466 I-0.375 J-0.8922
G3 X2.7815 Y-0.7924 I1.2737 J2.7162
G2 X2.8272 Y-0.813 I-0.4383 J-1.0338
G3 X2.877 Y-0.8362 I1.2931 J2.707
G2 X4.0631 Y-1.4053 I-13.5911 J-29.846
G2 X5.0932 Y-1.951 I-17.1106 J-33.5484
G3 X5.1279 Y-1.9697 I1.4451 J2.629
G2 X5.188 Y-2.0032 I-0.8668 J-1.6272
G3 X5.2226 Y-2.023 I1.5082 J2.5933
G2 X6.3608 Y-2.6925 I-17.7557 J-31.486
G1 X6.7427 Y-2.9322
G1 X7.1182 Y-3.1754
G1 X7.3935 Y-3.3585
G1 X7.6712 Y-3.5476
G1 X7.8517 Y-3.6728
G1 X8.0326 Y-3.8003
G1 X8.2083 Y-3.9259
G1 X8.5719 Y-4.192
G1 X8.8267 Y-4.3832
G1 X9.0933 Y-4.5877
G2 X9.2406 Y-4.7027 I-7.2701 J-9.4627
G3 X9.2589 Y-4.7171 I1.8647 J2.35
G2 X9.5319 Y-4.9344 I-11.6979 J-14.9803
G1 X9.8364 Y-5.1827
G1 X9.9077 Y-5.2418
G1 X10.2348 Y-5.5173
G1 X10.5636 Y-5.8021
G2 X10.8684 Y-6.0736 I-13.1629 J-15.0848
G3 X10.8897 Y-6.0928 I2.0181 J2.2197
G2 X11.182 Y-6.3604 I-10.0184 J-11.2334
G3 X11.2089 Y-6.3854 I2.055 J2.1856
G2 X11.4897 Y-6.6496 I-10.263 J-11.1867
G1 X11.8155 Y-6.9647
G2 X12.3595 Y-7.5119 I-19.7844 J-20.2133
G1 X12.6292 Y-7.7934
G1 X12.7097 Y-7.8789
G1 X12.8291 Y-8.0067
G3 X12.8357 Y-8.0138 I2.1925 J2.0477
G2 X12.876 Y-8.0572 I-2.8978 J-2.7241
G3 X12.9023 Y-8.0858 I2.2162 J2.022
G2 X13.1701 Y-8.38 I-10.2513 J-9.5991
G3 X13.2054 Y-8.4192 I2.247 J1.9877
G3 X13.2149 Y-8.43 I2.2578 J1.9755
G1 X13.4673 Y-8.7157
G1 X13.5369 Y-8.7956
G1 X13.8323 Y-9.1416
G1 X13.8841 Y-9.2033
G1 X13.9422 Y-9.2728
G1 X13.9583 Y-9.2921
G3 X13.9603 Y-9.2945 I2.3065 J1.9184
G2 X14.0803 Y-9.4399 I-15.8287 J-13.1936
G1 X14.3124 Y-9.7262
G1 X14.3866 Y-9.8191
G3 X14.3954 Y-9.8301 I2.3447 J1.8714
G3 X14.4029 Y-9.8397 I2.3629 J1.8484
G1 X14.5055 Y-9.9698
G1 X14.6178 Y-10.1137
G1 X14.6306 Y-10.1302
G1 X14.6748 Y-10.1874
G3 X14.6862 Y-10.2021 I2.3742 J1.8339
G2 X14.6894 Y-10.2062 I-0.2514 J-0.1967
G3 X14.7022 Y-10.223 I2.3924 J1.8101
G1 X14.7119 Y-10.2357
G1 X14.7527 Y-10.289
G1 X14.7787 Y-10.3231
G1 X14.8122 Y-10.3671
G1 X14.8756 Y-10.4512
G1 X15.703 Y-12.5847
G0 Z3.0
G0 X-3.3751 Y1.0556
G0 Z-11.4
G1 F40.0 Z-12.0
G1 F80.0 X-0.7498 Y0.5428
G2 X-0.0164 Y0.3047 I-56.5152 J-175.278
G3 X-0.0013 Y0.2998 I0.9326 J2.8514
G2 X0.2183 Y0.2256 I-2.3823 J-7.4162
G3 X0.2831 Y0.2035 I1.0021 J2.8277
G2 X0.3666 Y0.1745 I-0.8704 J-2.6466
G3 X0.4019 Y0.1619 I1.0271 J2.8187
G2 X1.6376 Y-0.3056 I-8.8293 J-25.2052
G3 X1.6496 Y-0.3104 I1.1306 J2.7788
G2 X2.4715 Y-0.6557 I-10.6066 J-26.3971
G3 X2.5214 Y-0.6771 I1.2052 J2.7473
G2 X2.5487 Y-0.6891 I-0.3097 J-0.7424
G3 X2.643 Y-0.7306 I1.2569 J2.724
G2 X2.6789 Y-0.7466 I-0.375 J-0.8922
G3 X2.7815 Y-0.7924 I1.2737 J2.7162
G2 X2.8272 Y-0.813 I-0.4383 J-1.0338
G3 X2.877 Y-0.8362 I1.2931 J2.707
G2 X4.0631 Y-1.4053 I-13.5911 J-29.846
G2 X5.0932 Y-1.951 I-17.1106 J-33.5484
G3 X5.1279 Y-1.9697 I1.4451 J2.629
G2 X5.188 Y-2.0032 I-0.8668 J-1.6272
G3 X5.2226 Y-2.023 I1.5082 J2.5933
G2 X6.3608 Y-2.6925 I-17.7557 J-31.486
G1 X6.7427 Y-2.9322
G1 X7.1182 Y-3.1754
G1 X7.3935 Y-3.3585
G1 X7.6712 Y-3.5476
G1 X7.8517 Y-3.6728
G1 X8.0326 Y-3.8003
G1 X8.2083 Y-3.9259
G1 X8.5719 Y-4.192
G1 X8.8267 Y-4.3832
G1 X9.0933 Y-4.5877
G2 X9.2406 Y-4.7027 I-7.2701 J-9.4627
G3 X9.2589 Y-4.7171 I1.8647 J2.35
G2 X9.5319 Y-4.9344 I-11.6979 J-14.9803
G1 X9.8364 Y-5.1827
G1 X9.9077 Y-5.2418
G1 X10.2348 Y-5.5173
G1 X10.5636 Y-5.8021
G2 X10.8684 Y-6.0736 I-13.1629 J-15.0848
G3 X10.8897 Y-6.0928 I2.0181 J2.2197
G2 X11.182 Y-6.3604 I-10.0184 J-11.2334
G3 X11.2089 Y-6.3854 I2.055 J2.1856
G2 X11.4897 Y-6.6496 I-10.263 J-11.1867
G1 X11.8155 Y-6.9647
G2 X12.3595 Y-7.5119 I-19.7844 J-20.2133
G1 X12.6292 Y-7.7934
G1 X12.7097 Y-7.8789
G1 X12.8291 Y-8.0067
G3 X12.8357 Y-8.0138 I2.1925 J2.0477
G2 X12.876 Y-8.0572 I-2.8978 J-2.7241
G3 X12.9023 Y-8.0858 I2.2162 J2.022
G2 X13.1701 Y-8.38 I-10.2513 J-9.5991
G3 X13.2054 Y-8.4192 I2.247 J1.9877
G3 X13.2149 Y-8.43 I2.2578 J1.9755
G1 X13.4673 Y-8.7157
G1 X13.5369 Y-8.7956
G1 X13.8323 Y-9.1416
G1 X13.8841 Y-9.2033
G1 X13.9422 Y-9.2728
G1 X13.9583 Y-9.2921
G3 X13.9603 Y-9.2945 I2.3065 J1.9184
G2 X14.0803 Y-9.4399 I-15.8287 J-13.1936
G1 X14.3124 Y-9.7262
G1 X14.3866 Y-9.8191
G3 X14.3954 Y-9.8301 I2.3447 J1.8714
G3 X14.4029 Y-9.8397 I2.3629 J1.8484
G1 X14.5055 Y-9.9698
G1 X14.6178 Y-10.1137
G1 X14.6306 Y-10.1302
G1 X14.6748 Y-10.1874
G3 X14.6862 Y-10.2021 I2.3742 J1.8339
G2 X14.6894 Y-10.2062 I-0.2514 J-0.1967
G3 X14.7022 Y-10.223 I2.3924 J1.8101
G1 X14.7119 Y-10.2357
G1 X14.7527 Y-10.289
G1 X14.7787 Y-10.3231
G1 X14.8122 Y-10.3671
G1 X14.8756 Y-10.4512
G1 X15.703 Y-12.5847
G0 Z3.0
G0 X-3.3751 Y1.0556
G0 Z-11.9
G1 F40.0 Z-12.5
G1 F80.0 X-0.7498 Y0.5428
G2 X-0.0164 Y0.3047 I-56.5152 J-175.278
G3 X-0.0013 Y0.2998 I0.9326 J2.8514
G2 X0.2183 Y0.2256 I-2.3823 J-7.4162
G3 X0.2831 Y0.2035 I1.0021 J2.8277
G2 X0.3666 Y0.1745 I-0.8704 J-2.6466
G3 X0.4019 Y0.1619 I1.0271 J2.8187
G2 X1.6376 Y-0.3056 I-8.8293 J-25.2052
G3 X1.6496 Y-0.3104 I1.1306 J2.7788
G2 X2.4715 Y-0.6557 I-10.6066 J-26.3971
G3 X2.5214 Y-0.6771 I1.2052 J2.7473
G2 X2.5487 Y-0.6891 I-0.3097 J-0.7424
G3 X2.643 Y-0.7306 I1.2569 J2.724
G2 X2.6789 Y-0.7466 I-0.375 J-0.8922
G3 X2.7815 Y-0.7924 I1.2737 J2.7162
G2 X2.8272 Y-0.813 I-0.4383 J-1.0338
G3 X2.877 Y-0.8362 I1.2931 J2.707
G2 X4.0631 Y-1.4053 I-13.5911 J-29.846
G2 X5.0932 Y-1.951 I-17.1106 J-33.5484
G3 X5.1279 Y-1.9697 I1.4451 J2.629
G2 X5.188 Y-2.0032 I-0.8668 J-1.6272
G3 X5.2226 Y-2.023 I1.5082 J2.5933
G2 X6.3608 Y-2.6925 I-17.7557 J-31.486
G1 X6.7427 Y-2.9322
G1 X7.1182 Y-3.1754
G1 X7.3935 Y-3.3585
G1 X7.6712 Y-3.5476
G1 X7.8517 Y-3.6728
G1 X8.0326 Y-3.8003
G1 X8.2083 Y-3.9259
G1 X8.5719 Y-4.192
G1 X8.8267 Y-4.3832
G1 X9.0933 Y-4.5877
G2 X9.2406 Y-4.7027 I-7.2701 J-9.4627
G3 X9.2589 Y-4.7171 I1.8647 J2.35
G2 X9.5319 Y-4.9344 I-11.6979 J-14.9803
G1 X9.8364 Y-5.1827
G1 X9.9077 Y-5.2418
G1 X10.2348 Y-5.5173
G1 X10.5636 Y-5.8021
G2 X10.8684 Y-6.0736 I-13.1629 J-15.0848
G3 X10.8897 Y-6.0928 I2.0181 J2.2197
G2 X11.182 Y-6.3604 I-10.0184 J-11.2334
G3 X11.2089 Y-6.3854 I2.055 J2.1856
G2 X11.4897 Y-6.6496 I-10.263 J-11.1867
G1 X11.8155 Y-6.9647
G2 X12.3595 Y-7.5119 I-19.7844 J-20.2133
G1 X12.6292 Y-7.7934
G1 X12.7097 Y-7.8789
G1 X12.8291 Y-8.0067
G3 X12.8357 Y-8.0138 I2.1925 J2.0477
G2 X12.876 Y-8.0572 I-2.8978 J-2.7241
G3 X12.9023 Y-8.0858 I2.2162 J2.022
G2 X13.1701 Y-8.38 I-10.2513 J-9.5991
G3 X13.2054 Y-8.4192 I2.247 J1.9877
G3 X13.2149 Y-8.43 I2.2578 J1.9755
G1 X13.4673 Y-8.7157
G1 X13.5369 Y-8.7956
G1 X13.8323 Y-9.1416
G1 X13.8841 Y-9.2033
G1 X13.9422 Y-9.2728
G1 X13.9583 Y-9.2921
G3 X13.9603 Y-9.2945 I2.3065 J1.9184
G2 X14.0803 Y-9.4399 I-15.8287 J-13.1936
G1 X14.3124 Y-9.7262
G1 X14.3866 Y-9.8191
G3 X14.3954 Y-9.8301 I2.3447 J1.8714
G3 X14.4029 Y-9.8397 I2.3629 J1.8484
G1 X14.5055 Y-9.9698
G1 X14.6178 Y-10.1137
G1 X14.6306 Y-10.1302
G1 X14.6748 Y-10.1874
G3 X14.6862 Y-10.2021 I2.3742 J1.8339
G2 X14.6894 Y-10.2062 I-0.2514 J-0.1967
G3 X14.7022 Y-10.223 I2.3924 J1.8101
G1 X14.7119 Y-10.2357
G1 X14.7527 Y-10.289
G1 X14.7787 Y-10.3231
G1 X14.8122 Y-10.3671
G1 X14.8756 Y-10.4512
G1 X15.703 Y-12.5847
G0 Z3.0
G0 X-3.3751 Y1.0556
G0 Z-12.4
G1 F40.0 Z-13.0
G1 F80.0 X-0.7498 Y0.5428
G2 X-0.0164 Y0.3047 I-56.5152 J-175.278
G3 X-0.0013 Y0.2998 I0.9326 J2.8514
G2 X0.2183 Y0.2256 I-2.3823 J-7.4162
G3 X0.2831 Y0.2035 I1.0021 J2.8277
G2 X0.3666 Y0.1745 I-0.8704 J-2.6466
G3 X0.4019 Y0.1619 I1.0271 J2.8187
G2 X1.6376 Y-0.3056 I-8.8293 J-25.2052
G3 X1.6496 Y-0.3104 I1.1306 J2.7788
G2 X2.4715 Y-0.6557 I-10.6066 J-26.3971
G3 X2.5214 Y-0.6771 I1.2052 J2.7473
G2 X2.5487 Y-0.6891 I-0.3097 J-0.7424
G3 X2.643 Y-0.7306 I1.2569 J2.724
G2 X2.6789 Y-0.7466 I-0.375 J-0.8922
G3 X2.7815 Y-0.7924 I1.2737 J2.7162
G2 X2.8272 Y-0.813 I-0.4383 J-1.0338
G3 X2.877 Y-0.8362 I1.2931 J2.707
G2 X4.0631 Y-1.4053 I-13.5911 J-29.846
G2 X5.0932 Y-1.951 I-17.1106 J-33.5484
G3 X5.1279 Y-1.9697 I1.4451 J2.629
G2 X5.188 Y-2.0032 I-0.8668 J-1.6272
G3 X5.2226 Y-2.023 I1.5082 J2.5933
G2 X6.3608 Y-2.6925 I-17.7557 J-31.486
G1 X6.7427 Y-2.9322
G1 X7.1182 Y-3.1754
G1 X7.3935 Y-3.3585
G1 X7.6712 Y-3.5476
G1 X7.8517 Y-3.6728
G1 X8.0326 Y-3.8003
G1 X8.2083 Y-3.9259
G1 X8.5719 Y-4.192
G1 X8.8267 Y-4.3832
G1 X9.0933 Y-4.5877
G2 X9.2406 Y-4.7027 I-7.2701 J-9.4627
G3 X9.2589 Y-4.7171 I1.8647 J2.35
G2 X9.5319 Y-4.9344 I-11.6979 J-14.9803
G1 X9.8364 Y-5.1827
G1 X9.9077 Y-5.2418
G1 X10.2348 Y-5.5173
G1 X10.5636 Y-5.8021
G2 X10.8684 Y-6.0736 I-13.1629 J-15.0848
G3 X10.8897 Y-6.0928 I2.0181 J2.2197
G2 X11.182 Y-6.3604 I-10.0184 J-11.2334
G3 X11.2089 Y-6.3854 I2.055 J2.1856
G2 X11.4897 Y-6.6496 I-10.263 J-11.1867
G1 X11.8155 Y-6.9647
G2 X12.3595 Y-7.5119 I-19.7844 J-20.2133
G1 X12.6292 Y-7.7934
G1 X12.7097 Y-7.8789
G1 X12.8291 Y-8.0067
G3 X12.8357 Y-8.0138 I2.1925 J2.0477
G2 X12.876 Y-8.0572 I-2.8978 J-2.7241
G3 X12.9023 Y-8.0858 I2.2162 J2.022
G2 X13.1701 Y-8.38 I-10.2513 J-9.5991
G3 X13.2054 Y-8.4192 I2.247 J1.9877
G3 X13.2149 Y-8.43 I2.2578 J1.9755
G1 X13.4673 Y-8.7157
G1 X13.5369 Y-8.7956
G1 X13.8323 Y-9.1416
G1 X13.8841 Y-9.2033
G1 X13.9422 Y-9.2728
G1 X13.9583 Y-9.2921
G3 X13.9603 Y-9.2945 I2.3065 J1.9184
G2 X14.0803 Y-9.4399 I-15.8287 J-13.1936
G1 X14.3124 Y-9.7262
G1 X14.3866 Y-9.8191
G3 X14.3954 Y-9.8301 I2.3447 J1.8714
G3 X14.4029 Y-9.8397 I2.3629 J1.8484
G1 X14.5055 Y-9.9698
G1 X14.6178 Y-10.1137
G1 X14.6306 Y-10.1302
G1 X14.6748 Y-10.1874
G3 X14.6862 Y-10.2021 I2.3742 J1.8339
G2 X14.6894 Y-10.2062 I-0.2514 J-0.1967
G3 X14.7022 Y-10.223 I2.3924 J1.8101
G1 X14.7119 Y-10.2357
G1 X14.7527 Y-10.289
G1 X14.7787 Y-10.3231
G1 X14.8122 Y-10.3671
G1 X14.8756 Y-10.4512
G1 X15.703 Y-12.5847
G0 Z3.0
G0 X-3.3751 Y1.0556
G0 Z-12.9
G1 F40.0 Z-13.5
G1 F80.0 X-0.7498 Y0.5428
G2 X-0.0164 Y0.3047 I-56.5152 J-175.278
G3 X-0.0013 Y0.2998 I0.9326 J2.8514
G2 X0.2183 Y0.2256 I-2.3823 J-7.4162
G3 X0.2831 Y0.2035 I1.0021 J2.8277
G2 X0.3666 Y0.1745 I-0.8704 J-2.6466
G3 X0.4019 Y0.1619 I1.0271 J2.8187
G2 X1.6376 Y-0.3056 I-8.8293 J-25.2052
G3 X1.6496 Y-0.3104 I1.1306 J2.7788
G2 X2.4715 Y-0.6557 I-10.6066 J-26.3971
G3 X2.5214 Y-0.6771 I1.2052 J2.7473
G2 X2.5487 Y-0.6891 I-0.3097 J-0.7424
G3 X2.643 Y-0.7306 I1.2569 J2.724
G2 X2.6789 Y-0.7466 I-0.375 J-0.8922
G3 X2.7815 Y-0.7924 I1.2737 J2.7162
G2 X2.8272 Y-0.813 I-0.4383 J-1.0338
G3 X2.877 Y-0.8362 I1.2931 J2.707
G2 X4.0631 Y-1.4053 I-13.5911 J-29.846
G2 X5.0932 Y-1.951 I-17.1106 J-33.5484
G3 X5.1279 Y-1.9697 I1.4451 J2.629
G2 X5.188 Y-2.0032 I-0.8668 J-1.6272
G3 X5.2226 Y-2.023 I1.5082 J2.5933
G2 X6.3608 Y-2.6925 I-17.7557 J-31.486
G1 X6.7427 Y-2.9322
G1 X7.1182 Y-3.1754
G1 X7.3935 Y-3.3585
G1 X7.6712 Y-3.5476
G1 X7.8517 Y-3.6728
G1 X8.0326 Y-3.8003
G1 X8.2083 Y-3.9259
G1 X8.5719 Y-4.192
G1 X8.8267 Y-4.3832
G1 X9.0933 Y-4.5877
G2 X9.2406 Y-4.7027 I-7.2701 J-9.4627
G3 X9.2589 Y-4.7171 I1.8647 J2.35
G2 X9.5319 Y-4.9344 I-11.6979 J-14.9803
G1 X9.8364 Y-5.1827
G1 X9.9077 Y-5.2418
G1 X10.2348 Y-5.5173
G1 X10.5636 Y-5.8021
G2 X10.8684 Y-6.0736 I-13.1629 J-15.0848
G3 X10.8897 Y-6.0928 I2.0181 J2.2197
G2 X11.182 Y-6.3604 I-10.0184 J-11.2334
G3 X11.2089 Y-6.3854 I2.055 J2.1856
G2 X11.4897 Y-6.6496 I-10.263 J-11.1867
G1 X11.8155 Y-6.9647
G2 X12.3595 Y-7.5119 I-19.7844 J-20.2133
G1 X12.6292 Y-7.7934
G1 X12.7097 Y-7.8789
G1 X12.8291 Y-8.0067
G3 X12.8357 Y-8.0138 I2.1925 J2.0477
G2 X12.876 Y-8.0572 I-2.8978 J-2.7241
G3 X12.9023 Y-8.0858 I2.2162 J2.022
G2 X13.1701 Y-8.38 I-10.2513 J-9.5991
G3 X13.2054 Y-8.4192 I2.247 J1.9877
G3 X13.2149 Y-8.43 I2.2578 J1.9755
G1 X13.4673 Y-8.7157
G1 X13.5369 Y-8.7956
G1 X13.8323 Y-9.1416
G1 X13.8841 Y-9.2033
G1 X13.9422 Y-9.2728
G1 X13.9583 Y-9.2921
G3 X13.9603 Y-9.2945 I2.3065 J1.9184
G2 X14.0803 Y-9.4399 I-15.8287 J-13.1936
G1 X14.3124 Y-9.7262
G1 X14.3866 Y-9.8191
G3 X14.3954 Y-9.8301 I2.3447 J1.8714
G3 X14.4029 Y-9.8397 I2.3629 J1.8484
G1 X14.5055 Y-9.9698
G1 X14.6178 Y-10.1137
G1 X14.6306 Y-10.1302
G1 X14.6748 Y-10.1874
G3 X14.6862 Y-10.2021 I2.3742 J1.8339
G2 X14.6894 Y-10.2062 I-0.2514 J-0.1967
G3 X14.7022 Y-10.223 I2.3924 J1.8101
G1 X14.7119 Y-10.2357
G1 X14.7527 Y-10.289
G1 X14.7787 Y-10.3231
G1 X14.8122 Y-10.3671
G1 X14.8756 Y-10.4512
G1 X15.703 Y-12.5847
G0 Z3.0
G0 X-3.3751 Y1.0556
G0 Z-13.4
G1 F40.0 Z-14.0
G1 F80.0 X-0.7498 Y0.5428
G2 X-0.0164 Y0.3047 I-56.5152 J-175.278
G3 X-0.0013 Y0.2998 I0.9326 J2.8514
G2 X0.2183 Y0.2256 I-2.3823 J-7.4162
G3 X0.2831 Y0.2035 I1.0021 J2.8277
G2 X0.3666 Y0.1745 I-0.8704 J-2.6466
G3 X0.4019 Y0.1619 I1.0271 J2.8187
G2 X1.6376 Y-0.3056 I-8.8293 J-25.2052
G3 X1.6496 Y-0.3104 I1.1306 J2.7788
G2 X2.4715 Y-0.6557 I-10.6066 J-26.3971
G3 X2.5214 Y-0.6771 I1.2052 J2.7473
G2 X2.5487 Y-0.6891 I-0.3097 J-0.7424
G3 X2.643 Y-0.7306 I1.2569 J2.724
G2 X2.6789 Y-0.7466 I-0.375 J-0.8922
G3 X2.7815 Y-0.7924 I1.2737 J2.7162
G2 X2.8272 Y-0.813 I-0.4383 J-1.0338
G3 X2.877 Y-0.8362 I1.2931 J2.707
G2 X4.0631 Y-1.4053 I-13.5911 J-29.846
G2 X5.0932 Y-1.951 I-17.1106 J-33.5484
G3 X5.1279 Y-1.9697 I1.4451 J2.629
G2 X5.188 Y-2.0032 I-0.8668 J-1.6272
G3 X5.2226 Y-2.023 I1.5082 J2.5933
G2 X6.3608 Y-2.6925 I-17.7557 J-31.486
G1 X6.7427 Y-2.9322
G1 X7.1182 Y-3.1754
G1 X7.3935 Y-3.3585
G1 X7.6712 Y-3.5476
G1 X7.8517 Y-3.6728
G1 X8.0326 Y-3.8003
G1 X8.2083 Y-3.9259
G1 X8.5719 Y-4.192
G1 X8.8267 Y-4.3832
G1 X9.0933 Y-4.5877
G2 X9.2406 Y-4.7027 I-7.2701 J-9.4627
G3 X9.2589 Y-4.7171 I1.8647 J2.35
G2 X9.5319 Y-4.9344 I-11.6979 J-14.9803
G1 X9.8364 Y-5.1827
G1 X9.9077 Y-5.2418
G1 X10.2348 Y-5.5173
G1 X10.5636 Y-5.8021
G2 X10.8684 Y-6.0736 I-13.1629 J-15.0848
G3 X10.8897 Y-6.0928 I2.0181 J2.2197
G2 X11.182 Y-6.3604 I-10.0184 J-11.2334
G3 X11.2089 Y-6.3854 I2.055 J2.1856
G2 X11.4897 Y-6.6496 I-10.263 J-11.1867
G1 X11.8155 Y-6.9647
G2 X12.3595 Y-7.5119 I-19.7844 J-20.2133
G1 X12.6292 Y-7.7934
G1 X12.7097 Y-7.8789
G1 X12.8291 Y-8.0067
G3 X12.8357 Y-8.0138 I2.1925 J2.0477
G2 X12.876 Y-8.0572 I-2.8978 J-2.7241
G3 X12.9023 Y-8.0858 I2.2162 J2.022
G2 X13.1701 Y-8.38 I-10.2513 J-9.5991
G3 X13.2054 Y-8.4192 I2.247 J1.9877
G3 X13.2149 Y-8.43 I2.2578 J1.9755
G1 X13.4673 Y-8.7157
G1 X13.5369 Y-8.7956
G1 X13.8323 Y-9.1416
G1 X13.8841 Y-9.2033
G1 X13.9422 Y-9.2728
G1 X13.9583 Y-9.2921
G3 X13.9603 Y-9.2945 I2.3065 J1.9184
G2 X14.0803 Y-9.4399 I-15.8287 J-13.1936
G1 X14.3124 Y-9.7262
G1 X14.3866 Y-9.8191
G3 X14.3954 Y-9.8301 I2.3447 J1.8714
G3 X14.4029 Y-9.8397 I2.3629 J1.8484
G1 X14.5055 Y-9.9698
G1 X14.6178 Y-10.1137
G1 X14.6306 Y-10.1302
G1 X14.6748 Y-10.1874
G3 X14.6862 Y-10.2021 I2.3742 J1.8339
G2 X14.6894 Y-10.2062 I-0.2514 J-0.1967
G3 X14.7022 Y-10.223 I2.3924 J1.8101
G1 X14.7119 Y-10.2357
G1 X14.7527 Y-10.289
G1 X14.7787 Y-10.3231
G1 X14.8122 Y-10.3671
G1 X14.8756 Y-10.4512
G1 X15.703 Y-12.5847
G0 Z3.0
G0 X-3.3751 Y1.0556
G0 Z-13.9
G1 F40.0 Z-14.5
G1 F80.0 X-0.7498 Y0.5428
G2 X-0.0164 Y0.3047 I-56.5152 J-175.278
G3 X-0.0013 Y0.2998 I0.9326 J2.8514
G2 X0.2183 Y0.2256 I-2.3823 J-7.4162
G3 X0.2831 Y0.2035 I1.0021 J2.8277
G2 X0.3666 Y0.1745 I-0.8704 J-2.6466
G3 X0.4019 Y0.1619 I1.0271 J2.8187
G2 X1.6376 Y-0.3056 I-8.8293 J-25.2052
G3 X1.6496 Y-0.3104 I1.1306 J2.7788
G2 X2.4715 Y-0.6557 I-10.6066 J-26.3971
G3 X2.5214 Y-0.6771 I1.2052 J2.7473
G2 X2.5487 Y-0.6891 I-0.3097 J-0.7424
G3 X2.643 Y-0.7306 I1.2569 J2.724
G2 X2.6789 Y-0.7466 I-0.375 J-0.8922
G3 X2.7815 Y-0.7924 I1.2737 J2.7162
G2 X2.8272 Y-0.813 I-0.4383 J-1.0338
G3 X2.877 Y-0.8362 I1.2931 J2.707
G2 X4.0631 Y-1.4053 I-13.5911 J-29.846
G2 X5.0932 Y-1.951 I-17.1106 J-33.5484
G3 X5.1279 Y-1.9697 I1.4451 J2.629
G2 X5.188 Y-2.0032 I-0.8668 J-1.6272
G3 X5.2226 Y-2.023 I1.5082 J2.5933
G2 X6.3608 Y-2.6925 I-17.7557 J-31.486
G1 X6.7427 Y-2.9322
G1 X7.1182 Y-3.1754
G1 X7.3935 Y-3.3585
G1 X7.6712 Y-3.5476
G1 X7.8517 Y-3.6728
G1 X8.0326 Y-3.8003
G1 X8.2083 Y-3.9259
G1 X8.5719 Y-4.192
G1 X8.8267 Y-4.3832
G1 X9.0933 Y-4.5877
G2 X9.2406 Y-4.7027 I-7.2701 J-9.4627
G3 X9.2589 Y-4.7171 I1.8647 J2.35
G2 X9.5319 Y-4.9344 I-11.6979 J-14.9803
G1 X9.8364 Y-5.1827
G1 X9.9077 Y-5.2418
G1 X10.2348 Y-5.5173
G1 X10.5636 Y-5.8021
G2 X10.8684 Y-6.0736 I-13.1629 J-15.0848
G3 X10.8897 Y-6.0928 I2.0181 J2.2197
G2 X11.182 Y-6.3604 I-10.0184 J-11.2334
G3 X11.2089 Y-6.3854 I2.055 J2.1856
G2 X11.4897 Y-6.6496 I-10.263 J-11.1867
G1 X11.8155 Y-6.9647
G2 X12.3595 Y-7.5119 I-19.7844 J-20.2133
G1 X12.6292 Y-7.7934
G1 X12.7097 Y-7.8789
G1 X12.8291 Y-8.0067
G3 X12.8357 Y-8.0138 I2.1925 J2.0477
G2 X12.876 Y-8.0572 I-2.8978 J-2.7241
G3 X12.9023 Y-8.0858 I2.2162 J2.022
G2 X13.1701 Y-8.38 I-10.2513 J-9.5991
G3 X13.2054 Y-8.4192 I2.247 J1.9877
G3 X13.2149 Y-8.43 I2.2578 J1.9755
G1 X13.4673 Y-8.7157
G1 X13.5369 Y-8.7956
G1 X13.8323 Y-9.1416
G1 X13.8841 Y-9.2033
G1 X13.9422 Y-9.2728
G1 X13.9583 Y-9.2921
G3 X13.9603 Y-9.2945 I2.3065 J1.9184
G2 X14.0803 Y-9.4399 I-15.8287 J-13.1936
G1 X14.3124 Y-9.7262
G1 X14.3866 Y-9.8191
G3 X14.3954 Y-9.8301 I2.3447 J1.8714
G3 X14.4029 Y-9.8397 I2.3629 J1.8484
G1 X14.5055 Y-9.9698
G1 X14.6178 Y-10.1137
G1 X14.6306 Y-10.1302
G1 X14.6748 Y-10.1874
G3 X14.6862 Y-10.2021 I2.3742 J1.8339
G2 X14.6894 Y-10.2062 I-0.2514 J-0.1967
G3 X14.7022 Y-10.223 I2.3924 J1.8101
G1 X14.7119 Y-10.2357
G1 X14.7527 Y-10.289
G1 X14.7787 Y-10.3231
G1 X14.8122 Y-10.3671
G1 X14.8756 Y-10.4512
G1 X15.703 Y-12.5847
G0 Z3.0
G0 X-3.3751 Y1.0556
G0 Z-14.4
G1 F40.0 Z-15.0
G1 F80.0 X-0.7498 Y0.5428
G2 X-0.0164 Y0.3047 I-56.5152 J-175.278
G3 X-0.0013 Y0.2998 I0.9326 J2.8514
G2 X0.2183 Y0.2256 I-2.3823 J-7.4162
G3 X0.2831 Y0.2035 I1.0021 J2.8277
G2 X0.3666 Y0.1745 I-0.8704 J-2.6466
G3 X0.4019 Y0.1619 I1.0271 J2.8187
G2 X1.6376 Y-0.3056 I-8.8293 J-25.2052
G3 X1.6496 Y-0.3104 I1.1306 J2.7788
G2 X2.4715 Y-0.6557 I-10.6066 J-26.3971
G3 X2.5214 Y-0.6771 I1.2052 J2.7473
G2 X2.5487 Y-0.6891 I-0.3097 J-0.7424
G3 X2.643 Y-0.7306 I1.2569 J2.724
G2 X2.6789 Y-0.7466 I-0.375 J-0.8922
G3 X2.7815 Y-0.7924 I1.2737 J2.7162
G2 X2.8272 Y-0.813 I-0.4383 J-1.0338
G3 X2.877 Y-0.8362 I1.2931 J2.707
G2 X4.0631 Y-1.4053 I-13.5911 J-29.846
G2 X5.0932 Y-1.951 I-17.1106 J-33.5484
G3 X5.1279 Y-1.9697 I1.4451 J2.629
G2 X5.188 Y-2.0032 I-0.8668 J-1.6272
G3 X5.2226 Y-2.023 I1.5082 J2.5933
G2 X6.3608 Y-2.6925 I-17.7557 J-31.486
G1 X6.7427 Y-2.9322
G1 X7.1182 Y-3.1754
G1 X7.3935 Y-3.3585
G1 X7.6712 Y-3.5476
G1 X7.8517 Y-3.6728
G1 X8.0326 Y-3.8003
G1 X8.2083 Y-3.9259
G1 X8.5719 Y-4.192
G1 X8.8267 Y-4.3832
G1 X9.0933 Y-4.5877
G2 X9.2406 Y-4.7027 I-7.2701 J-9.4627
G3 X9.2589 Y-4.7171 I1.8647 J2.35
G2 X9.5319 Y-4.9344 I-11.6979 J-14.9803
G1 X9.8364 Y-5.1827
G1 X9.9077 Y-5.2418
G1 X10.2348 Y-5.5173
G1 X10.5636 Y-5.8021
G2 X10.8684 Y-6.0736 I-13.1629 J-15.0848
G3 X10.8897 Y-6.0928 I2.0181 J2.2197
G2 X11.182 Y-6.3604 I-10.0184 J-11.2334
G3 X11.2089 Y-6.3854 I2.055 J2.1856
G2 X11.4897 Y-6.6496 I-10.263 J-11.1867
G1 X11.8155 Y-6.9647
G2 X12.3595 Y-7.5119 I-19.7844 J-20.2133
G1 X12.6292 Y-7.7934
G1 X12.7097 Y-7.8789
G1 X12.8291 Y-8.0067
G3 X12.8357 Y-8.0138 I2.1925 J2.0477
G2 X12.876 Y-8.0572 I-2.8978 J-2.7241
G3 X12.9023 Y-8.0858 I2.2162 J2.022
G2 X13.1701 Y-8.38 I-10.2513 J-9.5991
G3 X13.2054 Y-8.4192 I2.247 J1.9877
G3 X13.2149 Y-8.43 I2.2578 J1.9755
G1 X13.4673 Y-8.7157
G1 X13.5369 Y-8.7956
G1 X13.8323 Y-9.1416
G1 X13.8841 Y-9.2033
G1 X13.9422 Y-9.2728
G1 X13.9583 Y-9.2921
G3 X13.9603 Y-9.2945 I2.3065 J1.9184
G2 X14.0803 Y-9.4399 I-15.8287 J-13.1936
G1 X14.3124 Y-9.7262
G1 X14.3866 Y-9.8191
G3 X14.3954 Y-9.8301 I2.3447 J1.8714
G3 X14.4029 Y-9.8397 I2.3629 J1.8484
G1 X14.5055 Y-9.9698
G1 X14.6178 Y-10.1137
G1 X14.6306 Y-10.1302
G1 X14.6748 Y-10.1874
G3 X14.6862 Y-10.2021 I2.3742 J1.8339
G2 X14.6894 Y-10.2062 I-0.2514 J-0.1967
G3 X14.7022 Y-10.223 I2.3924 J1.8101
G1 X14.7119 Y-10.2357
G1 X14.7527 Y-10.289
G1 X14.7787 Y-10.3231
G1 X14.8122 Y-10.3671
G1 X14.8756 Y-10.4512
G1 X15.703 Y-12.5847
G0 Z3.0
G0 X-3.3751 Y1.0556
G0 Z-14.9
G1 F40.0 Z-15.5
G1 F80.0 X-0.7498 Y0.5428
G2 X-0.0164 Y0.3047 I-56.5152 J-175.278
G3 X-0.0013 Y0.2998 I0.9326 J2.8514
G2 X0.2183 Y0.2256 I-2.3823 J-7.4162
G3 X0.2831 Y0.2035 I1.0021 J2.8277
G2 X0.3666 Y0.1745 I-0.8704 J-2.6466
G3 X0.4019 Y0.1619 I1.0271 J2.8187
G2 X1.6376 Y-0.3056 I-8.8293 J-25.2052
G3 X1.6496 Y-0.3104 I1.1306 J2.7788
G2 X2.4715 Y-0.6557 I-10.6066 J-26.3971
G3 X2.5214 Y-0.6771 I1.2052 J2.7473
G2 X2.5487 Y-0.6891 I-0.3097 J-0.7424
G3 X2.643 Y-0.7306 I1.2569 J2.724
G2 X2.6789 Y-0.7466 I-0.375 J-0.8922
G3 X2.7815 Y-0.7924 I1.2737 J2.7162
G2 X2.8272 Y-0.813 I-0.4383 J-1.0338
G3 X2.877 Y-0.8362 I1.2931 J2.707
G2 X4.0631 Y-1.4053 I-13.5911 J-29.846
G2 X5.0932 Y-1.951 I-17.1106 J-33.5484
G3 X5.1279 Y-1.9697 I1.4451 J2.629
G2 X5.188 Y-2.0032 I-0.8668 J-1.6272
G3 X5.2226 Y-2.023 I1.5082 J2.5933
G2 X6.3608 Y-2.6925 I-17.7557 J-31.486
G1 X6.7427 Y-2.9322
G1 X7.1182 Y-3.1754
G1 X7.3935 Y-3.3585
G1 X7.6712 Y-3.5476
G1 X7.8517 Y-3.6728
G1 X8.0326 Y-3.8003
G1 X8.2083 Y-3.9259
G1 X8.5719 Y-4.192
G1 X8.8267 Y-4.3832
G1 X9.0933 Y-4.5877
G2 X9.2406 Y-4.7027 I-7.2701 J-9.4627
G3 X9.2589 Y-4.7171 I1.8647 J2.35
G2 X9.5319 Y-4.9344 I-11.6979 J-14.9803
G1 X9.8364 Y-5.1827
G1 X9.9077 Y-5.2418
G1 X10.2348 Y-5.5173
G1 X10.5636 Y-5.8021
G2 X10.8684 Y-6.0736 I-13.1629 J-15.0848
G3 X10.8897 Y-6.0928 I2.0181 J2.2197
G2 X11.182 Y-6.3604 I-10.0184 J-11.2334
G3 X11.2089 Y-6.3854 I2.055 J2.1856
G2 X11.4897 Y-6.6496 I-10.263 J-11.1867
G1 X11.8155 Y-6.9647
G2 X12.3595 Y-7.5119 I-19.7844 J-20.2133
G1 X12.6292 Y-7.7934
G1 X12.7097 Y-7.8789
G1 X12.8291 Y-8.0067
G3 X12.8357 Y-8.0138 I2.1925 J2.0477
G2 X12.876 Y-8.0572 I-2.8978 J-2.7241
G3 X12.9023 Y-8.0858 I2.2162 J2.022
G2 X13.1701 Y-8.38 I-10.2513 J-9.5991
G3 X13.2054 Y-8.4192 I2.247 J1.9877
G3 X13.2149 Y-8.43 I2.2578 J1.9755
G1 X13.4673 Y-8.7157
G1 X13.5369 Y-8.7956
G1 X13.8323 Y-9.1416
G1 X13.8841 Y-9.2033
G1 X13.9422 Y-9.2728
G1 X13.9583 Y-9.2921
G3 X13.9603 Y-9.2945 I2.3065 J1.9184
G2 X14.0803 Y-9.4399 I-15.8287 J-13.1936
G1 X14.3124 Y-9.7262
G1 X14.3866 Y-9.8191
G3 X14.3954 Y-9.8301 I2.3447 J1.8714
G3 X14.4029 Y-9.8397 I2.3629 J1.8484
G1 X14.5055 Y-9.9698
G1 X14.6178 Y-10.1137
G1 X14.6306 Y-10.1302
G1 X14.6748 Y-10.1874
G3 X14.6862 Y-10.2021 I2.3742 J1.8339
G2 X14.6894 Y-10.2062 I-0.2514 J-0.1967
G3 X14.7022 Y-10.223 I2.3924 J1.8101
G1 X14.7119 Y-10.2357
G1 X14.7527 Y-10.289
G1 X14.7787 Y-10.3231
G1 X14.8122 Y-10.3671
G1 X14.8756 Y-10.4512
G1 X15.703 Y-12.5847
G0 Z3.0
G0 X-3.3751 Y1.0556
G0 Z-15.4
G1 F40.0 Z-16.0
G1 F80.0 X-0.7498 Y0.5428
G2 X-0.0164 Y0.3047 I-56.5152 J-175.278
G3 X-0.0013 Y0.2998 I0.9326 J2.8514
G2 X0.2183 Y0.2256 I-2.3823 J-7.4162
G3 X0.2831 Y0.2035 I1.0021 J2.8277
G2 X0.3666 Y0.1745 I-0.8704 J-2.6466
G3 X0.4019 Y0.1619 I1.0271 J2.8187
G2 X1.6376 Y-0.3056 I-8.8293 J-25.2052
G3 X1.6496 Y-0.3104 I1.1306 J2.7788
G2 X2.4715 Y-0.6557 I-10.6066 J-26.3971
G3 X2.5214 Y-0.6771 I1.2052 J2.7473
G2 X2.5487 Y-0.6891 I-0.3097 J-0.7424
G3 X2.643 Y-0.7306 I1.2569 J2.724
G2 X2.6789 Y-0.7466 I-0.375 J-0.8922
G3 X2.7815 Y-0.7924 I1.2737 J2.7162
G2 X2.8272 Y-0.813 I-0.4383 J-1.0338
G3 X2.877 Y-0.8362 I1.2931 J2.707
G2 X4.0631 Y-1.4053 I-13.5911 J-29.846
G2 X5.0932 Y-1.951 I-17.1106 J-33.5484
G3 X5.1279 Y-1.9697 I1.4451 J2.629
G2 X5.188 Y-2.0032 I-0.8668 J-1.6272
G3 X5.2226 Y-2.023 I1.5082 J2.5933
G2 X6.3608 Y-2.6925 I-17.7557 J-31.486
G1 X6.7427 Y-2.9322
G1 X7.1182 Y-3.1754
G1 X7.3935 Y-3.3585
G1 X7.6712 Y-3.5476
G1 X7.8517 Y-3.6728
G1 X8.0326 Y-3.8003
G1 X8.2083 Y-3.9259
G1 X8.5719 Y-4.192
G1 X8.8267 Y-4.3832
G1 X9.0933 Y-4.5877
G2 X9.2406 Y-4.7027 I-7.2701 J-9.4627
G3 X9.2589 Y-4.7171 I1.8647 J2.35
G2 X9.5319 Y-4.9344 I-11.6979 J-14.9803
G1 X9.8364 Y-5.1827
G1 X9.9077 Y-5.2418
G1 X10.2348 Y-5.5173
G1 X10.5636 Y-5.8021
G2 X10.8684 Y-6.0736 I-13.1629 J-15.0848
G3 X10.8897 Y-6.0928 I2.0181 J2.2197
G2 X11.182 Y-6.3604 I-10.0184 J-11.2334
G3 X11.2089 Y-6.3854 I2.055 J2.1856
G2 X11.4897 Y-6.6496 I-10.263 J-11.1867
G1 X11.8155 Y-6.9647
G2 X12.3595 Y-7.5119 I-19.7844 J-20.2133
G1 X12.6292 Y-7.7934
G1 X12.7097 Y-7.8789
G1 X12.8291 Y-8.0067
G3 X12.8357 Y-8.0138 I2.1925 J2.0477
G2 X12.876 Y-8.0572 I-2.8978 J-2.7241
G3 X12.9023 Y-8.0858 I2.2162 J2.022
G2 X13.1701 Y-8.38 I-10.2513 J-9.5991
G3 X13.2054 Y-8.4192 I2.247 J1.9877
G3 X13.2149 Y-8.43 I2.2578 J1.9755
G1 X13.4673 Y-8.7157
G1 X13.5369 Y-8.7956
G1 X13.8323 Y-9.1416
G1 X13.8841 Y-9.2033
G1 X13.9422 Y-9.2728
G1 X13.9583 Y-9.2921
G3 X13.9603 Y-9.2945 I2.3065 J1.9184
G2 X14.0803 Y-9.4399 I-15.8287 J-13.1936
G1 X14.3124 Y-9.7262
G1 X14.3866 Y-9.8191
G3 X14.3954 Y-9.8301 I2.3447 J1.8714
G3 X14.4029 Y-9.8397 I2.3629 J1.8484
G1 X14.5055 Y-9.9698
G1 X14.6178 Y-10.1137
G1 X14.6306 Y-10.1302
G1 X14.6748 Y-10.1874
G3 X14.6862 Y-10.2021 I2.3742 J1.8339
G2 X14.6894 Y-10.2062 I-0.2514 J-0.1967
G3 X14.7022 Y-10.223 I2.3924 J1.8101
G1 X14.7119 Y-10.2357
G1 X14.7527 Y-10.289
G1 X14.7787 Y-10.3231
G1 X14.8122 Y-10.3671
G1 X14.8756 Y-10.4512
G1 X15.703 Y-12.5847
G0 Z3.0
G0 X-3.3751 Y1.0556
G0 Z-15.9
G1 F40.0 Z-16.5
G1 F80.0 X-0.7498 Y0.5428
G2 X-0.0164 Y0.3047 I-56.5152 J-175.278
G3 X-0.0013 Y0.2998 I0.9326 J2.8514
G2 X0.2183 Y0.2256 I-2.3823 J-7.4162
G3 X0.2831 Y0.2035 I1.0021 J2.8277
G2 X0.3666 Y0.1745 I-0.8704 J-2.6466
G3 X0.4019 Y0.1619 I1.0271 J2.8187
G2 X1.6376 Y-0.3056 I-8.8293 J-25.2052
G3 X1.6496 Y-0.3104 I1.1306 J2.7788
G2 X2.4715 Y-0.6557 I-10.6066 J-26.3971
G3 X2.5214 Y-0.6771 I1.2052 J2.7473
G2 X2.5487 Y-0.6891 I-0.3097 J-0.7424
G3 X2.643 Y-0.7306 I1.2569 J2.724
G2 X2.6789 Y-0.7466 I-0.375 J-0.8922
G3 X2.7815 Y-0.7924 I1.2737 J2.7162
G2 X2.8272 Y-0.813 I-0.4383 J-1.0338
G3 X2.877 Y-0.8362 I1.2931 J2.707
G2 X4.0631 Y-1.4053 I-13.5911 J-29.846
G2 X5.0932 Y-1.951 I-17.1106 J-33.5484
G3 X5.1279 Y-1.9697 I1.4451 J2.629
G2 X5.188 Y-2.0032 I-0.8668 J-1.6272
G3 X5.2226 Y-2.023 I1.5082 J2.5933
G2 X6.3608 Y-2.6925 I-17.7557 J-31.486
G1 X6.7427 Y-2.9322
G1 X7.1182 Y-3.1754
G1 X7.3935 Y-3.3585
G1 X7.6712 Y-3.5476
G1 X7.8517 Y-3.6728
G1 X8.0326 Y-3.8003
G1 X8.2083 Y-3.9259
G1 X8.5719 Y-4.192
G1 X8.8267 Y-4.3832
G1 X9.0933 Y-4.5877
G2 X9.2406 Y-4.7027 I-7.2701 J-9.4627
G3 X9.2589 Y-4.7171 I1.8647 J2.35
G2 X9.5319 Y-4.9344 I-11.6979 J-14.9803
G1 X9.8364 Y-5.1827
G1 X9.9077 Y-5.2418
G1 X10.2348 Y-5.5173
G1 X10.5636 Y-5.8021
G2 X10.8684 Y-6.0736 I-13.1629 J-15.0848
G3 X10.8897 Y-6.0928 I2.0181 J2.2197
G2 X11.182 Y-6.3604 I-10.0184 J-11.2334
G3 X11.2089 Y-6.3854 I2.055 J2.1856
G2 X11.4897 Y-6.6496 I-10.263 J-11.1867
G1 X11.8155 Y-6.9647
G2 X12.3595 Y-7.5119 I-19.7844 J-20.2133
G1 X12.6292 Y-7.7934
G1 X12.7097 Y-7.8789
G1 X12.8291 Y-8.0067
G3 X12.8357 Y-8.0138 I2.1925 J2.0477
G2 X12.876 Y-8.0572 I-2.8978 J-2.7241
G3 X12.9023 Y-8.0858 I2.2162 J2.022
G2 X13.1701 Y-8.38 I-10.2513 J-9.5991
G3 X13.2054 Y-8.4192 I2.247 J1.9877
G3 X13.2149 Y-8.43 I2.2578 J1.9755
G1 X13.4673 Y-8.7157
G1 X13.5369 Y-8.7956
G1 X13.8323 Y-9.1416
G1 X13.8841 Y-9.2033
G1 X13.9422 Y-9.2728
G1 X13.9583 Y-9.2921
G3 X13.9603 Y-9.2945 I2.3065 J1.9184
G2 X14.0803 Y-9.4399 I-15.8287 J-13.1936
G1 X14.3124 Y-9.7262
G1 X14.3866 Y-9.8191
G3 X14.3954 Y-9.8301 I2.3447 J1.8714
G3 X14.4029 Y-9.8397 I2.3629 J1.8484
G1 X14.5055 Y-9.9698
G1 X14.6178 Y-10.1137
G1 X14.6306 Y-10.1302
G1 X14.6748 Y-10.1874
G3 X14.6862 Y-10.2021 I2.3742 J1.8339
G2 X14.6894 Y-10.2062 I-0.2514 J-0.1967
G3 X14.7022 Y-10.223 I2.3924 J1.8101
G1 X14.7119 Y-10.2357
G1 X14.7527 Y-10.289
G1 X14.7787 Y-10.3231
G1 X14.8122 Y-10.3671
G1 X14.8756 Y-10.4512
G1 X15.703 Y-12.5847
G0 Z3.0
G0 X-3.3751 Y1.0556
G0 Z-16.4
G1 F40.0 Z-17.0
G1 F80.0 X-0.7498 Y0.5428
G2 X-0.0164 Y0.3047 I-56.5152 J-175.278
G3 X-0.0013 Y0.2998 I0.9326 J2.8514
G2 X0.2183 Y0.2256 I-2.3823 J-7.4162
G3 X0.2831 Y0.2035 I1.0021 J2.8277
G2 X0.3666 Y0.1745 I-0.8704 J-2.6466
G3 X0.4019 Y0.1619 I1.0271 J2.8187
G2 X1.6376 Y-0.3056 I-8.8293 J-25.2052
G3 X1.6496 Y-0.3104 I1.1306 J2.7788
G2 X2.4715 Y-0.6557 I-10.6066 J-26.3971
G3 X2.5214 Y-0.6771 I1.2052 J2.7473
G2 X2.5487 Y-0.6891 I-0.3097 J-0.7424
G3 X2.643 Y-0.7306 I1.2569 J2.724
G2 X2.6789 Y-0.7466 I-0.375 J-0.8922
G3 X2.7815 Y-0.7924 I1.2737 J2.7162
G2 X2.8272 Y-0.813 I-0.4383 J-1.0338
G3 X2.877 Y-0.8362 I1.2931 J2.707
G2 X4.0631 Y-1.4053 I-13.5911 J-29.846
G2 X5.0932 Y-1.951 I-17.1106 J-33.5484
G3 X5.1279 Y-1.9697 I1.4451 J2.629
G2 X5.188 Y-2.0032 I-0.8668 J-1.6272
G3 X5.2226 Y-2.023 I1.5082 J2.5933
G2 X6.3608 Y-2.6925 I-17.7557 J-31.486
G1 X6.7427 Y-2.9322
G1 X7.1182 Y-3.1754
G1 X7.3935 Y-3.3585
G1 X7.6712 Y-3.5476
G1 X7.8517 Y-3.6728
G1 X8.0326 Y-3.8003
G1 X8.2083 Y-3.9259
G1 X8.5719 Y-4.192
G1 X8.8267 Y-4.3832
G1 X9.0933 Y-4.5877
G2 X9.2406 Y-4.7027 I-7.2701 J-9.4627
G3 X9.2589 Y-4.7171 I1.8647 J2.35
G2 X9.5319 Y-4.9344 I-11.6979 J-14.9803
G1 X9.8364 Y-5.1827
G1 X9.9077 Y-5.2418
G1 X10.2348 Y-5.5173
G1 X10.5636 Y-5.8021
G2 X10.8684 Y-6.0736 I-13.1629 J-15.0848
G3 X10.8897 Y-6.0928 I2.0181 J2.2197
G2 X11.182 Y-6.3604 I-10.0184 J-11.2334
G3 X11.2089 Y-6.3854 I2.055 J2.1856
G2 X11.4897 Y-6.6496 I-10.263 J-11.1867
G1 X11.8155 Y-6.9647
G2 X12.3595 Y-7.5119 I-19.7844 J-20.2133
G1 X12.6292 Y-7.7934
G1 X12.7097 Y-7.8789
G1 X12.8291 Y-8.0067
G3 X12.8357 Y-8.0138 I2.1925 J2.0477
G2 X12.876 Y-8.0572 I-2.8978 J-2.7241
G3 X12.9023 Y-8.0858 I2.2162 J2.022
G2 X13.1701 Y-8.38 I-10.2513 J-9.5991
G3 X13.2054 Y-8.4192 I2.247 J1.9877
G3 X13.2149 Y-8.43 I2.2578 J1.9755
G1 X13.4673 Y-8.7157
G1 X13.5369 Y-8.7956
G1 X13.8323 Y-9.1416
G1 X13.8841 Y-9.2033
G1 X13.9422 Y-9.2728
G1 X13.9583 Y-9.2921
G3 X13.9603 Y-9.2945 I2.3065 J1.9184
G2 X14.0803 Y-9.4399 I-15.8287 J-13.1936
G1 X14.3124 Y-9.7262
G1 X14.3866 Y-9.8191
G3 X14.3954 Y-9.8301 I2.3447 J1.8714
G3 X14.4029 Y-9.8397 I2.3629 J1.8484
G1 X14.5055 Y-9.9698
G1 X14.6178 Y-10.1137
G1 X14.6306 Y-10.1302
G1 X14.6748 Y-10.1874
G3 X14.6862 Y-10.2021 I2.3742 J1.8339
G2 X14.6894 Y-10.2062 I-0.2514 J-0.1967
G3 X14.7022 Y-10.223 I2.3924 J1.8101
G1 X14.7119 Y-10.2357
G1 X14.7527 Y-10.289
G1 X14.7787 Y-10.3231
G1 X14.8122 Y-10.3671
G1 X14.8756 Y-10.4512
G1 X15.703 Y-12.5847
G0 Z3.0
G0 X-3.3751 Y1.0556
G0 Z-16.9
G1 F40.0 Z-17.5
G1 F80.0 X-0.7498 Y0.5428
G2 X-0.0164 Y0.3047 I-56.5152 J-175.278
G3 X-0.0013 Y0.2998 I0.9326 J2.8514
G2 X0.2183 Y0.2256 I-2.3823 J-7.4162
G3 X0.2831 Y0.2035 I1.0021 J2.8277
G2 X0.3666 Y0.1745 I-0.8704 J-2.6466
G3 X0.4019 Y0.1619 I1.0271 J2.8187
G2 X1.6376 Y-0.3056 I-8.8293 J-25.2052
G3 X1.6496 Y-0.3104 I1.1306 J2.7788
G2 X2.4715 Y-0.6557 I-10.6066 J-26.3971
G3 X2.5214 Y-0.6771 I1.2052 J2.7473
G2 X2.5487 Y-0.6891 I-0.3097 J-0.7424
G3 X2.643 Y-0.7306 I1.2569 J2.724
G2 X2.6789 Y-0.7466 I-0.375 J-0.8922
G3 X2.7815 Y-0.7924 I1.2737 J2.7162
G2 X2.8272 Y-0.813 I-0.4383 J-1.0338
G3 X2.877 Y-0.8362 I1.2931 J2.707
G2 X4.0631 Y-1.4053 I-13.5911 J-29.846
G2 X5.0932 Y-1.951 I-17.1106 J-33.5484
G3 X5.1279 Y-1.9697 I1.4451 J2.629
G2 X5.188 Y-2.0032 I-0.8668 J-1.6272
G3 X5.2226 Y-2.023 I1.5082 J2.5933
G2 X6.3608 Y-2.6925 I-17.7557 J-31.486
G1 X6.7427 Y-2.9322
G1 X7.1182 Y-3.1754
G1 X7.3935 Y-3.3585
G1 X7.6712 Y-3.5476
G1 X7.8517 Y-3.6728
G1 X8.0326 Y-3.8003
G1 X8.2083 Y-3.9259
G1 X8.5719 Y-4.192
G1 X8.8267 Y-4.3832
G1 X9.0933 Y-4.5877
G2 X9.2406 Y-4.7027 I-7.2701 J-9.4627
G3 X9.2589 Y-4.7171 I1.8647 J2.35
G2 X9.5319 Y-4.9344 I-11.6979 J-14.9803
G1 X9.8364 Y-5.1827
G1 X9.9077 Y-5.2418
G1 X10.2348 Y-5.5173
G1 X10.5636 Y-5.8021
G2 X10.8684 Y-6.0736 I-13.1629 J-15.0848
G3 X10.8897 Y-6.0928 I2.0181 J2.2197
G2 X11.182 Y-6.3604 I-10.0184 J-11.2334
G3 X11.2089 Y-6.3854 I2.055 J2.1856
G2 X11.4897 Y-6.6496 I-10.263 J-11.1867
G1 X11.8155 Y-6.9647
G2 X12.3595 Y-7.5119 I-19.7844 J-20.2133
G1 X12.6292 Y-7.7934
G1 X12.7097 Y-7.8789
G1 X12.8291 Y-8.0067
G3 X12.8357 Y-8.0138 I2.1925 J2.0477
G2 X12.876 Y-8.0572 I-2.8978 J-2.7241
G3 X12.9023 Y-8.0858 I2.2162 J2.022
G2 X13.1701 Y-8.38 I-10.2513 J-9.5991
G3 X13.2054 Y-8.4192 I2.247 J1.9877
G3 X13.2149 Y-8.43 I2.2578 J1.9755
G1 X13.4673 Y-8.7157
G1 X13.5369 Y-8.7956
G1 X13.8323 Y-9.1416
G1 X13.8841 Y-9.2033
G1 X13.9422 Y-9.2728
G1 X13.9583 Y-9.2921
G3 X13.9603 Y-9.2945 I2.3065 J1.9184
G2 X14.0803 Y-9.4399 I-15.8287 J-13.1936
G1 X14.3124 Y-9.7262
G1 X14.3866 Y-9.8191
G3 X14.3954 Y-9.8301 I2.3447 J1.8714
G3 X14.4029 Y-9.8397 I2.3629 J1.8484
G1 X14.5055 Y-9.9698
G1 X14.6178 Y-10.1137
G1 X14.6306 Y-10.1302
G1 X14.6748 Y-10.1874
G3 X14.6862 Y-10.2021 I2.3742 J1.8339
G2 X14.6894 Y-10.2062 I-0.2514 J-0.1967
G3 X14.7022 Y-10.223 I2.3924 J1.8101
G1 X14.7119 Y-10.2357
G1 X14.7527 Y-10.289
G1 X14.7787 Y-10.3231
G1 X14.8122 Y-10.3671
G1 X14.8756 Y-10.4512
G1 X15.703 Y-12.5847
G0 Z3.0
G0 X-3.3751 Y1.0556
G0 Z-17.4
G1 F40.0 Z-18.0
G1 F80.0 X-0.7498 Y0.5428
G2 X-0.0164 Y0.3047 I-56.5152 J-175.278
G3 X-0.0013 Y0.2998 I0.9326 J2.8514
G2 X0.2183 Y0.2256 I-2.3823 J-7.4162
G3 X0.2831 Y0.2035 I1.0021 J2.8277
G2 X0.3666 Y0.1745 I-0.8704 J-2.6466
G3 X0.4019 Y0.1619 I1.0271 J2.8187
G2 X1.6376 Y-0.3056 I-8.8293 J-25.2052
G3 X1.6496 Y-0.3104 I1.1306 J2.7788
G2 X2.4715 Y-0.6557 I-10.6066 J-26.3971
G3 X2.5214 Y-0.6771 I1.2052 J2.7473
G2 X2.5487 Y-0.6891 I-0.3097 J-0.7424
G3 X2.643 Y-0.7306 I1.2569 J2.724
G2 X2.6789 Y-0.7466 I-0.375 J-0.8922
G3 X2.7815 Y-0.7924 I1.2737 J2.7162
G2 X2.8272 Y-0.813 I-0.4383 J-1.0338
G3 X2.877 Y-0.8362 I1.2931 J2.707
G2 X4.0631 Y-1.4053 I-13.5911 J-29.846
G2 X5.0932 Y-1.951 I-17.1106 J-33.5484
G3 X5.1279 Y-1.9697 I1.4451 J2.629
G2 X5.188 Y-2.0032 I-0.8668 J-1.6272
G3 X5.2226 Y-2.023 I1.5082 J2.5933
G2 X6.3608 Y-2.6925 I-17.7557 J-31.486
G1 X6.7427 Y-2.9322
G1 X7.1182 Y-3.1754
G1 X7.3935 Y-3.3585
G1 X7.6712 Y-3.5476
G1 X7.8517 Y-3.6728
G1 X8.0326 Y-3.8003
G1 X8.2083 Y-3.9259
G1 X8.5719 Y-4.192
G1 X8.8267 Y-4.3832
G1 X9.0933 Y-4.5877
G2 X9.2406 Y-4.7027 I-7.2701 J-9.4627
G3 X9.2589 Y-4.7171 I1.8647 J2.35
G2 X9.5319 Y-4.9344 I-11.6979 J-14.9803
G1 X9.8364 Y-5.1827
G1 X9.9077 Y-5.2418
G1 X10.2348 Y-5.5173
G1 X10.5636 Y-5.8021
G2 X10.8684 Y-6.0736 I-13.1629 J-15.0848
G3 X10.8897 Y-6.0928 I2.0181 J2.2197
G2 X11.182 Y-6.3604 I-10.0184 J-11.2334
G3 X11.2089 Y-6.3854 I2.055 J2.1856
G2 X11.4897 Y-6.6496 I-10.263 J-11.1867
G1 X11.8155 Y-6.9647
G2 X12.3595 Y-7.5119 I-19.7844 J-20.2133
G1 X12.6292 Y-7.7934
G1 X12.7097 Y-7.8789
G1 X12.8291 Y-8.0067
G3 X12.8357 Y-8.0138 I2.1925 J2.0477
G2 X12.876 Y-8.0572 I-2.8978 J-2.7241
G3 X12.9023 Y-8.0858 I2.2162 J2.022
G2 X13.1701 Y-8.38 I-10.2513 J-9.5991
G3 X13.2054 Y-8.4192 I2.247 J1.9877
G3 X13.2149 Y-8.43 I2.2578 J1.9755
G1 X13.4673 Y-8.7157
G1 X13.5369 Y-8.7956
G1 X13.8323 Y-9.1416
G1 X13.8841 Y-9.2033
G1 X13.9422 Y-9.2728
G1 X13.9583 Y-9.2921
G3 X13.9603 Y-9.2945 I2.3065 J1.9184
G2 X14.0803 Y-9.4399 I-15.8287 J-13.1936
G1 X14.3124 Y-9.7262
G1 X14.3866 Y-9.8191
G3 X14.3954 Y-9.8301 I2.3447 J1.8714
G3 X14.4029 Y-9.8397 I2.3629 J1.8484
G1 X14.5055 Y-9.9698
G1 X14.6178 Y-10.1137
G1 X14.6306 Y-10.1302
G1 X14.6748 Y-10.1874
G3 X14.6862 Y-10.2021 I2.3742 J1.8339
G2 X14.6894 Y-10.2062 I-0.2514 J-0.1967
G3 X14.7022 Y-10.223 I2.3924 J1.8101
G1 X14.7119 Y-10.2357
G1 X14.7527 Y-10.289
G1 X14.7787 Y-10.3231
G1 X14.8122 Y-10.3671
G1 X14.8756 Y-10.4512
G1 X15.703 Y-12.5847
G0 Z3.0
G0 X-3.3751 Y1.0556
G0 Z-17.9
G1 F40.0 Z-18.5
G1 F80.0 X-0.7498 Y0.5428
G2 X-0.0164 Y0.3047 I-56.5152 J-175.278
G3 X-0.0013 Y0.2998 I0.9326 J2.8514
G2 X0.2183 Y0.2256 I-2.3823 J-7.4162
G3 X0.2831 Y0.2035 I1.0021 J2.8277
G2 X0.3666 Y0.1745 I-0.8704 J-2.6466
G3 X0.4019 Y0.1619 I1.0271 J2.8187
G2 X1.6376 Y-0.3056 I-8.8293 J-25.2052
G3 X1.6496 Y-0.3104 I1.1306 J2.7788
G2 X2.4715 Y-0.6557 I-10.6066 J-26.3971
G3 X2.5214 Y-0.6771 I1.2052 J2.7473
G2 X2.5487 Y-0.6891 I-0.3097 J-0.7424
G3 X2.643 Y-0.7306 I1.2569 J2.724
G2 X2.6789 Y-0.7466 I-0.375 J-0.8922
G3 X2.7815 Y-0.7924 I1.2737 J2.7162
G2 X2.8272 Y-0.813 I-0.4383 J-1.0338
G3 X2.877 Y-0.8362 I1.2931 J2.707
G2 X4.0631 Y-1.4053 I-13.5911 J-29.846
G2 X5.0932 Y-1.951 I-17.1106 J-33.5484
G3 X5.1279 Y-1.9697 I1.4451 J2.629
G2 X5.188 Y-2.0032 I-0.8668 J-1.6272
G3 X5.2226 Y-2.023 I1.5082 J2.5933
G2 X6.3608 Y-2.6925 I-17.7557 J-31.486
G1 X6.7427 Y-2.9322
G1 X7.1182 Y-3.1754
G1 X7.3935 Y-3.3585
G1 X7.6712 Y-3.5476
G1 X7.8517 Y-3.6728
G1 X8.0326 Y-3.8003
G1 X8.2083 Y-3.9259
G1 X8.5719 Y-4.192
G1 X8.8267 Y-4.3832
G1 X9.0933 Y-4.5877
G2 X9.2406 Y-4.7027 I-7.2701 J-9.4627
G3 X9.2589 Y-4.7171 I1.8647 J2.35
G2 X9.5319 Y-4.9344 I-11.6979 J-14.9803
G1 X9.8364 Y-5.1827
G1 X9.9077 Y-5.2418
G1 X10.2348 Y-5.5173
G1 X10.5636 Y-5.8021
G2 X10.8684 Y-6.0736 I-13.1629 J-15.0848
G3 X10.8897 Y-6.0928 I2.0181 J2.2197
G2 X11.182 Y-6.3604 I-10.0184 J-11.2334
G3 X11.2089 Y-6.3854 I2.055 J2.1856
G2 X11.4897 Y-6.6496 I-10.263 J-11.1867
G1 X11.8155 Y-6.9647
G2 X12.3595 Y-7.5119 I-19.7844 J-20.2133
G1 X12.6292 Y-7.7934
G1 X12.7097 Y-7.8789
G1 X12.8291 Y-8.0067
G3 X12.8357 Y-8.0138 I2.1925 J2.0477
G2 X12.876 Y-8.0572 I-2.8978 J-2.7241
G3 X12.9023 Y-8.0858 I2.2162 J2.022
G2 X13.1701 Y-8.38 I-10.2513 J-9.5991
G3 X13.2054 Y-8.4192 I2.247 J1.9877
G3 X13.2149 Y-8.43 I2.2578 J1.9755
G1 X13.4673 Y-8.7157
G1 X13.5369 Y-8.7956
G1 X13.8323 Y-9.1416
G1 X13.8841 Y-9.2033
G1 X13.9422 Y-9.2728
G1 X13.9583 Y-9.2921
G3 X13.9603 Y-9.2945 I2.3065 J1.9184
G2 X14.0803 Y-9.4399 I-15.8287 J-13.1936
G1 X14.3124 Y-9.7262
G1 X14.3866 Y-9.8191
G3 X14.3954 Y-9.8301 I2.3447 J1.8714
G3 X14.4029 Y-9.8397 I2.3629 J1.8484
G1 X14.5055 Y-9.9698
G1 X14.6178 Y-10.1137
G1 X14.6306 Y-10.1302
G1 X14.6748 Y-10.1874
G3 X14.6862 Y-10.2021 I2.3742 J1.8339
G2 X14.6894 Y-10.2062 I-0.2514 J-0.1967
G3 X14.7022 Y-10.223 I2.3924 J1.8101
G1 X14.7119 Y-10.2357
G1 X14.7527 Y-10.289
G1 X14.7787 Y-10.3231
G1 X14.8122 Y-10.3671
G1 X14.8756 Y-10.4512
G1 X15.703 Y-12.5847
G0 Z3.0
M5
M30
