( Made using CamBam - http://www.cambam.co.uk )
( bottom 3/21/2018 11:01:07 AM )
( T5 : 5.0 )
( T6 : 6.0 )
G21 G90 G64 G40
G0 Z3.0
( T6 : 6.0 )
T6 M6
( Profile1 )
G17
M3 S1000
G0 X-30.5062 Y64.2987
G0 Z0.1
G1 F100.0 Z0.0
G2 F200.0 X-28.8483 Y60.8269 Z-1.4025 I-17.1351 J-10.3144
G1 X-29.1157 Y60.8436 Z-1.5
G3 X-33.3166 Y56.2314 I-0.2492 J-3.9922
G2 X-33.7072 Y49.9733 I-14.3248 J-2.2472
G3 X-30.1124 Y44.8746 I3.8439 J-1.1065
G1 X-29.845 Y44.8579
G2 X-40.7988 Y35.1912 I-17.7964 J9.1263
G1 X-40.7821 Y35.4586
G3 X-45.3942 Y39.6594 I-3.9922 J0.2492
G2 X-51.6523 Y40.05 I-2.2472 J14.3248
G3 X-56.751 Y36.4553 I-1.1065 J-3.8439
G1 X-56.7677 Y36.1879
G2 X-66.4344 Y47.1416 I9.1263 J17.7964
G1 X-66.167 Y47.1249
G3 X-61.9662 Y51.7371 I0.2492 J3.9922
G2 X-61.5756 Y57.9952 I14.3248 J2.2472
G3 X-65.1704 Y63.0939 I-3.8439 J1.1065
G1 X-65.4377 Y63.1106
G2 X-54.484 Y72.7773 I17.7964 J-9.1263
G1 X-54.5007 Y72.5099
G3 X-49.8885 Y68.3091 I3.9922 J-0.2492
G2 X-43.6305 Y67.9185 I2.2472 J-14.3248
G3 X-38.5318 Y71.5132 I1.1065 J3.8439
G1 X-38.5151 Y71.7806
G2 X-28.8483 Y60.8269 I-9.1263 J-17.7964
G1 X-29.1157 Y60.8436
G1 F100.0 X-30.5062 Y64.2987
G2 F200.0 X-28.8483 Y60.8269 Z-2.9025 I-17.1351 J-10.3144
G1 X-29.1157 Y60.8436 Z-3.0
G3 X-33.3166 Y56.2314 I-0.2492 J-3.9922
G2 X-33.7072 Y49.9733 I-14.3248 J-2.2472
G3 X-30.1124 Y44.8746 I3.8439 J-1.1065
G1 X-29.845 Y44.8579
G2 X-40.7988 Y35.1912 I-17.7964 J9.1263
G1 X-40.7821 Y35.4586
G3 X-45.3942 Y39.6594 I-3.9922 J0.2492
G2 X-51.6523 Y40.05 I-2.2472 J14.3248
G3 X-56.751 Y36.4553 I-1.1065 J-3.8439
G1 X-56.7677 Y36.1879
G2 X-66.4344 Y47.1416 I9.1263 J17.7964
G1 X-66.167 Y47.1249
G3 X-61.9662 Y51.7371 I0.2492 J3.9922
G2 X-61.5756 Y57.9952 I14.3248 J2.2472
G3 X-65.1704 Y63.0939 I-3.8439 J1.1065
G1 X-65.4377 Y63.1106
G2 X-54.484 Y72.7773 I17.7964 J-9.1263
G1 X-54.5007 Y72.5099
G3 X-49.8885 Y68.3091 I3.9922 J-0.2492
G2 X-43.6305 Y67.9185 I2.2472 J-14.3248
G3 X-38.5318 Y71.5132 I1.1065 J3.8439
G1 X-38.5151 Y71.7806
G2 X-28.8483 Y60.8269 I-9.1263 J-17.7964
G1 X-29.1157 Y60.8436
G1 F100.0 X-30.5062 Y64.2987
G2 F200.0 X-28.8483 Y60.8269 Z-4.4025 I-17.1351 J-10.3144
G1 X-29.1157 Y60.8436 Z-4.5
G3 X-33.3166 Y56.2314 I-0.2492 J-3.9922
G2 X-33.7072 Y49.9733 I-14.3248 J-2.2472
G3 X-30.1124 Y44.8746 I3.8439 J-1.1065
G1 X-29.845 Y44.8579
G2 X-40.7988 Y35.1912 I-17.7964 J9.1263
G1 X-40.7821 Y35.4586
G3 X-45.3942 Y39.6594 I-3.9922 J0.2492
G2 X-51.6523 Y40.05 I-2.2472 J14.3248
G3 X-56.751 Y36.4553 I-1.1065 J-3.8439
G1 X-56.7677 Y36.1879
G2 X-66.4344 Y47.1416 I9.1263 J17.7964
G1 X-66.167 Y47.1249
G3 X-61.9662 Y51.7371 I0.2492 J3.9922
G2 X-61.5756 Y57.9952 I14.3248 J2.2472
G3 X-65.1704 Y63.0939 I-3.8439 J1.1065
G1 X-65.4377 Y63.1106
G2 X-54.484 Y72.7773 I17.7964 J-9.1263
G1 X-54.5007 Y72.5099
G3 X-49.8885 Y68.3091 I3.9922 J-0.2492
G2 X-43.6305 Y67.9185 I2.2472 J-14.3248
G3 X-38.5318 Y71.5132 I1.1065 J3.8439
G1 X-38.5151 Y71.7806
G2 X-28.8483 Y60.8269 I-9.1263 J-17.7964
G1 X-29.1157 Y60.8436
G1 F100.0 X-30.5062 Y64.2987
G2 F200.0 X-28.8483 Y60.8269 Z-5.9025 I-17.1351 J-10.3144
G1 X-29.1157 Y60.8436 Z-6.0
G3 X-33.3166 Y56.2314 I-0.2492 J-3.9922
G2 X-33.7072 Y49.9733 I-14.3248 J-2.2472
G3 X-30.1124 Y44.8746 I3.8439 J-1.1065
G1 X-29.845 Y44.8579
G2 X-40.7988 Y35.1912 I-17.7964 J9.1263
G1 X-40.7821 Y35.4586
G3 X-45.3942 Y39.6594 I-3.9922 J0.2492
G2 X-51.6523 Y40.05 I-2.2472 J14.3248
G3 X-56.751 Y36.4553 I-1.1065 J-3.8439
G1 X-56.7677 Y36.1879
G2 X-66.4344 Y47.1416 I9.1263 J17.7964
G1 X-66.167 Y47.1249
G3 X-61.9662 Y51.7371 I0.2492 J3.9922
G2 X-61.5756 Y57.9952 I14.3248 J2.2472
G3 X-65.1704 Y63.0939 I-3.8439 J1.1065
G1 X-65.4377 Y63.1106
G2 X-54.484 Y72.7773 I17.7964 J-9.1263
G1 X-54.5007 Y72.5099
G3 X-49.8885 Y68.3091 I3.9922 J-0.2492
G2 X-43.6305 Y67.9185 I2.2472 J-14.3248
G3 X-38.5318 Y71.5132 I1.1065 J3.8439
G1 X-38.5151 Y71.7806
G2 X-28.8483 Y60.8269 I-9.1263 J-17.7964
G1 X-29.1157 Y60.8436
G1 F100.0 X-30.5062 Y64.2987
G2 F200.0 X-28.8483 Y60.8269 Z-7.4025 I-17.1351 J-10.3144
G1 X-29.1157 Y60.8436 Z-7.5
G3 X-33.3166 Y56.2314 I-0.2492 J-3.9922
G2 X-33.7072 Y49.9733 I-14.3248 J-2.2472
G3 X-30.1124 Y44.8746 I3.8439 J-1.1065
G1 X-29.845 Y44.8579
G2 X-40.7988 Y35.1912 I-17.7964 J9.1263
G1 X-40.7821 Y35.4586
G3 X-45.3942 Y39.6594 I-3.9922 J0.2492
G2 X-51.6523 Y40.05 I-2.2472 J14.3248
G3 X-56.751 Y36.4553 I-1.1065 J-3.8439
G1 X-56.7677 Y36.1879
G2 X-66.4344 Y47.1416 I9.1263 J17.7964
G1 X-66.167 Y47.1249
G3 X-61.9662 Y51.7371 I0.2492 J3.9922
G2 X-61.5756 Y57.9952 I14.3248 J2.2472
G3 X-65.1704 Y63.0939 I-3.8439 J1.1065
G1 X-65.4377 Y63.1106
G2 X-54.484 Y72.7773 I17.7964 J-9.1263
G1 X-54.5007 Y72.5099
G3 X-49.8885 Y68.3091 I3.9922 J-0.2492
G2 X-43.6305 Y67.9185 I2.2472 J-14.3248
G3 X-38.5318 Y71.5132 I1.1065 J3.8439
G1 X-38.5151 Y71.7806
G2 X-28.8483 Y60.8269 I-9.1263 J-17.7964
G1 X-29.1157 Y60.8436
G1 F100.0 X-30.5062 Y64.2987
G2 F200.0 X-28.8483 Y60.8269 Z-8.9025 I-17.1351 J-10.3144
G1 X-29.1157 Y60.8436 Z-9.0
G3 X-33.3166 Y56.2314 I-0.2492 J-3.9922
G2 X-33.7072 Y49.9733 I-14.3248 J-2.2472
G3 X-30.1124 Y44.8746 I3.8439 J-1.1065
G1 X-29.845 Y44.8579
G2 X-40.7988 Y35.1912 I-17.7964 J9.1263
G1 X-40.7821 Y35.4586
G3 X-45.3942 Y39.6594 I-3.9922 J0.2492
G2 X-51.6523 Y40.05 I-2.2472 J14.3248
G3 X-56.751 Y36.4553 I-1.1065 J-3.8439
G1 X-56.7677 Y36.1879
G2 X-66.4344 Y47.1416 I9.1263 J17.7964
G1 X-66.167 Y47.1249
G3 X-61.9662 Y51.7371 I0.2492 J3.9922
G2 X-61.5756 Y57.9952 I14.3248 J2.2472
G3 X-65.1704 Y63.0939 I-3.8439 J1.1065
G1 X-65.4377 Y63.1106
G2 X-54.484 Y72.7773 I17.7964 J-9.1263
G1 X-54.5007 Y72.5099
G3 X-49.8885 Y68.3091 I3.9922 J-0.2492
G2 X-43.6305 Y67.9185 I2.2472 J-14.3248
G3 X-38.5318 Y71.5132 I1.1065 J3.8439
G1 X-38.5151 Y71.7806
G2 X-28.8483 Y60.8269 I-9.1263 J-17.7964
G1 X-29.1157 Y60.8436
G1 F100.0 X-30.5062 Y64.2987
G2 F200.0 X-28.8483 Y60.8269 Z-10.4025 I-17.1351 J-10.3144
G1 X-29.1157 Y60.8436 Z-10.5
G3 X-33.3166 Y56.2314 I-0.2492 J-3.9922
G2 X-33.7072 Y49.9733 I-14.3248 J-2.2472
G3 X-30.1124 Y44.8746 I3.8439 J-1.1065
G1 X-29.845 Y44.8579
G2 X-40.7988 Y35.1912 I-17.7964 J9.1263
G1 X-40.7821 Y35.4586
G3 X-45.3942 Y39.6594 I-3.9922 J0.2492
G2 X-51.6523 Y40.05 I-2.2472 J14.3248
G3 X-56.751 Y36.4553 I-1.1065 J-3.8439
G1 X-56.7677 Y36.1879
G2 X-66.4344 Y47.1416 I9.1263 J17.7964
G1 X-66.167 Y47.1249
G3 X-61.9662 Y51.7371 I0.2492 J3.9922
G2 X-61.5756 Y57.9952 I14.3248 J2.2472
G3 X-65.1704 Y63.0939 I-3.8439 J1.1065
G1 X-65.4377 Y63.1106
G2 X-54.484 Y72.7773 I17.7964 J-9.1263
G1 X-54.5007 Y72.5099
G3 X-49.8885 Y68.3091 I3.9922 J-0.2492
G2 X-43.6305 Y67.9185 I2.2472 J-14.3248
G3 X-38.5318 Y71.5132 I1.1065 J3.8439
G1 X-38.5151 Y71.7806
G2 X-28.8483 Y60.8269 I-9.1263 J-17.7964
G1 X-29.1157 Y60.8436
G1 F100.0 X-29.8387 Y63.0983
G2 F200.0 X-28.8483 Y60.8269 Z-11.4025 I-17.8026 J-9.1141
G1 X-29.1157 Y60.8436 Z-11.5
G3 X-33.3166 Y56.2314 I-0.2492 J-3.9922
G2 X-33.7072 Y49.9733 I-14.3248 J-2.2472
G3 X-30.1124 Y44.8746 I3.8439 J-1.1065
G1 X-29.845 Y44.8579
G2 X-40.7988 Y35.1912 I-17.7964 J9.1263
G1 X-40.7821 Y35.4586
G3 X-45.3942 Y39.6594 I-3.9922 J0.2492
G2 X-51.6523 Y40.05 I-2.2472 J14.3248
G3 X-56.751 Y36.4553 I-1.1065 J-3.8439
G1 X-56.7677 Y36.1879
G2 X-66.4344 Y47.1416 I9.1263 J17.7964
G1 X-66.167 Y47.1249
G3 X-61.9662 Y51.7371 I0.2492 J3.9922
G2 X-61.5756 Y57.9952 I14.3248 J2.2472
G3 X-65.1704 Y63.0939 I-3.8439 J1.1065
G1 X-65.4377 Y63.1106
G2 X-54.484 Y72.7773 I17.7964 J-9.1263
G1 X-54.5007 Y72.5099
G3 X-49.8885 Y68.3091 I3.9922 J-0.2492
G2 X-43.6305 Y67.9185 I2.2472 J-14.3248
G3 X-38.5318 Y71.5132 I1.1065 J3.8439
G1 X-38.5151 Y71.7806
G2 X-28.8483 Y60.8269 I-9.1263 J-17.7964
G1 X-29.1157 Y60.8436
G0 Z3.0
G0 X-15.0497 Y66.0183
G0 Z0.1
G1 F100.0 Z0.0
G3 F200.0 X-18.4289 Y64.8848 Z-1.3445 I-0.5507 J-3.9619
G1 X-18.6183 Y64.6954 Z-1.442
G2 X-18.6759 Y64.8438 Z-1.5 I18.6183 J7.3046
G2 X-18.6183 Y79.3046 I18.6759 J7.1562
G1 X-18.4289 Y79.1152
G3 X-12.2274 Y79.7936 I2.8284 J2.8284
G2 X-7.7936 Y84.2274 I12.2274 J-7.7936
G3 X-7.1152 Y90.4289 I-2.15 J3.3731
G1 X-7.3046 Y90.6183
G2 X7.3046 I7.3046 J-18.6183
G1 X7.1152 Y90.4289
G3 X7.7936 Y84.2274 I2.8284 J-2.8284
G2 X12.2274 Y79.7936 I-7.7936 J-12.2274
G3 X18.4289 Y79.1152 I3.3731 J2.15
G1 X18.6183 Y79.3046
G2 Y64.6954 I-18.6183 J-7.3046
G1 X18.4289 Y64.8848
G3 X12.2274 Y64.2064 I-2.8284 J-2.8284
G2 X7.7936 Y59.7726 I-12.2274 J7.7936
G3 X7.1152 Y53.5711 I2.15 J-3.3731
G1 X7.3046 Y53.3817
G2 X-7.3046 I-7.3046 J18.6183
G1 X-7.1152 Y53.5711
G3 X-7.7936 Y59.7726 I-2.8284 J2.8284
G2 X-12.2274 Y64.2064 I7.7936 J12.2274
G3 X-18.4289 Y64.8848 I-3.3731 J-2.15
G1 X-18.6183 Y64.6954
G2 X-18.6759 Y64.8438 I18.6183 J7.3046
G1 F100.0 X-15.0497 Y66.0183
G3 F200.0 X-18.4289 Y64.8848 Z-2.8445 I-0.5507 J-3.9619
G1 X-18.6183 Y64.6954 Z-2.942
G2 X-18.6759 Y64.8438 Z-3.0 I18.6183 J7.3046
G2 X-18.6183 Y79.3046 I18.6759 J7.1562
G1 X-18.4289 Y79.1152
G3 X-12.2274 Y79.7936 I2.8284 J2.8284
G2 X-7.7936 Y84.2274 I12.2274 J-7.7936
G3 X-7.1152 Y90.4289 I-2.15 J3.3731
G1 X-7.3046 Y90.6183
G2 X7.3046 I7.3046 J-18.6183
G1 X7.1152 Y90.4289
G3 X7.7936 Y84.2274 I2.8284 J-2.8284
G2 X12.2274 Y79.7936 I-7.7936 J-12.2274
G3 X18.4289 Y79.1152 I3.3731 J2.15
G1 X18.6183 Y79.3046
G2 Y64.6954 I-18.6183 J-7.3046
G1 X18.4289 Y64.8848
G3 X12.2274 Y64.2064 I-2.8284 J-2.8284
G2 X7.7936 Y59.7726 I-12.2274 J7.7936
G3 X7.1152 Y53.5711 I2.15 J-3.3731
G1 X7.3046 Y53.3817
G2 X-7.3046 I-7.3046 J18.6183
G1 X-7.1152 Y53.5711
G3 X-7.7936 Y59.7726 I-2.8284 J2.8284
G2 X-12.2274 Y64.2064 I7.7936 J12.2274
G3 X-18.4289 Y64.8848 I-3.3731 J-2.15
G1 X-18.6183 Y64.6954
G2 X-18.6759 Y64.8438 I18.6183 J7.3046
G1 F100.0 X-15.0497 Y66.0183
G3 F200.0 X-18.4289 Y64.8848 Z-4.3445 I-0.5507 J-3.9619
G1 X-18.6183 Y64.6954 Z-4.442
G2 X-18.6759 Y64.8438 Z-4.5 I18.6183 J7.3046
G2 X-18.6183 Y79.3046 I18.6759 J7.1562
G1 X-18.4289 Y79.1152
G3 X-12.2274 Y79.7936 I2.8284 J2.8284
G2 X-7.7936 Y84.2274 I12.2274 J-7.7936
G3 X-7.1152 Y90.4289 I-2.15 J3.3731
G1 X-7.3046 Y90.6183
G2 X7.3046 I7.3046 J-18.6183
G1 X7.1152 Y90.4289
G3 X7.7936 Y84.2274 I2.8284 J-2.8284
G2 X12.2274 Y79.7936 I-7.7936 J-12.2274
G3 X18.4289 Y79.1152 I3.3731 J2.15
G1 X18.6183 Y79.3046
G2 Y64.6954 I-18.6183 J-7.3046
G1 X18.4289 Y64.8848
G3 X12.2274 Y64.2064 I-2.8284 J-2.8284
G2 X7.7936 Y59.7726 I-12.2274 J7.7936
G3 X7.1152 Y53.5711 I2.15 J-3.3731
G1 X7.3046 Y53.3817
G2 X-7.3046 I-7.3046 J18.6183
G1 X-7.1152 Y53.5711
G3 X-7.7936 Y59.7726 I-2.8284 J2.8284
G2 X-12.2274 Y64.2064 I7.7936 J12.2274
G3 X-18.4289 Y64.8848 I-3.3731 J-2.15
G1 X-18.6183 Y64.6954
G2 X-18.6759 Y64.8438 I18.6183 J7.3046
G1 F100.0 X-15.0497 Y66.0183
G3 F200.0 X-18.4289 Y64.8848 Z-5.8445 I-0.5507 J-3.9619
G1 X-18.6183 Y64.6954 Z-5.942
G2 X-18.6759 Y64.8438 Z-6.0 I18.6183 J7.3046
G2 X-18.6183 Y79.3046 I18.6759 J7.1562
G1 X-18.4289 Y79.1152
G3 X-12.2274 Y79.7936 I2.8284 J2.8284
G2 X-7.7936 Y84.2274 I12.2274 J-7.7936
G3 X-7.1152 Y90.4289 I-2.15 J3.3731
G1 X-7.3046 Y90.6183
G2 X7.3046 I7.3046 J-18.6183
G1 X7.1152 Y90.4289
G3 X7.7936 Y84.2274 I2.8284 J-2.8284
G2 X12.2274 Y79.7936 I-7.7936 J-12.2274
G3 X18.4289 Y79.1152 I3.3731 J2.15
G1 X18.6183 Y79.3046
G2 Y64.6954 I-18.6183 J-7.3046
G1 X18.4289 Y64.8848
G3 X12.2274 Y64.2064 I-2.8284 J-2.8284
G2 X7.7936 Y59.7726 I-12.2274 J7.7936
G3 X7.1152 Y53.5711 I2.15 J-3.3731
G1 X7.3046 Y53.3817
G2 X-7.3046 I-7.3046 J18.6183
G1 X-7.1152 Y53.5711
G3 X-7.7936 Y59.7726 I-2.8284 J2.8284
G2 X-12.2274 Y64.2064 I7.7936 J12.2274
G3 X-18.4289 Y64.8848 I-3.3731 J-2.15
G1 X-18.6183 Y64.6954
G2 X-18.6759 Y64.8438 I18.6183 J7.3046
G1 F100.0 X-15.0497 Y66.0183
G3 F200.0 X-18.4289 Y64.8848 Z-7.3445 I-0.5507 J-3.9619
G1 X-18.6183 Y64.6954 Z-7.442
G2 X-18.6759 Y64.8438 Z-7.5 I18.6183 J7.3046
G2 X-18.6183 Y79.3046 I18.6759 J7.1562
G1 X-18.4289 Y79.1152
G3 X-12.2274 Y79.7936 I2.8284 J2.8284
G2 X-7.7936 Y84.2274 I12.2274 J-7.7936
G3 X-7.1152 Y90.4289 I-2.15 J3.3731
G1 X-7.3046 Y90.6183
G2 X7.3046 I7.3046 J-18.6183
G1 X7.1152 Y90.4289
G3 X7.7936 Y84.2274 I2.8284 J-2.8284
G2 X12.2274 Y79.7936 I-7.7936 J-12.2274
G3 X18.4289 Y79.1152 I3.3731 J2.15
G1 X18.6183 Y79.3046
G2 Y64.6954 I-18.6183 J-7.3046
G1 X18.4289 Y64.8848
G3 X12.2274 Y64.2064 I-2.8284 J-2.8284
G2 X7.7936 Y59.7726 I-12.2274 J7.7936
G3 X7.1152 Y53.5711 I2.15 J-3.3731
G1 X7.3046 Y53.3817
G2 X-7.3046 I-7.3046 J18.6183
G1 X-7.1152 Y53.5711
G3 X-7.7936 Y59.7726 I-2.8284 J2.8284
G2 X-12.2274 Y64.2064 I7.7936 J12.2274
G3 X-18.4289 Y64.8848 I-3.3731 J-2.15
G1 X-18.6183 Y64.6954
G2 X-18.6759 Y64.8438 I18.6183 J7.3046
G1 F100.0 X-15.0497 Y66.0183
G3 F200.0 X-18.4289 Y64.8848 Z-8.8445 I-0.5507 J-3.9619
G1 X-18.6183 Y64.6954 Z-8.942
G2 X-18.6759 Y64.8438 Z-9.0 I18.6183 J7.3046
G2 X-18.6183 Y79.3046 I18.6759 J7.1562
G1 X-18.4289 Y79.1152
G3 X-12.2274 Y79.7936 I2.8284 J2.8284
G2 X-7.7936 Y84.2274 I12.2274 J-7.7936
G3 X-7.1152 Y90.4289 I-2.15 J3.3731
G1 X-7.3046 Y90.6183
G2 X7.3046 I7.3046 J-18.6183
G1 X7.1152 Y90.4289
G3 X7.7936 Y84.2274 I2.8284 J-2.8284
G2 X12.2274 Y79.7936 I-7.7936 J-12.2274
G3 X18.4289 Y79.1152 I3.3731 J2.15
G1 X18.6183 Y79.3046
G2 Y64.6954 I-18.6183 J-7.3046
G1 X18.4289 Y64.8848
G3 X12.2274 Y64.2064 I-2.8284 J-2.8284
G2 X7.7936 Y59.7726 I-12.2274 J7.7936
G3 X7.1152 Y53.5711 I2.15 J-3.3731
G1 X7.3046 Y53.3817
G2 X-7.3046 I-7.3046 J18.6183
G1 X-7.1152 Y53.5711
G3 X-7.7936 Y59.7726 I-2.8284 J2.8284
G2 X-12.2274 Y64.2064 I7.7936 J12.2274
G3 X-18.4289 Y64.8848 I-3.3731 J-2.15
G1 X-18.6183 Y64.6954
G2 X-18.6759 Y64.8438 I18.6183 J7.3046
G1 F100.0 X-15.0497 Y66.0183
G3 F200.0 X-18.4289 Y64.8848 Z-10.3445 I-0.5507 J-3.9619
G1 X-18.6183 Y64.6954 Z-10.442
G2 X-18.6759 Y64.8438 Z-10.5 I18.6183 J7.3046
G2 X-18.6183 Y79.3046 I18.6759 J7.1562
G1 X-18.4289 Y79.1152
G3 X-12.2274 Y79.7936 I2.8284 J2.8284
G2 X-7.7936 Y84.2274 I12.2274 J-7.7936
G3 X-7.1152 Y90.4289 I-2.15 J3.3731
G1 X-7.3046 Y90.6183
G2 X7.3046 I7.3046 J-18.6183
G1 X7.1152 Y90.4289
G3 X7.7936 Y84.2274 I2.8284 J-2.8284
G2 X12.2274 Y79.7936 I-7.7936 J-12.2274
G3 X18.4289 Y79.1152 I3.3731 J2.15
G1 X18.6183 Y79.3046
G2 Y64.6954 I-18.6183 J-7.3046
G1 X18.4289 Y64.8848
G3 X12.2274 Y64.2064 I-2.8284 J-2.8284
G2 X7.7936 Y59.7726 I-12.2274 J7.7936
G3 X7.1152 Y53.5711 I2.15 J-3.3731
G1 X7.3046 Y53.3817
G2 X-7.3046 I-7.3046 J18.6183
G1 X-7.1152 Y53.5711
G3 X-7.7936 Y59.7726 I-2.8284 J2.8284
G2 X-12.2274 Y64.2064 I7.7936 J12.2274
G3 X-18.4289 Y64.8848 I-3.3731 J-2.15
G1 X-18.6183 Y64.6954
G2 X-18.6759 Y64.8438 I18.6183 J7.3046
G1 F100.0 X-16.416 Y65.9724
G3 F200.0 X-18.4289 Y64.8848 Z-11.3445 I0.8155 J-3.916
G1 X-18.6183 Y64.6954 Z-11.442
G2 X-18.6759 Y64.8438 Z-11.5 I18.6183 J7.3046
G2 X-18.6183 Y79.3046 I18.6759 J7.1562
G1 X-18.4289 Y79.1152
G3 X-12.2274 Y79.7936 I2.8284 J2.8284
G2 X-7.7936 Y84.2274 I12.2274 J-7.7936
G3 X-7.1152 Y90.4289 I-2.15 J3.3731
G1 X-7.3046 Y90.6183
G2 X7.3046 I7.3046 J-18.6183
G1 X7.1152 Y90.4289
G3 X7.7936 Y84.2274 I2.8284 J-2.8284
G2 X12.2274 Y79.7936 I-7.7936 J-12.2274
G3 X18.4289 Y79.1152 I3.3731 J2.15
G1 X18.6183 Y79.3046
G2 Y64.6954 I-18.6183 J-7.3046
G1 X18.4289 Y64.8848
G3 X12.2274 Y64.2064 I-2.8284 J-2.8284
G2 X7.7936 Y59.7726 I-12.2274 J7.7936
G3 X7.1152 Y53.5711 I2.15 J-3.3731
G1 X7.3046 Y53.3817
G2 X-7.3046 I-7.3046 J18.6183
G1 X-7.1152 Y53.5711
G3 X-7.7936 Y59.7726 I-2.8284 J2.8284
G2 X-12.2274 Y64.2064 I7.7936 J12.2274
G3 X-18.4289 Y64.8848 I-3.3731 J-2.15
G1 X-18.6183 Y64.6954
G2 X-18.6759 Y64.8438 I18.6183 J7.3046
G0 Z3.0
G0 X-2.25 Y23.4269
G0 Z0.1
G1 F100.0 Z0.0
G1 F200.0 Y25.0 Z-0.5726
G2 X-0.9549 Y27.0373 Z-1.5 I2.25 J0.0
G2 X2.25 Y25.0 I0.9549 J-2.0373
G1 Y11.7218
G3 X4.8244 Y6.6924 I6.2 J0.0
G2 Y-6.6924 I-4.8244 J-6.6924
G3 X2.25 Y-11.7218 I3.6256 J-5.0294
G1 Y-25.0
G2 X-2.25 I-2.25 J0.0
G1 Y-11.7218
G3 X-4.8244 Y-6.6924 I-6.2 J0.0
G2 Y6.6924 I4.8244 J6.6924
G3 X-2.25 Y11.7218 I-3.6256 J5.0294
G1 Y25.0
G2 X-0.9549 Y27.0373 I2.25 J0.0
G1 F100.0 X-2.25 Y23.4269
G1 F200.0 Y25.0 Z-2.0726
G2 X-0.9549 Y27.0373 Z-3.0 I2.25 J0.0
G2 X2.25 Y25.0 I0.9549 J-2.0373
G1 Y11.7218
G3 X4.8244 Y6.6924 I6.2 J0.0
G2 Y-6.6924 I-4.8244 J-6.6924
G3 X2.25 Y-11.7218 I3.6256 J-5.0294
G1 Y-25.0
G2 X-2.25 I-2.25 J0.0
G1 Y-11.7218
G3 X-4.8244 Y-6.6924 I-6.2 J0.0
G2 Y6.6924 I4.8244 J6.6924
G3 X-2.25 Y11.7218 I-3.6256 J5.0294
G1 Y25.0
G2 X-0.9549 Y27.0373 I2.25 J0.0
G1 F100.0 X-2.25 Y23.4269
G1 F200.0 Y25.0 Z-3.5726
G2 X-0.9549 Y27.0373 Z-4.5 I2.25 J0.0
G2 X2.25 Y25.0 I0.9549 J-2.0373
G1 Y11.7218
G3 X4.8244 Y6.6924 I6.2 J0.0
G2 Y-6.6924 I-4.8244 J-6.6924
G3 X2.25 Y-11.7218 I3.6256 J-5.0294
G1 Y-25.0
G2 X-2.25 I-2.25 J0.0
G1 Y-11.7218
G3 X-4.8244 Y-6.6924 I-6.2 J0.0
G2 Y6.6924 I4.8244 J6.6924
G3 X-2.25 Y11.7218 I-3.6256 J5.0294
G1 Y25.0
G2 X-0.9549 Y27.0373 I2.25 J0.0
G1 F100.0 X-2.25 Y23.4269
G1 F200.0 Y25.0 Z-5.0726
G2 X-0.9549 Y27.0373 Z-6.0 I2.25 J0.0
G2 X2.25 Y25.0 I0.9549 J-2.0373
G1 Y11.7218
G3 X4.8244 Y6.6924 I6.2 J0.0
G2 Y-6.6924 I-4.8244 J-6.6924
G3 X2.25 Y-11.7218 I3.6256 J-5.0294
G1 Y-25.0
G2 X-2.25 I-2.25 J0.0
G1 Y-11.7218
G3 X-4.8244 Y-6.6924 I-6.2 J0.0
G2 Y6.6924 I4.8244 J6.6924
G3 X-2.25 Y11.7218 I-3.6256 J5.0294
G1 Y25.0
G2 X-0.9549 Y27.0373 I2.25 J0.0
G1 F100.0 X-2.25 Y23.4269
G1 F200.0 Y25.0 Z-6.5726
G2 X-0.9549 Y27.0373 Z-7.5 I2.25 J0.0
G2 X2.25 Y25.0 I0.9549 J-2.0373
G1 Y11.7218
G3 X4.8244 Y6.6924 I6.2 J0.0
G2 Y-6.6924 I-4.8244 J-6.6924
G3 X2.25 Y-11.7218 I3.6256 J-5.0294
G1 Y-25.0
G2 X-2.25 I-2.25 J0.0
G1 Y-11.7218
G3 X-4.8244 Y-6.6924 I-6.2 J0.0
G2 Y6.6924 I4.8244 J6.6924
G3 X-2.25 Y11.7218 I-3.6256 J5.0294
G1 Y25.0
G2 X-0.9549 Y27.0373 I2.25 J0.0
G1 F100.0 X-2.25 Y23.4269
G1 F200.0 Y25.0 Z-8.0726
G2 X-0.9549 Y27.0373 Z-9.0 I2.25 J0.0
G2 X2.25 Y25.0 I0.9549 J-2.0373
G1 Y11.7218
G3 X4.8244 Y6.6924 I6.2 J0.0
G2 Y-6.6924 I-4.8244 J-6.6924
G3 X2.25 Y-11.7218 I3.6256 J-5.0294
G1 Y-25.0
G2 X-2.25 I-2.25 J0.0
G1 Y-11.7218
G3 X-4.8244 Y-6.6924 I-6.2 J0.0
G2 Y6.6924 I4.8244 J6.6924
G3 X-2.25 Y11.7218 I-3.6256 J5.0294
G1 Y25.0
G2 X-0.9549 Y27.0373 I2.25 J0.0
G1 F100.0 X-2.25 Y23.4269
G1 F200.0 Y25.0 Z-9.5726
G2 X-0.9549 Y27.0373 Z-10.5 I2.25 J0.0
G2 X2.25 Y25.0 I0.9549 J-2.0373
G1 Y11.7218
G3 X4.8244 Y6.6924 I6.2 J0.0
G2 Y-6.6924 I-4.8244 J-6.6924
G3 X2.25 Y-11.7218 I3.6256 J-5.0294
G1 Y-25.0
G2 X-2.25 I-2.25 J0.0
G1 Y-11.7218
G3 X-4.8244 Y-6.6924 I-6.2 J0.0
G2 Y6.6924 I4.8244 J6.6924
G3 X-2.25 Y11.7218 I-3.6256 J5.0294
G1 Y25.0
G2 X-0.9549 Y27.0373 I2.25 J0.0
G1 F100.0 X-2.25 Y24.8006
G1 F200.0 Y25.0 Z-10.5726
G2 X-0.9549 Y27.0373 Z-11.5 I2.25 J0.0
G2 X2.25 Y25.0 I0.9549 J-2.0373
G1 Y11.7218
G3 X4.8244 Y6.6924 I6.2 J0.0
G2 Y-6.6924 I-4.8244 J-6.6924
G3 X2.25 Y-11.7218 I3.6256 J-5.0294
G1 Y-25.0
G2 X-2.25 I-2.25 J0.0
G1 Y-11.7218
G3 X-4.8244 Y-6.6924 I-6.2 J0.0
G2 Y6.6924 I4.8244 J6.6924
G3 X-2.25 Y11.7218 I-3.6256 J5.0294
G1 Y25.0
G2 X-0.9549 Y27.0373 I2.25 J0.0
G0 Z3.0
G0 X47.9855 Y21.0204
G0 Z0.1
G1 F100.0 Z0.0
G2 F200.0 X47.664 Y25.1217 Z-1.5 I19.6724 J3.6051
G1 X47.9068 Y25.0085
G3 X53.5023 Y27.7671 I1.6905 J3.6252
G2 X56.1522 Y33.4499 I14.1556 J-3.1416
G3 X54.6687 Y39.5094 I-3.174 J2.4343
G1 X54.4259 Y39.6226
G2 X68.1541 Y44.6193 I13.232 J-14.9972
G1 X68.0409 Y44.3765
G3 X70.7995 Y38.781 I3.6252 J-1.6905
G2 X76.4823 Y36.1311 I-3.1416 J-14.1556
G3 X82.5418 Y37.6146 I2.4343 J3.174
G1 X82.6551 Y37.8574
G2 X87.6517 Y24.1292 I-14.9972 J-13.232
G1 X87.4089 Y24.2424
G3 X81.8134 Y21.4838 I-1.6905 J-3.6252
G2 X79.1635 Y15.801 I-14.1556 J3.1416
G3 X80.647 Y9.7415 I3.174 J-2.4343
G1 X80.8898 Y9.6283
G2 X67.1616 Y4.6316 I-13.232 J14.9972
G1 X67.2748 Y4.8744
G3 X64.5163 Y10.4699 I-3.6252 J1.6905
G2 X58.8335 Y13.1198 I3.1416 J14.1556
G3 X52.7739 Y11.6363 I-2.4343 J-3.174
G1 X52.6607 Y11.3935
G2 X47.664 Y25.1217 I14.9972 J13.232
G1 F100.0 X47.9855 Y21.0204
G2 F200.0 X47.664 Y25.1217 Z-3.0 I19.6724 J3.6051
G1 X47.9068 Y25.0085
G3 X53.5023 Y27.7671 I1.6905 J3.6252
G2 X56.1522 Y33.4499 I14.1556 J-3.1416
G3 X54.6687 Y39.5094 I-3.174 J2.4343
G1 X54.4259 Y39.6226
G2 X68.1541 Y44.6193 I13.232 J-14.9972
G1 X68.0409 Y44.3765
G3 X70.7995 Y38.781 I3.6252 J-1.6905
G2 X76.4823 Y36.1311 I-3.1416 J-14.1556
G3 X82.5418 Y37.6146 I2.4343 J3.174
G1 X82.6551 Y37.8574
G2 X87.6517 Y24.1292 I-14.9972 J-13.232
G1 X87.4089 Y24.2424
G3 X81.8134 Y21.4838 I-1.6905 J-3.6252
G2 X79.1635 Y15.801 I-14.1556 J3.1416
G3 X80.647 Y9.7415 I3.174 J-2.4343
G1 X80.8898 Y9.6283
G2 X67.1616 Y4.6316 I-13.232 J14.9972
G1 X67.2748 Y4.8744
G3 X64.5163 Y10.4699 I-3.6252 J1.6905
G2 X58.8335 Y13.1198 I3.1416 J14.1556
G3 X52.7739 Y11.6363 I-2.4343 J-3.174
G1 X52.6607 Y11.3935
G2 X47.664 Y25.1217 I14.9972 J13.232
G1 F100.0 X47.9855 Y21.0204
G2 F200.0 X47.664 Y25.1217 Z-4.5 I19.6724 J3.6051
G1 X47.9068 Y25.0085
G3 X53.5023 Y27.7671 I1.6905 J3.6252
G2 X56.1522 Y33.4499 I14.1556 J-3.1416
G3 X54.6687 Y39.5094 I-3.174 J2.4343
G1 X54.4259 Y39.6226
G2 X68.1541 Y44.6193 I13.232 J-14.9972
G1 X68.0409 Y44.3765
G3 X70.7995 Y38.781 I3.6252 J-1.6905
G2 X76.4823 Y36.1311 I-3.1416 J-14.1556
G3 X82.5418 Y37.6146 I2.4343 J3.174
G1 X82.6551 Y37.8574
G2 X87.6517 Y24.1292 I-14.9972 J-13.232
G1 X87.4089 Y24.2424
G3 X81.8134 Y21.4838 I-1.6905 J-3.6252
G2 X79.1635 Y15.801 I-14.1556 J3.1416
G3 X80.647 Y9.7415 I3.174 J-2.4343
G1 X80.8898 Y9.6283
G2 X67.1616 Y4.6316 I-13.232 J14.9972
G1 X67.2748 Y4.8744
G3 X64.5163 Y10.4699 I-3.6252 J1.6905
G2 X58.8335 Y13.1198 I3.1416 J14.1556
G3 X52.7739 Y11.6363 I-2.4343 J-3.174
G1 X52.6607 Y11.3935
G2 X47.664 Y25.1217 I14.9972 J13.232
G1 F100.0 X47.9855 Y21.0204
G2 F200.0 X47.664 Y25.1217 Z-6.0 I19.6724 J3.6051
G1 X47.9068 Y25.0085
G3 X53.5023 Y27.7671 I1.6905 J3.6252
G2 X56.1522 Y33.4499 I14.1556 J-3.1416
G3 X54.6687 Y39.5094 I-3.174 J2.4343
G1 X54.4259 Y39.6226
G2 X68.1541 Y44.6193 I13.232 J-14.9972
G1 X68.0409 Y44.3765
G3 X70.7995 Y38.781 I3.6252 J-1.6905
G2 X76.4823 Y36.1311 I-3.1416 J-14.1556
G3 X82.5418 Y37.6146 I2.4343 J3.174
G1 X82.6551 Y37.8574
G2 X87.6517 Y24.1292 I-14.9972 J-13.232
G1 X87.4089 Y24.2424
G3 X81.8134 Y21.4838 I-1.6905 J-3.6252
G2 X79.1635 Y15.801 I-14.1556 J3.1416
G3 X80.647 Y9.7415 I3.174 J-2.4343
G1 X80.8898 Y9.6283
G2 X67.1616 Y4.6316 I-13.232 J14.9972
G1 X67.2748 Y4.8744
G3 X64.5163 Y10.4699 I-3.6252 J1.6905
G2 X58.8335 Y13.1198 I3.1416 J14.1556
G3 X52.7739 Y11.6363 I-2.4343 J-3.174
G1 X52.6607 Y11.3935
G2 X47.664 Y25.1217 I14.9972 J13.232
G1 F100.0 X47.9855 Y21.0204
G2 F200.0 X47.664 Y25.1217 Z-7.5 I19.6724 J3.6051
G1 X47.9068 Y25.0085
G3 X53.5023 Y27.7671 I1.6905 J3.6252
G2 X56.1522 Y33.4499 I14.1556 J-3.1416
G3 X54.6687 Y39.5094 I-3.174 J2.4343
G1 X54.4259 Y39.6226
G2 X68.1541 Y44.6193 I13.232 J-14.9972
G1 X68.0409 Y44.3765
G3 X70.7995 Y38.781 I3.6252 J-1.6905
G2 X76.4823 Y36.1311 I-3.1416 J-14.1556
G3 X82.5418 Y37.6146 I2.4343 J3.174
G1 X82.6551 Y37.8574
G2 X87.6517 Y24.1292 I-14.9972 J-13.232
G1 X87.4089 Y24.2424
G3 X81.8134 Y21.4838 I-1.6905 J-3.6252
G2 X79.1635 Y15.801 I-14.1556 J3.1416
G3 X80.647 Y9.7415 I3.174 J-2.4343
G1 X80.8898 Y9.6283
G2 X67.1616 Y4.6316 I-13.232 J14.9972
G1 X67.2748 Y4.8744
G3 X64.5163 Y10.4699 I-3.6252 J1.6905
G2 X58.8335 Y13.1198 I3.1416 J14.1556
G3 X52.7739 Y11.6363 I-2.4343 J-3.174
G1 X52.6607 Y11.3935
G2 X47.664 Y25.1217 I14.9972 J13.232
G1 F100.0 X47.9855 Y21.0204
G2 F200.0 X47.664 Y25.1217 Z-9.0 I19.6724 J3.6051
G1 X47.9068 Y25.0085
G3 X53.5023 Y27.7671 I1.6905 J3.6252
G2 X56.1522 Y33.4499 I14.1556 J-3.1416
G3 X54.6687 Y39.5094 I-3.174 J2.4343
G1 X54.4259 Y39.6226
G2 X68.1541 Y44.6193 I13.232 J-14.9972
G1 X68.0409 Y44.3765
G3 X70.7995 Y38.781 I3.6252 J-1.6905
G2 X76.4823 Y36.1311 I-3.1416 J-14.1556
G3 X82.5418 Y37.6146 I2.4343 J3.174
G1 X82.6551 Y37.8574
G2 X87.6517 Y24.1292 I-14.9972 J-13.232
G1 X87.4089 Y24.2424
G3 X81.8134 Y21.4838 I-1.6905 J-3.6252
G2 X79.1635 Y15.801 I-14.1556 J3.1416
G3 X80.647 Y9.7415 I3.174 J-2.4343
G1 X80.8898 Y9.6283
G2 X67.1616 Y4.6316 I-13.232 J14.9972
G1 X67.2748 Y4.8744
G3 X64.5163 Y10.4699 I-3.6252 J1.6905
G2 X58.8335 Y13.1198 I3.1416 J14.1556
G3 X52.7739 Y11.6363 I-2.4343 J-3.174
G1 X52.6607 Y11.3935
G2 X47.664 Y25.1217 I14.9972 J13.232
G1 F100.0 X47.9855 Y21.0204
G2 F200.0 X47.664 Y25.1217 Z-10.5 I19.6724 J3.6051
G1 X47.9068 Y25.0085
G3 X53.5023 Y27.7671 I1.6905 J3.6252
G2 X56.1522 Y33.4499 I14.1556 J-3.1416
G3 X54.6687 Y39.5094 I-3.174 J2.4343
G1 X54.4259 Y39.6226
G2 X68.1541 Y44.6193 I13.232 J-14.9972
G1 X68.0409 Y44.3765
G3 X70.7995 Y38.781 I3.6252 J-1.6905
G2 X76.4823 Y36.1311 I-3.1416 J-14.1556
G3 X82.5418 Y37.6146 I2.4343 J3.174
G1 X82.6551 Y37.8574
G2 X87.6517 Y24.1292 I-14.9972 J-13.232
G1 X87.4089 Y24.2424
G3 X81.8134 Y21.4838 I-1.6905 J-3.6252
G2 X79.1635 Y15.801 I-14.1556 J3.1416
G3 X80.647 Y9.7415 I3.174 J-2.4343
G1 X80.8898 Y9.6283
G2 X67.1616 Y4.6316 I-13.232 J14.9972
G1 X67.2748 Y4.8744
G3 X64.5163 Y10.4699 I-3.6252 J1.6905
G2 X58.8335 Y13.1198 I3.1416 J14.1556
G3 X52.7739 Y11.6363 I-2.4343 J-3.174
G1 X52.6607 Y11.3935
G2 X47.664 Y25.1217 I14.9972 J13.232
G1 F100.0 X47.7844 Y22.379
G2 F200.0 X47.664 Y25.1217 Z-11.5 I19.8734 J2.2464
G1 X47.9068 Y25.0085
G3 X53.5023 Y27.7671 I1.6905 J3.6252
G2 X56.1522 Y33.4499 I14.1556 J-3.1416
G3 X54.6687 Y39.5094 I-3.174 J2.4343
G1 X54.4259 Y39.6226
G2 X68.1541 Y44.6193 I13.232 J-14.9972
G1 X68.0409 Y44.3765
G3 X70.7995 Y38.781 I3.6252 J-1.6905
G2 X76.4823 Y36.1311 I-3.1416 J-14.1556
G3 X82.5418 Y37.6146 I2.4343 J3.174
G1 X82.6551 Y37.8574
G2 X87.6517 Y24.1292 I-14.9972 J-13.232
G1 X87.4089 Y24.2424
G3 X81.8134 Y21.4838 I-1.6905 J-3.6252
G2 X79.1635 Y15.801 I-14.1556 J3.1416
G3 X80.647 Y9.7415 I3.174 J-2.4343
G1 X80.8898 Y9.6283
G2 X67.1616 Y4.6316 I-13.232 J14.9972
G1 X67.2748 Y4.8744
G3 X64.5163 Y10.4699 I-3.6252 J1.6905
G2 X58.8335 Y13.1198 I3.1416 J14.1556
G3 X52.7739 Y11.6363 I-2.4343 J-3.174
G1 X52.6607 Y11.3935
G2 X47.664 Y25.1217 I14.9972 J13.232
G0 Z3.0
G0 X66.8722 Y-10.247
G0 Z0.1
G1 F100.0 Z0.0
G3 F200.0 X67.1324 Y-6.5501 Z-1.4025 I-3.4061 J2.0973
G1 X67.0253 Y-6.3046 Z-1.5
G2 X80.6246 Y-11.6419 I-0.0024 J-20.0
G1 X80.3791 Y-11.749
G3 X78.745 Y-17.7697 I1.5996 J-3.6662
G2 X81.2524 Y-23.5168 I-11.7221 J-8.5348
G3 X86.7774 Y-26.414 I3.9254 J0.769
G1 X87.0229 Y-26.3069
G2 X81.6855 Y-39.9063 I-20.0 J0.0024
G1 X81.5784 Y-39.6607
G3 X75.5577 Y-38.0266 I-3.6662 J-1.5996
G2 X69.8106 Y-40.5341 I-8.5348 J11.7221
G3 X66.9134 Y-46.059 I0.769 J-3.9254
G1 X67.0206 Y-46.3046
G2 X53.4212 Y-40.9672 I0.0024 J20.0
G1 X53.6667 Y-40.8601
G3 X55.3008 Y-34.8394 I-1.5996 J3.6662
G2 X52.7934 Y-29.0923 I11.7221 J8.5348
G3 X47.2685 Y-26.1951 I-3.9254 J-0.769
G1 X47.0229 Y-26.3022
G2 X52.3603 Y-12.7028 I20.0 J-0.0024
G1 X52.4674 Y-12.9484
G3 X58.4881 Y-14.5825 I3.6662 J1.5996
G2 X64.2352 Y-12.0751 I8.5348 J-11.7221
G3 X67.1324 Y-6.5501 I-0.769 J3.9254
G1 X67.0253 Y-6.3046
G1 F100.0 X66.8722 Y-10.247
G3 F200.0 X67.1324 Y-6.5501 Z-2.9025 I-3.4061 J2.0973
G1 X67.0253 Y-6.3046 Z-3.0
G2 X80.6246 Y-11.6419 I-0.0024 J-20.0
G1 X80.3791 Y-11.749
G3 X78.745 Y-17.7697 I1.5996 J-3.6662
G2 X81.2524 Y-23.5168 I-11.7221 J-8.5348
G3 X86.7774 Y-26.414 I3.9254 J0.769
G1 X87.0229 Y-26.3069
G2 X81.6855 Y-39.9063 I-20.0 J0.0024
G1 X81.5784 Y-39.6607
G3 X75.5577 Y-38.0266 I-3.6662 J-1.5996
G2 X69.8106 Y-40.5341 I-8.5348 J11.7221
G3 X66.9134 Y-46.059 I0.769 J-3.9254
G1 X67.0206 Y-46.3046
G2 X53.4212 Y-40.9672 I0.0024 J20.0
G1 X53.6667 Y-40.8601
G3 X55.3008 Y-34.8394 I-1.5996 J3.6662
G2 X52.7934 Y-29.0923 I11.7221 J8.5348
G3 X47.2685 Y-26.1951 I-3.9254 J-0.769
G1 X47.0229 Y-26.3022
G2 X52.3603 Y-12.7028 I20.0 J-0.0024
G1 X52.4674 Y-12.9484
G3 X58.4881 Y-14.5825 I3.6662 J1.5996
G2 X64.2352 Y-12.0751 I8.5348 J-11.7221
G3 X67.1324 Y-6.5501 I-0.769 J3.9254
G1 X67.0253 Y-6.3046
G1 F100.0 X66.8722 Y-10.247
G3 F200.0 X67.1324 Y-6.5501 Z-4.4025 I-3.4061 J2.0973
G1 X67.0253 Y-6.3046 Z-4.5
G2 X80.6246 Y-11.6419 I-0.0024 J-20.0
G1 X80.3791 Y-11.749
G3 X78.745 Y-17.7697 I1.5996 J-3.6662
G2 X81.2524 Y-23.5168 I-11.7221 J-8.5348
G3 X86.7774 Y-26.414 I3.9254 J0.769
G1 X87.0229 Y-26.3069
G2 X81.6855 Y-39.9063 I-20.0 J0.0024
G1 X81.5784 Y-39.6607
G3 X75.5577 Y-38.0266 I-3.6662 J-1.5996
G2 X69.8106 Y-40.5341 I-8.5348 J11.7221
G3 X66.9134 Y-46.059 I0.769 J-3.9254
G1 X67.0206 Y-46.3046
G2 X53.4212 Y-40.9672 I0.0024 J20.0
G1 X53.6667 Y-40.8601
G3 X55.3008 Y-34.8394 I-1.5996 J3.6662
G2 X52.7934 Y-29.0923 I11.7221 J8.5348
G3 X47.2685 Y-26.1951 I-3.9254 J-0.769
G1 X47.0229 Y-26.3022
G2 X52.3603 Y-12.7028 I20.0 J-0.0024
G1 X52.4674 Y-12.9484
G3 X58.4881 Y-14.5825 I3.6662 J1.5996
G2 X64.2352 Y-12.0751 I8.5348 J-11.7221
G3 X67.1324 Y-6.5501 I-0.769 J3.9254
G1 X67.0253 Y-6.3046
G1 F100.0 X66.8722 Y-10.247
G3 F200.0 X67.1324 Y-6.5501 Z-5.9025 I-3.4061 J2.0973
G1 X67.0253 Y-6.3046 Z-6.0
G2 X80.6246 Y-11.6419 I-0.0024 J-20.0
G1 X80.3791 Y-11.749
G3 X78.745 Y-17.7697 I1.5996 J-3.6662
G2 X81.2524 Y-23.5168 I-11.7221 J-8.5348
G3 X86.7774 Y-26.414 I3.9254 J0.769
G1 X87.0229 Y-26.3069
G2 X81.6855 Y-39.9063 I-20.0 J0.0024
G1 X81.5784 Y-39.6607
G3 X75.5577 Y-38.0266 I-3.6662 J-1.5996
G2 X69.8106 Y-40.5341 I-8.5348 J11.7221
G3 X66.9134 Y-46.059 I0.769 J-3.9254
G1 X67.0206 Y-46.3046
G2 X53.4212 Y-40.9672 I0.0024 J20.0
G1 X53.6667 Y-40.8601
G3 X55.3008 Y-34.8394 I-1.5996 J3.6662
G2 X52.7934 Y-29.0923 I11.7221 J8.5348
G3 X47.2685 Y-26.1951 I-3.9254 J-0.769
G1 X47.0229 Y-26.3022
G2 X52.3603 Y-12.7028 I20.0 J-0.0024
G1 X52.4674 Y-12.9484
G3 X58.4881 Y-14.5825 I3.6662 J1.5996
G2 X64.2352 Y-12.0751 I8.5348 J-11.7221
G3 X67.1324 Y-6.5501 I-0.769 J3.9254
G1 X67.0253 Y-6.3046
G1 F100.0 X66.8722 Y-10.247
G3 F200.0 X67.1324 Y-6.5501 Z-7.4025 I-3.4061 J2.0973
G1 X67.0253 Y-6.3046 Z-7.5
G2 X80.6246 Y-11.6419 I-0.0024 J-20.0
G1 X80.3791 Y-11.749
G3 X78.745 Y-17.7697 I1.5996 J-3.6662
G2 X81.2524 Y-23.5168 I-11.7221 J-8.5348
G3 X86.7774 Y-26.414 I3.9254 J0.769
G1 X87.0229 Y-26.3069
G2 X81.6855 Y-39.9063 I-20.0 J0.0024
G1 X81.5784 Y-39.6607
G3 X75.5577 Y-38.0266 I-3.6662 J-1.5996
G2 X69.8106 Y-40.5341 I-8.5348 J11.7221
G3 X66.9134 Y-46.059 I0.769 J-3.9254
G1 X67.0206 Y-46.3046
G2 X53.4212 Y-40.9672 I0.0024 J20.0
G1 X53.6667 Y-40.8601
G3 X55.3008 Y-34.8394 I-1.5996 J3.6662
G2 X52.7934 Y-29.0923 I11.7221 J8.5348
G3 X47.2685 Y-26.1951 I-3.9254 J-0.769
G1 X47.0229 Y-26.3022
G2 X52.3603 Y-12.7028 I20.0 J-0.0024
G1 X52.4674 Y-12.9484
G3 X58.4881 Y-14.5825 I3.6662 J1.5996
G2 X64.2352 Y-12.0751 I8.5348 J-11.7221
G3 X67.1324 Y-6.5501 I-0.769 J3.9254
G1 X67.0253 Y-6.3046
G1 F100.0 X66.8722 Y-10.247
G3 F200.0 X67.1324 Y-6.5501 Z-8.9025 I-3.4061 J2.0973
G1 X67.0253 Y-6.3046 Z-9.0
G2 X80.6246 Y-11.6419 I-0.0024 J-20.0
G1 X80.3791 Y-11.749
G3 X78.745 Y-17.7697 I1.5996 J-3.6662
G2 X81.2524 Y-23.5168 I-11.7221 J-8.5348
G3 X86.7774 Y-26.414 I3.9254 J0.769
G1 X87.0229 Y-26.3069
G2 X81.6855 Y-39.9063 I-20.0 J0.0024
G1 X81.5784 Y-39.6607
G3 X75.5577 Y-38.0266 I-3.6662 J-1.5996
G2 X69.8106 Y-40.5341 I-8.5348 J11.7221
G3 X66.9134 Y-46.059 I0.769 J-3.9254
G1 X67.0206 Y-46.3046
G2 X53.4212 Y-40.9672 I0.0024 J20.0
G1 X53.6667 Y-40.8601
G3 X55.3008 Y-34.8394 I-1.5996 J3.6662
G2 X52.7934 Y-29.0923 I11.7221 J8.5348
G3 X47.2685 Y-26.1951 I-3.9254 J-0.769
G1 X47.0229 Y-26.3022
G2 X52.3603 Y-12.7028 I20.0 J-0.0024
G1 X52.4674 Y-12.9484
G3 X58.4881 Y-14.5825 I3.6662 J1.5996
G2 X64.2352 Y-12.0751 I8.5348 J-11.7221
G3 X67.1324 Y-6.5501 I-0.769 J3.9254
G1 X67.0253 Y-6.3046
G1 F100.0 X66.8722 Y-10.247
G3 F200.0 X67.1324 Y-6.5501 Z-10.4025 I-3.4061 J2.0973
G1 X67.0253 Y-6.3046 Z-10.5
G2 X80.6246 Y-11.6419 I-0.0024 J-20.0
G1 X80.3791 Y-11.749
G3 X78.745 Y-17.7697 I1.5996 J-3.6662
G2 X81.2524 Y-23.5168 I-11.7221 J-8.5348
G3 X86.7774 Y-26.414 I3.9254 J0.769
G1 X87.0229 Y-26.3069
G2 X81.6855 Y-39.9063 I-20.0 J0.0024
G1 X81.5784 Y-39.6607
G3 X75.5577 Y-38.0266 I-3.6662 J-1.5996
G2 X69.8106 Y-40.5341 I-8.5348 J11.7221
G3 X66.9134 Y-46.059 I0.769 J-3.9254
G1 X67.0206 Y-46.3046
G2 X53.4212 Y-40.9672 I0.0024 J20.0
G1 X53.6667 Y-40.8601
G3 X55.3008 Y-34.8394 I-1.5996 J3.6662
G2 X52.7934 Y-29.0923 I11.7221 J8.5348
G3 X47.2685 Y-26.1951 I-3.9254 J-0.769
G1 X47.0229 Y-26.3022
G2 X52.3603 Y-12.7028 I20.0 J-0.0024
G1 X52.4674 Y-12.9484
G3 X58.4881 Y-14.5825 I3.6662 J1.5996
G2 X64.2352 Y-12.0751 I8.5348 J-11.7221
G3 X67.1324 Y-6.5501 I-0.769 J3.9254
G1 X67.0253 Y-6.3046
G1 F100.0 X67.3795 Y-8.9776
G3 F200.0 X67.1324 Y-6.5501 Z-11.4025 I-3.9134 J0.8279
G1 X67.0253 Y-6.3046 Z-11.5
G2 X80.6246 Y-11.6419 I-0.0024 J-20.0
G1 X80.3791 Y-11.749
G3 X78.745 Y-17.7697 I1.5996 J-3.6662
G2 X81.2524 Y-23.5168 I-11.7221 J-8.5348
G3 X86.7774 Y-26.414 I3.9254 J0.769
G1 X87.0229 Y-26.3069
G2 X81.6855 Y-39.9063 I-20.0 J0.0024
G1 X81.5784 Y-39.6607
G3 X75.5577 Y-38.0266 I-3.6662 J-1.5996
G2 X69.8106 Y-40.5341 I-8.5348 J11.7221
G3 X66.9134 Y-46.059 I0.769 J-3.9254
G1 X67.0206 Y-46.3046
G2 X53.4212 Y-40.9672 I0.0024 J20.0
G1 X53.6667 Y-40.8601
G3 X55.3008 Y-34.8394 I-1.5996 J3.6662
G2 X52.7934 Y-29.0923 I11.7221 J8.5348
G3 X47.2685 Y-26.1951 I-3.9254 J-0.769
G1 X47.0229 Y-26.3022
G2 X52.3603 Y-12.7028 I20.0 J-0.0024
G1 X52.4674 Y-12.9484
G3 X58.4881 Y-14.5825 I3.6662 J1.5996
G2 X64.2352 Y-12.0751 I8.5348 J-11.7221
G3 X67.1324 Y-6.5501 I-0.769 J3.9254
G1 X67.0253 Y-6.3046
G0 Z3.0
G0 X43.3592 Y-51.9314
G0 Z0.1
G1 F100.0 Z0.0
G3 F200.0 X46.0005 Y-49.3317 Z-1.4025 I-1.166 J3.8263
G1 X46.0827 Y-49.0767 Z-1.5
G2 X52.7475 Y-62.0771 I-13.2355 J-14.9941
G1 X52.4925 Y-61.9949
G3 X47.2835 Y-65.4278 I-1.2266 J-3.8073
G2 X45.3608 Y-71.396 I-14.4364 J1.3571
G3 X47.5862 Y-77.2241 I3.452 J-2.0208
G1 X47.8412 Y-77.3063
G2 X34.8409 Y-83.9712 I-14.9941 J13.2355
G1 X34.923 Y-83.7161
G3 X31.4901 Y-78.5071 I-3.8073 J1.2266
G2 X25.5219 Y-76.5844 I1.3571 J14.4364
G3 X19.6938 Y-78.8098 I-2.0208 J-3.452
G1 X19.6117 Y-79.0648
G2 X12.9468 Y-66.0645 I13.2355 J14.9941
G1 X13.2018 Y-66.1466
G3 X18.4108 Y-62.7137 I1.2266 J3.8073
G2 X20.3336 Y-56.7455 I14.4364 J-1.3571
G3 X18.1081 Y-50.9174 I-3.452 J2.0208
G1 X17.8531 Y-50.8353
G2 X30.8535 Y-44.1704 I14.9941 J-13.2355
G1 X30.7713 Y-44.4254
G3 X34.2042 Y-49.6344 I3.8073 J-1.2266
G2 X40.1724 Y-51.5572 I-1.3571 J-14.4364
G3 X46.0005 Y-49.3317 I2.0208 J3.452
G1 X46.0827 Y-49.0767
G1 F100.0 X43.3592 Y-51.9314
G3 F200.0 X46.0005 Y-49.3317 Z-2.9025 I-1.166 J3.8263
G1 X46.0827 Y-49.0767 Z-3.0
G2 X52.7475 Y-62.0771 I-13.2355 J-14.9941
G1 X52.4925 Y-61.9949
G3 X47.2835 Y-65.4278 I-1.2266 J-3.8073
G2 X45.3608 Y-71.396 I-14.4364 J1.3571
G3 X47.5862 Y-77.2241 I3.452 J-2.0208
G1 X47.8412 Y-77.3063
G2 X34.8409 Y-83.9712 I-14.9941 J13.2355
G1 X34.923 Y-83.7161
G3 X31.4901 Y-78.5071 I-3.8073 J1.2266
G2 X25.5219 Y-76.5844 I1.3571 J14.4364
G3 X19.6938 Y-78.8098 I-2.0208 J-3.452
G1 X19.6117 Y-79.0648
G2 X12.9468 Y-66.0645 I13.2355 J14.9941
G1 X13.2018 Y-66.1466
G3 X18.4108 Y-62.7137 I1.2266 J3.8073
G2 X20.3336 Y-56.7455 I14.4364 J-1.3571
G3 X18.1081 Y-50.9174 I-3.452 J2.0208
G1 X17.8531 Y-50.8353
G2 X30.8535 Y-44.1704 I14.9941 J-13.2355
G1 X30.7713 Y-44.4254
G3 X34.2042 Y-49.6344 I3.8073 J-1.2266
G2 X40.1724 Y-51.5572 I-1.3571 J-14.4364
G3 X46.0005 Y-49.3317 I2.0208 J3.452
G1 X46.0827 Y-49.0767
G1 F100.0 X43.3592 Y-51.9314
G3 F200.0 X46.0005 Y-49.3317 Z-4.4025 I-1.166 J3.8263
G1 X46.0827 Y-49.0767 Z-4.5
G2 X52.7475 Y-62.0771 I-13.2355 J-14.9941
G1 X52.4925 Y-61.9949
G3 X47.2835 Y-65.4278 I-1.2266 J-3.8073
G2 X45.3608 Y-71.396 I-14.4364 J1.3571
G3 X47.5862 Y-77.2241 I3.452 J-2.0208
G1 X47.8412 Y-77.3063
G2 X34.8409 Y-83.9712 I-14.9941 J13.2355
G1 X34.923 Y-83.7161
G3 X31.4901 Y-78.5071 I-3.8073 J1.2266
G2 X25.5219 Y-76.5844 I1.3571 J14.4364
G3 X19.6938 Y-78.8098 I-2.0208 J-3.452
G1 X19.6117 Y-79.0648
G2 X12.9468 Y-66.0645 I13.2355 J14.9941
G1 X13.2018 Y-66.1466
G3 X18.4108 Y-62.7137 I1.2266 J3.8073
G2 X20.3336 Y-56.7455 I14.4364 J-1.3571
G3 X18.1081 Y-50.9174 I-3.452 J2.0208
G1 X17.8531 Y-50.8353
G2 X30.8535 Y-44.1704 I14.9941 J-13.2355
G1 X30.7713 Y-44.4254
G3 X34.2042 Y-49.6344 I3.8073 J-1.2266
G2 X40.1724 Y-51.5572 I-1.3571 J-14.4364
G3 X46.0005 Y-49.3317 I2.0208 J3.452
G1 X46.0827 Y-49.0767
G1 F100.0 X43.3592 Y-51.9314
G3 F200.0 X46.0005 Y-49.3317 Z-5.9025 I-1.166 J3.8263
G1 X46.0827 Y-49.0767 Z-6.0
G2 X52.7475 Y-62.0771 I-13.2355 J-14.9941
G1 X52.4925 Y-61.9949
G3 X47.2835 Y-65.4278 I-1.2266 J-3.8073
G2 X45.3608 Y-71.396 I-14.4364 J1.3571
G3 X47.5862 Y-77.2241 I3.452 J-2.0208
G1 X47.8412 Y-77.3063
G2 X34.8409 Y-83.9712 I-14.9941 J13.2355
G1 X34.923 Y-83.7161
G3 X31.4901 Y-78.5071 I-3.8073 J1.2266
G2 X25.5219 Y-76.5844 I1.3571 J14.4364
G3 X19.6938 Y-78.8098 I-2.0208 J-3.452
G1 X19.6117 Y-79.0648
G2 X12.9468 Y-66.0645 I13.2355 J14.9941
G1 X13.2018 Y-66.1466
G3 X18.4108 Y-62.7137 I1.2266 J3.8073
G2 X20.3336 Y-56.7455 I14.4364 J-1.3571
G3 X18.1081 Y-50.9174 I-3.452 J2.0208
G1 X17.8531 Y-50.8353
G2 X30.8535 Y-44.1704 I14.9941 J-13.2355
G1 X30.7713 Y-44.4254
G3 X34.2042 Y-49.6344 I3.8073 J-1.2266
G2 X40.1724 Y-51.5572 I-1.3571 J-14.4364
G3 X46.0005 Y-49.3317 I2.0208 J3.452
G1 X46.0827 Y-49.0767
G1 F100.0 X43.3592 Y-51.9314
G3 F200.0 X46.0005 Y-49.3317 Z-7.4025 I-1.166 J3.8263
G1 X46.0827 Y-49.0767 Z-7.5
G2 X52.7475 Y-62.0771 I-13.2355 J-14.9941
G1 X52.4925 Y-61.9949
G3 X47.2835 Y-65.4278 I-1.2266 J-3.8073
G2 X45.3608 Y-71.396 I-14.4364 J1.3571
G3 X47.5862 Y-77.2241 I3.452 J-2.0208
G1 X47.8412 Y-77.3063
G2 X34.8409 Y-83.9712 I-14.9941 J13.2355
G1 X34.923 Y-83.7161
G3 X31.4901 Y-78.5071 I-3.8073 J1.2266
G2 X25.5219 Y-76.5844 I1.3571 J14.4364
G3 X19.6938 Y-78.8098 I-2.0208 J-3.452
G1 X19.6117 Y-79.0648
G2 X12.9468 Y-66.0645 I13.2355 J14.9941
G1 X13.2018 Y-66.1466
G3 X18.4108 Y-62.7137 I1.2266 J3.8073
G2 X20.3336 Y-56.7455 I14.4364 J-1.3571
G3 X18.1081 Y-50.9174 I-3.452 J2.0208
G1 X17.8531 Y-50.8353
G2 X30.8535 Y-44.1704 I14.9941 J-13.2355
G1 X30.7713 Y-44.4254
G3 X34.2042 Y-49.6344 I3.8073 J-1.2266
G2 X40.1724 Y-51.5572 I-1.3571 J-14.4364
G3 X46.0005 Y-49.3317 I2.0208 J3.452
G1 X46.0827 Y-49.0767
G1 F100.0 X43.3592 Y-51.9314
G3 F200.0 X46.0005 Y-49.3317 Z-8.9025 I-1.166 J3.8263
G1 X46.0827 Y-49.0767 Z-9.0
G2 X52.7475 Y-62.0771 I-13.2355 J-14.9941
G1 X52.4925 Y-61.9949
G3 X47.2835 Y-65.4278 I-1.2266 J-3.8073
G2 X45.3608 Y-71.396 I-14.4364 J1.3571
G3 X47.5862 Y-77.2241 I3.452 J-2.0208
G1 X47.8412 Y-77.3063
G2 X34.8409 Y-83.9712 I-14.9941 J13.2355
G1 X34.923 Y-83.7161
G3 X31.4901 Y-78.5071 I-3.8073 J1.2266
G2 X25.5219 Y-76.5844 I1.3571 J14.4364
G3 X19.6938 Y-78.8098 I-2.0208 J-3.452
G1 X19.6117 Y-79.0648
G2 X12.9468 Y-66.0645 I13.2355 J14.9941
G1 X13.2018 Y-66.1466
G3 X18.4108 Y-62.7137 I1.2266 J3.8073
G2 X20.3336 Y-56.7455 I14.4364 J-1.3571
G3 X18.1081 Y-50.9174 I-3.452 J2.0208
G1 X17.8531 Y-50.8353
G2 X30.8535 Y-44.1704 I14.9941 J-13.2355
G1 X30.7713 Y-44.4254
G3 X34.2042 Y-49.6344 I3.8073 J-1.2266
G2 X40.1724 Y-51.5572 I-1.3571 J-14.4364
G3 X46.0005 Y-49.3317 I2.0208 J3.452
G1 X46.0827 Y-49.0767
G1 F100.0 X43.3592 Y-51.9314
G3 F200.0 X46.0005 Y-49.3317 Z-10.4025 I-1.166 J3.8263
G1 X46.0827 Y-49.0767 Z-10.5
G2 X52.7475 Y-62.0771 I-13.2355 J-14.9941
G1 X52.4925 Y-61.9949
G3 X47.2835 Y-65.4278 I-1.2266 J-3.8073
G2 X45.3608 Y-71.396 I-14.4364 J1.3571
G3 X47.5862 Y-77.2241 I3.452 J-2.0208
G1 X47.8412 Y-77.3063
G2 X34.8409 Y-83.9712 I-14.9941 J13.2355
G1 X34.923 Y-83.7161
G3 X31.4901 Y-78.5071 I-3.8073 J1.2266
G2 X25.5219 Y-76.5844 I1.3571 J14.4364
G3 X19.6938 Y-78.8098 I-2.0208 J-3.452
G1 X19.6117 Y-79.0648
G2 X12.9468 Y-66.0645 I13.2355 J14.9941
G1 X13.2018 Y-66.1466
G3 X18.4108 Y-62.7137 I1.2266 J3.8073
G2 X20.3336 Y-56.7455 I14.4364 J-1.3571
G3 X18.1081 Y-50.9174 I-3.452 J2.0208
G1 X17.8531 Y-50.8353
G2 X30.8535 Y-44.1704 I14.9941 J-13.2355
G1 X30.7713 Y-44.4254
G3 X34.2042 Y-49.6344 I3.8073 J-1.2266
G2 X40.1724 Y-51.5572 I-1.3571 J-14.4364
G3 X46.0005 Y-49.3317 I2.0208 J3.452
G1 X46.0827 Y-49.0767
G1 F100.0 X44.5795 Y-51.3153
G3 F200.0 X46.0005 Y-49.3317 Z-11.4025 I-2.3863 J3.2102
G1 X46.0827 Y-49.0767 Z-11.5
G2 X52.7475 Y-62.0771 I-13.2355 J-14.9941
G1 X52.4925 Y-61.9949
G3 X47.2835 Y-65.4278 I-1.2266 J-3.8073
G2 X45.3608 Y-71.396 I-14.4364 J1.3571
G3 X47.5862 Y-77.2241 I3.452 J-2.0208
G1 X47.8412 Y-77.3063
G2 X34.8409 Y-83.9712 I-14.9941 J13.2355
G1 X34.923 Y-83.7161
G3 X31.4901 Y-78.5071 I-3.8073 J1.2266
G2 X25.5219 Y-76.5844 I1.3571 J14.4364
G3 X19.6938 Y-78.8098 I-2.0208 J-3.452
G1 X19.6117 Y-79.0648
G2 X12.9468 Y-66.0645 I13.2355 J14.9941
G1 X13.2018 Y-66.1466
G3 X18.4108 Y-62.7137 I1.2266 J3.8073
G2 X20.3336 Y-56.7455 I14.4364 J-1.3571
G3 X18.1081 Y-50.9174 I-3.452 J2.0208
G1 X17.8531 Y-50.8353
G2 X30.8535 Y-44.1704 I14.9941 J-13.2355
G1 X30.7713 Y-44.4254
G3 X34.2042 Y-49.6344 I3.8073 J-1.2266
G2 X40.1724 Y-51.5572 I-1.3571 J-14.4364
G3 X46.0005 Y-49.3317 I2.0208 J3.452
G1 X46.0827 Y-49.0767
G0 Z3.0
G0 X-1.8523 Y-67.6274
G0 Z0.1
G1 F100.0 Z0.0
G3 F200.0 X1.8482 Y-67.4259 Z-1.4025 I1.6575 J3.6404
G1 X2.0785 Y-67.289 Z-1.5
G2 X-1.5264 Y-81.4465 I-19.8451 J-2.4845
G1 X-1.6632 Y-81.2162
G3 X-7.8404 Y-80.3434 I-3.4389 J-2.043
G2 X-13.2311 Y-83.546 I-9.9261 J10.5698
G3 X-15.4188 Y-89.3883 I1.2512 J-3.7993
G1 X-15.282 Y-89.6186
G2 X-29.4395 Y-86.0137 I-2.4845 J19.8451
G1 X-29.2092 Y-85.8769
G3 X-28.3364 Y-79.6997 I-2.043 J3.4389
G2 X-31.539 Y-74.309 I10.5698 J9.9261
G3 X-37.3813 Y-72.1213 I-3.7993 J-1.2512
G1 X-37.6116 Y-72.2581
G2 X-34.0067 Y-58.1006 I19.8451 J2.4845
G1 X-33.8698 Y-58.3309
G3 X-27.6927 Y-59.2037 I3.4389 J2.043
G2 X-22.302 Y-56.0011 I9.9261 J-10.5698
G3 X-20.1142 Y-50.1588 I-1.2512 J3.7993
G1 X-20.2511 Y-49.9285
G2 X-6.0936 Y-53.5334 I2.4845 J-19.8451
G1 X-6.3239 Y-53.6703
G3 X-7.1967 Y-59.8474 I2.043 J-3.4389
G2 X-3.9941 Y-65.2381 I-10.5698 J-9.9261
G3 X1.8482 Y-67.4259 I3.7993 J1.2512
G1 X2.0785 Y-67.289
G1 F100.0 X-1.8523 Y-67.6274
G3 F200.0 X1.8482 Y-67.4259 Z-2.9025 I1.6575 J3.6404
G1 X2.0785 Y-67.289 Z-3.0
G2 X-1.5264 Y-81.4465 I-19.8451 J-2.4845
G1 X-1.6632 Y-81.2162
G3 X-7.8404 Y-80.3434 I-3.4389 J-2.043
G2 X-13.2311 Y-83.546 I-9.9261 J10.5698
G3 X-15.4188 Y-89.3883 I1.2512 J-3.7993
G1 X-15.282 Y-89.6186
G2 X-29.4395 Y-86.0137 I-2.4845 J19.8451
G1 X-29.2092 Y-85.8769
G3 X-28.3364 Y-79.6997 I-2.043 J3.4389
G2 X-31.539 Y-74.309 I10.5698 J9.9261
G3 X-37.3813 Y-72.1213 I-3.7993 J-1.2512
G1 X-37.6116 Y-72.2581
G2 X-34.0067 Y-58.1006 I19.8451 J2.4845
G1 X-33.8698 Y-58.3309
G3 X-27.6927 Y-59.2037 I3.4389 J2.043
G2 X-22.302 Y-56.0011 I9.9261 J-10.5698
G3 X-20.1142 Y-50.1588 I-1.2512 J3.7993
G1 X-20.2511 Y-49.9285
G2 X-6.0936 Y-53.5334 I2.4845 J-19.8451
G1 X-6.3239 Y-53.6703
G3 X-7.1967 Y-59.8474 I2.043 J-3.4389
G2 X-3.9941 Y-65.2381 I-10.5698 J-9.9261
G3 X1.8482 Y-67.4259 I3.7993 J1.2512
G1 X2.0785 Y-67.289
G1 F100.0 X-1.8523 Y-67.6274
G3 F200.0 X1.8482 Y-67.4259 Z-4.4025 I1.6575 J3.6404
G1 X2.0785 Y-67.289 Z-4.5
G2 X-1.5264 Y-81.4465 I-19.8451 J-2.4845
G1 X-1.6632 Y-81.2162
G3 X-7.8404 Y-80.3434 I-3.4389 J-2.043
G2 X-13.2311 Y-83.546 I-9.9261 J10.5698
G3 X-15.4188 Y-89.3883 I1.2512 J-3.7993
G1 X-15.282 Y-89.6186
G2 X-29.4395 Y-86.0137 I-2.4845 J19.8451
G1 X-29.2092 Y-85.8769
G3 X-28.3364 Y-79.6997 I-2.043 J3.4389
G2 X-31.539 Y-74.309 I10.5698 J9.9261
G3 X-37.3813 Y-72.1213 I-3.7993 J-1.2512
G1 X-37.6116 Y-72.2581
G2 X-34.0067 Y-58.1006 I19.8451 J2.4845
G1 X-33.8698 Y-58.3309
G3 X-27.6927 Y-59.2037 I3.4389 J2.043
G2 X-22.302 Y-56.0011 I9.9261 J-10.5698
G3 X-20.1142 Y-50.1588 I-1.2512 J3.7993
G1 X-20.2511 Y-49.9285
G2 X-6.0936 Y-53.5334 I2.4845 J-19.8451
G1 X-6.3239 Y-53.6703
G3 X-7.1967 Y-59.8474 I2.043 J-3.4389
G2 X-3.9941 Y-65.2381 I-10.5698 J-9.9261
G3 X1.8482 Y-67.4259 I3.7993 J1.2512
G1 X2.0785 Y-67.289
G1 F100.0 X-1.8523 Y-67.6274
G3 F200.0 X1.8482 Y-67.4259 Z-5.9025 I1.6575 J3.6404
G1 X2.0785 Y-67.289 Z-6.0
G2 X-1.5264 Y-81.4465 I-19.8451 J-2.4845
G1 X-1.6632 Y-81.2162
G3 X-7.8404 Y-80.3434 I-3.4389 J-2.043
G2 X-13.2311 Y-83.546 I-9.9261 J10.5698
G3 X-15.4188 Y-89.3883 I1.2512 J-3.7993
G1 X-15.282 Y-89.6186
G2 X-29.4395 Y-86.0137 I-2.4845 J19.8451
G1 X-29.2092 Y-85.8769
G3 X-28.3364 Y-79.6997 I-2.043 J3.4389
G2 X-31.539 Y-74.309 I10.5698 J9.9261
G3 X-37.3813 Y-72.1213 I-3.7993 J-1.2512
G1 X-37.6116 Y-72.2581
G2 X-34.0067 Y-58.1006 I19.8451 J2.4845
G1 X-33.8698 Y-58.3309
G3 X-27.6927 Y-59.2037 I3.4389 J2.043
G2 X-22.302 Y-56.0011 I9.9261 J-10.5698
G3 X-20.1142 Y-50.1588 I-1.2512 J3.7993
G1 X-20.2511 Y-49.9285
G2 X-6.0936 Y-53.5334 I2.4845 J-19.8451
G1 X-6.3239 Y-53.6703
G3 X-7.1967 Y-59.8474 I2.043 J-3.4389
G2 X-3.9941 Y-65.2381 I-10.5698 J-9.9261
G3 X1.8482 Y-67.4259 I3.7993 J1.2512
G1 X2.0785 Y-67.289
G1 F100.0 X-1.8523 Y-67.6274
G3 F200.0 X1.8482 Y-67.4259 Z-7.4025 I1.6575 J3.6404
G1 X2.0785 Y-67.289 Z-7.5
G2 X-1.5264 Y-81.4465 I-19.8451 J-2.4845
G1 X-1.6632 Y-81.2162
G3 X-7.8404 Y-80.3434 I-3.4389 J-2.043
G2 X-13.2311 Y-83.546 I-9.9261 J10.5698
G3 X-15.4188 Y-89.3883 I1.2512 J-3.7993
G1 X-15.282 Y-89.6186
G2 X-29.4395 Y-86.0137 I-2.4845 J19.8451
G1 X-29.2092 Y-85.8769
G3 X-28.3364 Y-79.6997 I-2.043 J3.4389
G2 X-31.539 Y-74.309 I10.5698 J9.9261
G3 X-37.3813 Y-72.1213 I-3.7993 J-1.2512
G1 X-37.6116 Y-72.2581
G2 X-34.0067 Y-58.1006 I19.8451 J2.4845
G1 X-33.8698 Y-58.3309
G3 X-27.6927 Y-59.2037 I3.4389 J2.043
G2 X-22.302 Y-56.0011 I9.9261 J-10.5698
G3 X-20.1142 Y-50.1588 I-1.2512 J3.7993
G1 X-20.2511 Y-49.9285
G2 X-6.0936 Y-53.5334 I2.4845 J-19.8451
G1 X-6.3239 Y-53.6703
G3 X-7.1967 Y-59.8474 I2.043 J-3.4389
G2 X-3.9941 Y-65.2381 I-10.5698 J-9.9261
G3 X1.8482 Y-67.4259 I3.7993 J1.2512
G1 X2.0785 Y-67.289
G1 F100.0 X-1.8523 Y-67.6274
G3 F200.0 X1.8482 Y-67.4259 Z-8.9025 I1.6575 J3.6404
G1 X2.0785 Y-67.289 Z-9.0
G2 X-1.5264 Y-81.4465 I-19.8451 J-2.4845
G1 X-1.6632 Y-81.2162
G3 X-7.8404 Y-80.3434 I-3.4389 J-2.043
G2 X-13.2311 Y-83.546 I-9.9261 J10.5698
G3 X-15.4188 Y-89.3883 I1.2512 J-3.7993
G1 X-15.282 Y-89.6186
G2 X-29.4395 Y-86.0137 I-2.4845 J19.8451
G1 X-29.2092 Y-85.8769
G3 X-28.3364 Y-79.6997 I-2.043 J3.4389
G2 X-31.539 Y-74.309 I10.5698 J9.9261
G3 X-37.3813 Y-72.1213 I-3.7993 J-1.2512
G1 X-37.6116 Y-72.2581
G2 X-34.0067 Y-58.1006 I19.8451 J2.4845
G1 X-33.8698 Y-58.3309
G3 X-27.6927 Y-59.2037 I3.4389 J2.043
G2 X-22.302 Y-56.0011 I9.9261 J-10.5698
G3 X-20.1142 Y-50.1588 I-1.2512 J3.7993
G1 X-20.2511 Y-49.9285
G2 X-6.0936 Y-53.5334 I2.4845 J-19.8451
G1 X-6.3239 Y-53.6703
G3 X-7.1967 Y-59.8474 I2.043 J-3.4389
G2 X-3.9941 Y-65.2381 I-10.5698 J-9.9261
G3 X1.8482 Y-67.4259 I3.7993 J1.2512
G1 X2.0785 Y-67.289
G1 F100.0 X-1.8523 Y-67.6274
G3 F200.0 X1.8482 Y-67.4259 Z-10.4025 I1.6575 J3.6404
G1 X2.0785 Y-67.289 Z-10.5
G2 X-1.5264 Y-81.4465 I-19.8451 J-2.4845
G1 X-1.6632 Y-81.2162
G3 X-7.8404 Y-80.3434 I-3.4389 J-2.043
G2 X-13.2311 Y-83.546 I-9.9261 J10.5698
G3 X-15.4188 Y-89.3883 I1.2512 J-3.7993
G1 X-15.282 Y-89.6186
G2 X-29.4395 Y-86.0137 I-2.4845 J19.8451
G1 X-29.2092 Y-85.8769
G3 X-28.3364 Y-79.6997 I-2.043 J3.4389
G2 X-31.539 Y-74.309 I10.5698 J9.9261
G3 X-37.3813 Y-72.1213 I-3.7993 J-1.2512
G1 X-37.6116 Y-72.2581
G2 X-34.0067 Y-58.1006 I19.8451 J2.4845
G1 X-33.8698 Y-58.3309
G3 X-27.6927 Y-59.2037 I3.4389 J2.043
G2 X-22.302 Y-56.0011 I9.9261 J-10.5698
G3 X-20.1142 Y-50.1588 I-1.2512 J3.7993
G1 X-20.2511 Y-49.9285
G2 X-6.0936 Y-53.5334 I2.4845 J-19.8451
G1 X-6.3239 Y-53.6703
G3 X-7.1967 Y-59.8474 I2.043 J-3.4389
G2 X-3.9941 Y-65.2381 I-10.5698 J-9.9261
G3 X1.8482 Y-67.4259 I3.7993 J1.2512
G1 X2.0785 Y-67.289
G1 F100.0 X-0.5297 Y-67.9729
G3 F200.0 X1.8482 Y-67.4259 Z-11.4025 I0.3349 J3.986
G1 X2.0785 Y-67.289 Z-11.5
G2 X-1.5264 Y-81.4465 I-19.8451 J-2.4845
G1 X-1.6632 Y-81.2162
G3 X-7.8404 Y-80.3434 I-3.4389 J-2.043
G2 X-13.2311 Y-83.546 I-9.9261 J10.5698
G3 X-15.4188 Y-89.3883 I1.2512 J-3.7993
G1 X-15.282 Y-89.6186
G2 X-29.4395 Y-86.0137 I-2.4845 J19.8451
G1 X-29.2092 Y-85.8769
G3 X-28.3364 Y-79.6997 I-2.043 J3.4389
G2 X-31.539 Y-74.309 I10.5698 J9.9261
G3 X-37.3813 Y-72.1213 I-3.7993 J-1.2512
G1 X-37.6116 Y-72.2581
G2 X-34.0067 Y-58.1006 I19.8451 J2.4845
G1 X-33.8698 Y-58.3309
G3 X-27.6927 Y-59.2037 I3.4389 J2.043
G2 X-22.302 Y-56.0011 I9.9261 J-10.5698
G3 X-20.1142 Y-50.1588 I-1.2512 J3.7993
G1 X-20.2511 Y-49.9285
G2 X-6.0936 Y-53.5334 I2.4845 J-19.8451
G1 X-6.3239 Y-53.6703
G3 X-7.1967 Y-59.8474 I2.043 J-3.4389
G2 X-3.9941 Y-65.2381 I-10.5698 J-9.9261
G3 X1.8482 Y-67.4259 I3.7993 J1.2512
G1 X2.0785 Y-67.289
G0 Z3.0
G0 X-46.1369 Y-49.4801
G0 Z0.1
G1 F100.0 Z0.0
G3 F200.0 X-43.229 Y-51.7776 Z-1.4025 I3.6516 J1.6328
G1 X-42.9657 Y-51.8274 Z-1.5
G2 X-55.0365 Y-60.0571 I-16.5234 J11.2683
G1 X-54.9867 Y-59.7938
G3 X-59.0407 Y-55.0521 I-3.9303 J0.7436
G2 X-65.2016 Y-53.8864 I-0.4485 J14.4931
G3 X-70.7077 Y-56.8193 I-1.5758 J-3.6765
G1 X-70.7575 Y-57.0825
G2 X-78.9872 Y-45.0118 I11.2683 J16.5234
G1 X-78.724 Y-45.0616
G3 X-73.9823 Y-41.0076 I0.7436 J3.9303
G2 X-72.8165 Y-34.8466 I14.4931 J0.4485
G3 X-75.7494 Y-29.3405 I-3.6765 J1.5758
G1 X-76.0126 Y-29.2907
G2 X-63.9419 Y-21.061 I16.5234 J-11.2683
G1 X-63.9917 Y-21.3243
G3 X-59.9377 Y-26.066 I3.9303 J-0.7436
G2 X-53.7768 Y-27.2317 I0.4485 J-14.4931
G3 X-48.2707 Y-24.2988 I1.5758 J3.6765
G1 X-48.2208 Y-24.0356
G2 X-39.9912 Y-36.1063 I-11.2683 J-16.5234
G1 X-40.2544 Y-36.0565
G3 X-44.9961 Y-40.1105 I-0.7436 J-3.9303
G2 X-46.1618 Y-46.2715 I-14.4931 J-0.4485
G3 X-43.229 Y-51.7776 I3.6765 J-1.5758
G1 X-42.9657 Y-51.8274
G1 F100.0 X-46.1369 Y-49.4801
G3 F200.0 X-43.229 Y-51.7776 Z-2.9025 I3.6516 J1.6328
G1 X-42.9657 Y-51.8274 Z-3.0
G2 X-55.0365 Y-60.0571 I-16.5234 J11.2683
G1 X-54.9867 Y-59.7938
G3 X-59.0407 Y-55.0521 I-3.9303 J0.7436
G2 X-65.2016 Y-53.8864 I-0.4485 J14.4931
G3 X-70.7077 Y-56.8193 I-1.5758 J-3.6765
G1 X-70.7575 Y-57.0825
G2 X-78.9872 Y-45.0118 I11.2683 J16.5234
G1 X-78.724 Y-45.0616
G3 X-73.9823 Y-41.0076 I0.7436 J3.9303
G2 X-72.8165 Y-34.8466 I14.4931 J0.4485
G3 X-75.7494 Y-29.3405 I-3.6765 J1.5758
G1 X-76.0126 Y-29.2907
G2 X-63.9419 Y-21.061 I16.5234 J-11.2683
G1 X-63.9917 Y-21.3243
G3 X-59.9377 Y-26.066 I3.9303 J-0.7436
G2 X-53.7768 Y-27.2317 I0.4485 J-14.4931
G3 X-48.2707 Y-24.2988 I1.5758 J3.6765
G1 X-48.2208 Y-24.0356
G2 X-39.9912 Y-36.1063 I-11.2683 J-16.5234
G1 X-40.2544 Y-36.0565
G3 X-44.9961 Y-40.1105 I-0.7436 J-3.9303
G2 X-46.1618 Y-46.2715 I-14.4931 J-0.4485
G3 X-43.229 Y-51.7776 I3.6765 J-1.5758
G1 X-42.9657 Y-51.8274
G1 F100.0 X-46.1369 Y-49.4801
G3 F200.0 X-43.229 Y-51.7776 Z-4.4025 I3.6516 J1.6328
G1 X-42.9657 Y-51.8274 Z-4.5
G2 X-55.0365 Y-60.0571 I-16.5234 J11.2683
G1 X-54.9867 Y-59.7938
G3 X-59.0407 Y-55.0521 I-3.9303 J0.7436
G2 X-65.2016 Y-53.8864 I-0.4485 J14.4931
G3 X-70.7077 Y-56.8193 I-1.5758 J-3.6765
G1 X-70.7575 Y-57.0825
G2 X-78.9872 Y-45.0118 I11.2683 J16.5234
G1 X-78.724 Y-45.0616
G3 X-73.9823 Y-41.0076 I0.7436 J3.9303
G2 X-72.8165 Y-34.8466 I14.4931 J0.4485
G3 X-75.7494 Y-29.3405 I-3.6765 J1.5758
G1 X-76.0126 Y-29.2907
G2 X-63.9419 Y-21.061 I16.5234 J-11.2683
G1 X-63.9917 Y-21.3243
G3 X-59.9377 Y-26.066 I3.9303 J-0.7436
G2 X-53.7768 Y-27.2317 I0.4485 J-14.4931
G3 X-48.2707 Y-24.2988 I1.5758 J3.6765
G1 X-48.2208 Y-24.0356
G2 X-39.9912 Y-36.1063 I-11.2683 J-16.5234
G1 X-40.2544 Y-36.0565
G3 X-44.9961 Y-40.1105 I-0.7436 J-3.9303
G2 X-46.1618 Y-46.2715 I-14.4931 J-0.4485
G3 X-43.229 Y-51.7776 I3.6765 J-1.5758
G1 X-42.9657 Y-51.8274
G1 F100.0 X-46.1369 Y-49.4801
G3 F200.0 X-43.229 Y-51.7776 Z-5.9025 I3.6516 J1.6328
G1 X-42.9657 Y-51.8274 Z-6.0
G2 X-55.0365 Y-60.0571 I-16.5234 J11.2683
G1 X-54.9867 Y-59.7938
G3 X-59.0407 Y-55.0521 I-3.9303 J0.7436
G2 X-65.2016 Y-53.8864 I-0.4485 J14.4931
G3 X-70.7077 Y-56.8193 I-1.5758 J-3.6765
G1 X-70.7575 Y-57.0825
G2 X-78.9872 Y-45.0118 I11.2683 J16.5234
G1 X-78.724 Y-45.0616
G3 X-73.9823 Y-41.0076 I0.7436 J3.9303
G2 X-72.8165 Y-34.8466 I14.4931 J0.4485
G3 X-75.7494 Y-29.3405 I-3.6765 J1.5758
G1 X-76.0126 Y-29.2907
G2 X-63.9419 Y-21.061 I16.5234 J-11.2683
G1 X-63.9917 Y-21.3243
G3 X-59.9377 Y-26.066 I3.9303 J-0.7436
G2 X-53.7768 Y-27.2317 I0.4485 J-14.4931
G3 X-48.2707 Y-24.2988 I1.5758 J3.6765
G1 X-48.2208 Y-24.0356
G2 X-39.9912 Y-36.1063 I-11.2683 J-16.5234
G1 X-40.2544 Y-36.0565
G3 X-44.9961 Y-40.1105 I-0.7436 J-3.9303
G2 X-46.1618 Y-46.2715 I-14.4931 J-0.4485
G3 X-43.229 Y-51.7776 I3.6765 J-1.5758
G1 X-42.9657 Y-51.8274
G1 F100.0 X-46.1369 Y-49.4801
G3 F200.0 X-43.229 Y-51.7776 Z-7.4025 I3.6516 J1.6328
G1 X-42.9657 Y-51.8274 Z-7.5
G2 X-55.0365 Y-60.0571 I-16.5234 J11.2683
G1 X-54.9867 Y-59.7938
G3 X-59.0407 Y-55.0521 I-3.9303 J0.7436
G2 X-65.2016 Y-53.8864 I-0.4485 J14.4931
G3 X-70.7077 Y-56.8193 I-1.5758 J-3.6765
G1 X-70.7575 Y-57.0825
G2 X-78.9872 Y-45.0118 I11.2683 J16.5234
G1 X-78.724 Y-45.0616
G3 X-73.9823 Y-41.0076 I0.7436 J3.9303
G2 X-72.8165 Y-34.8466 I14.4931 J0.4485
G3 X-75.7494 Y-29.3405 I-3.6765 J1.5758
G1 X-76.0126 Y-29.2907
G2 X-63.9419 Y-21.061 I16.5234 J-11.2683
G1 X-63.9917 Y-21.3243
G3 X-59.9377 Y-26.066 I3.9303 J-0.7436
G2 X-53.7768 Y-27.2317 I0.4485 J-14.4931
G3 X-48.2707 Y-24.2988 I1.5758 J3.6765
G1 X-48.2208 Y-24.0356
G2 X-39.9912 Y-36.1063 I-11.2683 J-16.5234
G1 X-40.2544 Y-36.0565
G3 X-44.9961 Y-40.1105 I-0.7436 J-3.9303
G2 X-46.1618 Y-46.2715 I-14.4931 J-0.4485
G3 X-43.229 Y-51.7776 I3.6765 J-1.5758
G1 X-42.9657 Y-51.8274
G1 F100.0 X-46.1369 Y-49.4801
G3 F200.0 X-43.229 Y-51.7776 Z-8.9025 I3.6516 J1.6328
G1 X-42.9657 Y-51.8274 Z-9.0
G2 X-55.0365 Y-60.0571 I-16.5234 J11.2683
G1 X-54.9867 Y-59.7938
G3 X-59.0407 Y-55.0521 I-3.9303 J0.7436
G2 X-65.2016 Y-53.8864 I-0.4485 J14.4931
G3 X-70.7077 Y-56.8193 I-1.5758 J-3.6765
G1 X-70.7575 Y-57.0825
G2 X-78.9872 Y-45.0118 I11.2683 J16.5234
G1 X-78.724 Y-45.0616
G3 X-73.9823 Y-41.0076 I0.7436 J3.9303
G2 X-72.8165 Y-34.8466 I14.4931 J0.4485
G3 X-75.7494 Y-29.3405 I-3.6765 J1.5758
G1 X-76.0126 Y-29.2907
G2 X-63.9419 Y-21.061 I16.5234 J-11.2683
G1 X-63.9917 Y-21.3243
G3 X-59.9377 Y-26.066 I3.9303 J-0.7436
G2 X-53.7768 Y-27.2317 I0.4485 J-14.4931
G3 X-48.2707 Y-24.2988 I1.5758 J3.6765
G1 X-48.2208 Y-24.0356
G2 X-39.9912 Y-36.1063 I-11.2683 J-16.5234
G1 X-40.2544 Y-36.0565
G3 X-44.9961 Y-40.1105 I-0.7436 J-3.9303
G2 X-46.1618 Y-46.2715 I-14.4931 J-0.4485
G3 X-43.229 Y-51.7776 I3.6765 J-1.5758
G1 X-42.9657 Y-51.8274
G1 F100.0 X-46.1369 Y-49.4801
G3 F200.0 X-43.229 Y-51.7776 Z-10.4025 I3.6516 J1.6328
G1 X-42.9657 Y-51.8274 Z-10.5
G2 X-55.0365 Y-60.0571 I-16.5234 J11.2683
G1 X-54.9867 Y-59.7938
G3 X-59.0407 Y-55.0521 I-3.9303 J0.7436
G2 X-65.2016 Y-53.8864 I-0.4485 J14.4931
G3 X-70.7077 Y-56.8193 I-1.5758 J-3.6765
G1 X-70.7575 Y-57.0825
G2 X-78.9872 Y-45.0118 I11.2683 J16.5234
G1 X-78.724 Y-45.0616
G3 X-73.9823 Y-41.0076 I0.7436 J3.9303
G2 X-72.8165 Y-34.8466 I14.4931 J0.4485
G3 X-75.7494 Y-29.3405 I-3.6765 J1.5758
G1 X-76.0126 Y-29.2907
G2 X-63.9419 Y-21.061 I16.5234 J-11.2683
G1 X-63.9917 Y-21.3243
G3 X-59.9377 Y-26.066 I3.9303 J-0.7436
G2 X-53.7768 Y-27.2317 I0.4485 J-14.4931
G3 X-48.2707 Y-24.2988 I1.5758 J3.6765
G1 X-48.2208 Y-24.0356
G2 X-39.9912 Y-36.1063 I-11.2683 J-16.5234
G1 X-40.2544 Y-36.0565
G3 X-44.9961 Y-40.1105 I-0.7436 J-3.9303
G2 X-46.1618 Y-46.2715 I-14.4931 J-0.4485
G3 X-43.229 Y-51.7776 I3.6765 J-1.5758
G1 X-42.9657 Y-51.8274
G1 F100.0 X-45.3739 Y-50.6143
G3 F200.0 X-43.229 Y-51.7776 Z-11.4025 I2.8886 J2.767
G1 X-42.9657 Y-51.8274 Z-11.5
G2 X-55.0365 Y-60.0571 I-16.5234 J11.2683
G1 X-54.9867 Y-59.7938
G3 X-59.0407 Y-55.0521 I-3.9303 J0.7436
G2 X-65.2016 Y-53.8864 I-0.4485 J14.4931
G3 X-70.7077 Y-56.8193 I-1.5758 J-3.6765
G1 X-70.7575 Y-57.0825
G2 X-78.9872 Y-45.0118 I11.2683 J16.5234
G1 X-78.724 Y-45.0616
G3 X-73.9823 Y-41.0076 I0.7436 J3.9303
G2 X-72.8165 Y-34.8466 I14.4931 J0.4485
G3 X-75.7494 Y-29.3405 I-3.6765 J1.5758
G1 X-76.0126 Y-29.2907
G2 X-63.9419 Y-21.061 I16.5234 J-11.2683
G1 X-63.9917 Y-21.3243
G3 X-59.9377 Y-26.066 I3.9303 J-0.7436
G2 X-53.7768 Y-27.2317 I0.4485 J-14.4931
G3 X-48.2707 Y-24.2988 I1.5758 J3.6765
G1 X-48.2208 Y-24.0356
G2 X-39.9912 Y-36.1063 I-11.2683 J-16.5234
G1 X-40.2544 Y-36.0565
G3 X-44.9961 Y-40.1105 I-0.7436 J-3.9303
G2 X-46.1618 Y-46.2715 I-14.4931 J-0.4485
G3 X-43.229 Y-51.7776 I3.6765 J-1.5758
G1 X-42.9657 Y-51.8274
G0 Z3.0
G0 X-67.3329 Y-6.5711
G0 Z0.1
G1 F100.0 Z0.0
G3 F200.0 X-66.6728 Y-10.2179 Z-1.4025 I3.8183 J-1.192
G1 X-66.5084 Y-10.4294 Z-1.5
G2 X-81.0042 Y-8.6128 I-4.9329 J19.3821
G1 X-80.7927 Y-8.4484
G3 X-80.6948 Y-2.2107 I-2.4548 J3.1582
G2 X-84.5428 Y2.74 I9.2536 J11.1634
G3 X-90.6118 Y4.1843 I-3.6142 J-1.7139
G1 X-90.8233 Y4.0199
G2 X-89.0068 Y18.5158 I19.3821 J4.9329
G1 X-88.8424 Y18.3042
G3 X-82.6046 Y18.2063 I3.1582 J2.4548
G2 X-77.654 Y22.0543 I11.1634 J-9.2536
G3 X-76.2097 Y28.1233 I-1.7139 J3.6142
G1 X-76.3741 Y28.3349
G2 X-61.8782 Y26.5183 I4.9329 J-19.3821
G1 X-62.0897 Y26.3539
G3 X-62.1877 Y20.1162 I2.4548 J-3.1582
G2 X-58.3396 Y15.1655 I-9.2536 J-11.1634
G3 X-52.2706 Y13.7212 I3.6142 J1.7139
G1 X-52.0591 Y13.8856
G2 X-53.8757 Y-0.6103 I-19.3821 J-4.9329
G1 X-54.0401 Y-0.3987
G3 X-60.2778 Y-0.3008 I-3.1582 J-2.4548
G2 X-65.2285 Y-4.1488 I-11.1634 J9.2536
G3 X-66.6728 Y-10.2179 I1.7139 J-3.6142
G1 X-66.5084 Y-10.4294
G1 F100.0 X-67.3329 Y-6.5711
G3 F200.0 X-66.6728 Y-10.2179 Z-2.9025 I3.8183 J-1.192
G1 X-66.5084 Y-10.4294 Z-3.0
G2 X-81.0042 Y-8.6128 I-4.9329 J19.3821
G1 X-80.7927 Y-8.4484
G3 X-80.6948 Y-2.2107 I-2.4548 J3.1582
G2 X-84.5428 Y2.74 I9.2536 J11.1634
G3 X-90.6118 Y4.1843 I-3.6142 J-1.7139
G1 X-90.8233 Y4.0199
G2 X-89.0068 Y18.5158 I19.3821 J4.9329
G1 X-88.8424 Y18.3042
G3 X-82.6046 Y18.2063 I3.1582 J2.4548
G2 X-77.654 Y22.0543 I11.1634 J-9.2536
G3 X-76.2097 Y28.1233 I-1.7139 J3.6142
G1 X-76.3741 Y28.3349
G2 X-61.8782 Y26.5183 I4.9329 J-19.3821
G1 X-62.0897 Y26.3539
G3 X-62.1877 Y20.1162 I2.4548 J-3.1582
G2 X-58.3396 Y15.1655 I-9.2536 J-11.1634
G3 X-52.2706 Y13.7212 I3.6142 J1.7139
G1 X-52.0591 Y13.8856
G2 X-53.8757 Y-0.6103 I-19.3821 J-4.9329
G1 X-54.0401 Y-0.3987
G3 X-60.2778 Y-0.3008 I-3.1582 J-2.4548
G2 X-65.2285 Y-4.1488 I-11.1634 J9.2536
G3 X-66.6728 Y-10.2179 I1.7139 J-3.6142
G1 X-66.5084 Y-10.4294
G1 F100.0 X-67.3329 Y-6.5711
G3 F200.0 X-66.6728 Y-10.2179 Z-4.4025 I3.8183 J-1.192
G1 X-66.5084 Y-10.4294 Z-4.5
G2 X-81.0042 Y-8.6128 I-4.9329 J19.3821
G1 X-80.7927 Y-8.4484
G3 X-80.6948 Y-2.2107 I-2.4548 J3.1582
G2 X-84.5428 Y2.74 I9.2536 J11.1634
G3 X-90.6118 Y4.1843 I-3.6142 J-1.7139
G1 X-90.8233 Y4.0199
G2 X-89.0068 Y18.5158 I19.3821 J4.9329
G1 X-88.8424 Y18.3042
G3 X-82.6046 Y18.2063 I3.1582 J2.4548
G2 X-77.654 Y22.0543 I11.1634 J-9.2536
G3 X-76.2097 Y28.1233 I-1.7139 J3.6142
G1 X-76.3741 Y28.3349
G2 X-61.8782 Y26.5183 I4.9329 J-19.3821
G1 X-62.0897 Y26.3539
G3 X-62.1877 Y20.1162 I2.4548 J-3.1582
G2 X-58.3396 Y15.1655 I-9.2536 J-11.1634
G3 X-52.2706 Y13.7212 I3.6142 J1.7139
G1 X-52.0591 Y13.8856
G2 X-53.8757 Y-0.6103 I-19.3821 J-4.9329
G1 X-54.0401 Y-0.3987
G3 X-60.2778 Y-0.3008 I-3.1582 J-2.4548
G2 X-65.2285 Y-4.1488 I-11.1634 J9.2536
G3 X-66.6728 Y-10.2179 I1.7139 J-3.6142
G1 X-66.5084 Y-10.4294
G1 F100.0 X-67.3329 Y-6.5711
G3 F200.0 X-66.6728 Y-10.2179 Z-5.9025 I3.8183 J-1.192
G1 X-66.5084 Y-10.4294 Z-6.0
G2 X-81.0042 Y-8.6128 I-4.9329 J19.3821
G1 X-80.7927 Y-8.4484
G3 X-80.6948 Y-2.2107 I-2.4548 J3.1582
G2 X-84.5428 Y2.74 I9.2536 J11.1634
G3 X-90.6118 Y4.1843 I-3.6142 J-1.7139
G1 X-90.8233 Y4.0199
G2 X-89.0068 Y18.5158 I19.3821 J4.9329
G1 X-88.8424 Y18.3042
G3 X-82.6046 Y18.2063 I3.1582 J2.4548
G2 X-77.654 Y22.0543 I11.1634 J-9.2536
G3 X-76.2097 Y28.1233 I-1.7139 J3.6142
G1 X-76.3741 Y28.3349
G2 X-61.8782 Y26.5183 I4.9329 J-19.3821
G1 X-62.0897 Y26.3539
G3 X-62.1877 Y20.1162 I2.4548 J-3.1582
G2 X-58.3396 Y15.1655 I-9.2536 J-11.1634
G3 X-52.2706 Y13.7212 I3.6142 J1.7139
G1 X-52.0591 Y13.8856
G2 X-53.8757 Y-0.6103 I-19.3821 J-4.9329
G1 X-54.0401 Y-0.3987
G3 X-60.2778 Y-0.3008 I-3.1582 J-2.4548
G2 X-65.2285 Y-4.1488 I-11.1634 J9.2536
G3 X-66.6728 Y-10.2179 I1.7139 J-3.6142
G1 X-66.5084 Y-10.4294
G1 F100.0 X-67.3329 Y-6.5711
G3 F200.0 X-66.6728 Y-10.2179 Z-7.4025 I3.8183 J-1.192
G1 X-66.5084 Y-10.4294 Z-7.5
G2 X-81.0042 Y-8.6128 I-4.9329 J19.3821
G1 X-80.7927 Y-8.4484
G3 X-80.6948 Y-2.2107 I-2.4548 J3.1582
G2 X-84.5428 Y2.74 I9.2536 J11.1634
G3 X-90.6118 Y4.1843 I-3.6142 J-1.7139
G1 X-90.8233 Y4.0199
G2 X-89.0068 Y18.5158 I19.3821 J4.9329
G1 X-88.8424 Y18.3042
G3 X-82.6046 Y18.2063 I3.1582 J2.4548
G2 X-77.654 Y22.0543 I11.1634 J-9.2536
G3 X-76.2097 Y28.1233 I-1.7139 J3.6142
G1 X-76.3741 Y28.3349
G2 X-61.8782 Y26.5183 I4.9329 J-19.3821
G1 X-62.0897 Y26.3539
G3 X-62.1877 Y20.1162 I2.4548 J-3.1582
G2 X-58.3396 Y15.1655 I-9.2536 J-11.1634
G3 X-52.2706 Y13.7212 I3.6142 J1.7139
G1 X-52.0591 Y13.8856
G2 X-53.8757 Y-0.6103 I-19.3821 J-4.9329
G1 X-54.0401 Y-0.3987
G3 X-60.2778 Y-0.3008 I-3.1582 J-2.4548
G2 X-65.2285 Y-4.1488 I-11.1634 J9.2536
G3 X-66.6728 Y-10.2179 I1.7139 J-3.6142
G1 X-66.5084 Y-10.4294
G1 F100.0 X-67.3329 Y-6.5711
G3 F200.0 X-66.6728 Y-10.2179 Z-8.9025 I3.8183 J-1.192
G1 X-66.5084 Y-10.4294 Z-9.0
G2 X-81.0042 Y-8.6128 I-4.9329 J19.3821
G1 X-80.7927 Y-8.4484
G3 X-80.6948 Y-2.2107 I-2.4548 J3.1582
G2 X-84.5428 Y2.74 I9.2536 J11.1634
G3 X-90.6118 Y4.1843 I-3.6142 J-1.7139
G1 X-90.8233 Y4.0199
G2 X-89.0068 Y18.5158 I19.3821 J4.9329
G1 X-88.8424 Y18.3042
G3 X-82.6046 Y18.2063 I3.1582 J2.4548
G2 X-77.654 Y22.0543 I11.1634 J-9.2536
G3 X-76.2097 Y28.1233 I-1.7139 J3.6142
G1 X-76.3741 Y28.3349
G2 X-61.8782 Y26.5183 I4.9329 J-19.3821
G1 X-62.0897 Y26.3539
G3 X-62.1877 Y20.1162 I2.4548 J-3.1582
G2 X-58.3396 Y15.1655 I-9.2536 J-11.1634
G3 X-52.2706 Y13.7212 I3.6142 J1.7139
G1 X-52.0591 Y13.8856
G2 X-53.8757 Y-0.6103 I-19.3821 J-4.9329
G1 X-54.0401 Y-0.3987
G3 X-60.2778 Y-0.3008 I-3.1582 J-2.4548
G2 X-65.2285 Y-4.1488 I-11.1634 J9.2536
G3 X-66.6728 Y-10.2179 I1.7139 J-3.6142
G1 X-66.5084 Y-10.4294
G1 F100.0 X-67.3329 Y-6.5711
G3 F200.0 X-66.6728 Y-10.2179 Z-10.4025 I3.8183 J-1.192
G1 X-66.5084 Y-10.4294 Z-10.5
G2 X-81.0042 Y-8.6128 I-4.9329 J19.3821
G1 X-80.7927 Y-8.4484
G3 X-80.6948 Y-2.2107 I-2.4548 J3.1582
G2 X-84.5428 Y2.74 I9.2536 J11.1634
G3 X-90.6118 Y4.1843 I-3.6142 J-1.7139
G1 X-90.8233 Y4.0199
G2 X-89.0068 Y18.5158 I19.3821 J4.9329
G1 X-88.8424 Y18.3042
G3 X-82.6046 Y18.2063 I3.1582 J2.4548
G2 X-77.654 Y22.0543 I11.1634 J-9.2536
G3 X-76.2097 Y28.1233 I-1.7139 J3.6142
G1 X-76.3741 Y28.3349
G2 X-61.8782 Y26.5183 I4.9329 J-19.3821
G1 X-62.0897 Y26.3539
G3 X-62.1877 Y20.1162 I2.4548 J-3.1582
G2 X-58.3396 Y15.1655 I-9.2536 J-11.1634
G3 X-52.2706 Y13.7212 I3.6142 J1.7139
G1 X-52.0591 Y13.8856
G2 X-53.8757 Y-0.6103 I-19.3821 J-4.9329
G1 X-54.0401 Y-0.3987
G3 X-60.2778 Y-0.3008 I-3.1582 J-2.4548
G2 X-65.2285 Y-4.1488 I-11.1634 J9.2536
G3 X-66.6728 Y-10.2179 I1.7139 J-3.6142
G1 X-66.5084 Y-10.4294
G1 F100.0 X-67.5113 Y-7.9264
G3 F200.0 X-66.6728 Y-10.2179 Z-11.4025 I3.9967 J0.1633
G1 X-66.5084 Y-10.4294 Z-11.5
G2 X-81.0042 Y-8.6128 I-4.9329 J19.3821
G1 X-80.7927 Y-8.4484
G3 X-80.6948 Y-2.2107 I-2.4548 J3.1582
G2 X-84.5428 Y2.74 I9.2536 J11.1634
G3 X-90.6118 Y4.1843 I-3.6142 J-1.7139
G1 X-90.8233 Y4.0199
G2 X-89.0068 Y18.5158 I19.3821 J4.9329
G1 X-88.8424 Y18.3042
G3 X-82.6046 Y18.2063 I3.1582 J2.4548
G2 X-77.654 Y22.0543 I11.1634 J-9.2536
G3 X-76.2097 Y28.1233 I-1.7139 J3.6142
G1 X-76.3741 Y28.3349
G2 X-61.8782 Y26.5183 I4.9329 J-19.3821
G1 X-62.0897 Y26.3539
G3 X-62.1877 Y20.1162 I2.4548 J-3.1582
G2 X-58.3396 Y15.1655 I-9.2536 J-11.1634
G3 X-52.2706 Y13.7212 I3.6142 J1.7139
G1 X-52.0591 Y13.8856
G2 X-53.8757 Y-0.6103 I-19.3821 J-4.9329
G1 X-54.0401 Y-0.3987
G3 X-60.2778 Y-0.3008 I-3.1582 J-2.4548
G2 X-65.2285 Y-4.1488 I-11.1634 J9.2536
G3 X-66.6728 Y-10.2179 I1.7139 J-3.6142
G1 X-66.5084 Y-10.4294
( Pocket1 )
S1000
G0 Z3.0
G0 X-79.2318 Y41.3271
G0 Z0.1
G1 F100.0 Z0.0
G2 F200.0 X-79.972 Y41.3584 Z-0.2803 I-0.3401 J0.7241
G2 Y42.744 Z-0.8902 I0.4 J0.6928
G2 X-78.772 Y42.0512 Z-1.5 I0.4 J-0.6928
G2 X-79.972 Y41.3584 I-0.8 J0.0
G2 Y42.744 I0.4 J0.6928
G2 X-78.772 Y42.0512 I0.4 J-0.6928
G1 F100.0 X-77.572
G2 F200.0 X-80.572 Y40.3191 I-2.0 J0.0
G2 Y43.7833 I1.0 J1.7321
G2 X-77.572 Y42.0512 I1.0 J-1.7321
G1 F100.0 X-80.3379 Y41.8203
G2 F200.0 X-79.972 Y42.744 Z-1.8902 I0.766 J0.2309
G2 X-78.772 Y42.0512 Z-2.5 I0.4 J-0.6928
G2 X-79.972 Y41.3584 I-0.8 J0.0
G2 Y42.744 I0.4 J0.6928
G2 X-78.772 Y42.0512 I0.4 J-0.6928
G1 F100.0 X-77.572
G2 F200.0 X-80.572 Y40.3191 I-2.0 J0.0
G2 Y43.7833 I1.0 J1.7321
G2 X-77.572 Y42.0512 I1.0 J-1.7321
G1 F100.0 X-80.3379 Y41.8203
G2 F200.0 X-79.972 Y42.744 Z-2.8902 I0.766 J0.2309
G2 X-78.772 Y42.0512 Z-3.5 I0.4 J-0.6928
G2 X-79.972 Y41.3584 I-0.8 J0.0
G2 Y42.744 I0.4 J0.6928
G2 X-78.772 Y42.0512 I0.4 J-0.6928
G1 F100.0 X-77.572
G2 F200.0 X-80.572 Y40.3191 I-2.0 J0.0
G2 Y43.7833 I1.0 J1.7321
G2 X-77.572 Y42.0512 I1.0 J-1.7321
G0 Z3.0
G0 X-24.8466 Y25.5427
G0 Z0.1
G1 F100.0 Z0.0
G2 F200.0 X-23.9487 Y24.7487 Z-0.4931 I0.0978 J-0.794
G2 X-25.1487 Y24.0559 Z-1.1029 I-0.8 J0.0
G2 X-25.509 Y24.9978 Z-1.5 I0.4 J0.6928
G2 X-25.1487 Y25.4416 I0.7603 J-0.249
G2 X-23.9487 Y24.7487 I0.4 J-0.6928
G2 X-25.1487 Y24.0559 I-0.8 J0.0
G2 X-25.509 Y24.9978 I0.4 J0.6928
G1 F100.0 X-26.6494 Y25.3713
G2 F200.0 X-25.7487 Y26.4808 I1.9006 J-0.6226
G2 X-22.7487 Y24.7487 I1.0 J-1.7321
G2 X-25.7487 Y23.0167 I-2.0 J0.0
G2 X-26.6494 Y25.3713 I1.0 J1.7321
G1 F100.0 X-23.949 Y24.7297
G2 F200.0 X-25.1487 Y24.0559 Z-2.1029 I-0.7998 J0.019
G2 X-25.509 Y24.9978 Z-2.5 I0.4 J0.6928
G2 X-25.1487 Y25.4416 I0.7603 J-0.249
G2 X-23.9487 Y24.7487 I0.4 J-0.6928
G2 X-25.1487 Y24.0559 I-0.8 J0.0
G2 X-25.509 Y24.9978 I0.4 J0.6928
G1 F100.0 X-26.6494 Y25.3713
G2 F200.0 X-25.7487 Y26.4808 I1.9006 J-0.6226
G2 X-22.7487 Y24.7487 I1.0 J-1.7321
G2 X-25.7487 Y23.0167 I-2.0 J0.0
G2 X-26.6494 Y25.3713 I1.0 J1.7321
G1 F100.0 X-23.949 Y24.7297
G2 F200.0 X-25.1487 Y24.0559 Z-3.1029 I-0.7998 J0.019
G2 X-25.509 Y24.9978 Z-3.5 I0.4 J0.6928
G2 X-25.1487 Y25.4416 I0.7603 J-0.249
G2 X-23.9487 Y24.7487 I0.4 J-0.6928
G2 X-25.1487 Y24.0559 I-0.8 J0.0
G2 X-25.509 Y24.9978 I0.4 J0.6928
G1 F100.0 X-26.6494 Y25.3713
G2 F200.0 X-25.7487 Y26.4808 I1.9006 J-0.6226
G2 X-22.7487 Y24.7487 I1.0 J-1.7321
G2 X-25.7487 Y23.0167 I-2.0 J0.0
G2 X-26.6494 Y25.3713 I1.0 J1.7321
G0 Z3.0
G0 X-24.038 Y-24.3814
G0 Z0.1
G1 F100.0 Z0.0
G2 F200.0 X-23.9487 Y-24.7487 Z-0.1389 I-0.7107 J-0.3673
G2 X-25.1487 Y-25.4416 Z-0.7487 I-0.8 J0.0
G2 Y-24.0559 Z-1.3586 I0.4 J0.6928
G2 X-24.7791 Y-23.9493 Z-1.5 I0.4 J-0.6928
G2 X-23.9487 Y-24.7487 I0.0303 J-0.7994
G2 X-25.1487 Y-25.4416 I-0.8 J0.0
G2 Y-24.0559 I0.4 J0.6928
G2 X-24.7791 Y-23.9493 I0.4 J-0.6928
G1 F100.0 X-24.8245 Y-22.7502
G2 F200.0 X-22.7487 Y-24.7487 I0.0758 J-1.9986
G2 X-25.7487 Y-26.4808 I-2.0 J0.0
G2 Y-23.0167 I1.0 J1.7321
G2 X-24.8245 Y-22.7502 I1.0 J-1.7321
G1 F100.0 X-24.489 Y-25.5054
G2 F200.0 X-25.1487 Y-25.4416 Z-1.7487 I-0.2597 J0.7567
G2 Y-24.0559 Z-2.3586 I0.4 J0.6928
G2 X-24.7791 Y-23.9493 Z-2.5 I0.4 J-0.6928
G2 X-23.9487 Y-24.7487 I0.0303 J-0.7994
G2 X-25.1487 Y-25.4416 I-0.8 J0.0
G2 Y-24.0559 I0.4 J0.6928
G2 X-24.7791 Y-23.9493 I0.4 J-0.6928
G1 F100.0 X-24.8245 Y-22.7502
G2 F200.0 X-22.7487 Y-24.7487 I0.0758 J-1.9986
G2 X-25.7487 Y-26.4808 I-2.0 J0.0
G2 Y-23.0167 I1.0 J1.7321
G2 X-24.8245 Y-22.7502 I1.0 J-1.7321
G1 F100.0 X-24.489 Y-25.5054
G2 F200.0 X-25.1487 Y-25.4416 Z-2.7487 I-0.2597 J0.7567
G2 Y-24.0559 Z-3.3586 I0.4 J0.6928
G2 X-24.7791 Y-23.9493 Z-3.5 I0.4 J-0.6928
G2 X-23.9487 Y-24.7487 I0.0303 J-0.7994
G2 X-25.1487 Y-25.4416 I-0.8 J0.0
G2 Y-24.0559 I0.4 J0.6928
G2 X-24.7791 Y-23.9493 I0.4 J-0.6928
G1 F100.0 X-24.8245 Y-22.7502
G2 F200.0 X-22.7487 Y-24.7487 I0.0758 J-1.9986
G2 X-25.7487 Y-26.4808 I-2.0 J0.0
G2 Y-23.0167 I1.0 J1.7321
G2 X-24.8245 Y-22.7502 I1.0 J-1.7321
G0 Z3.0
G0 X24.4381 Y-24.0115
G0 Z0.1
G1 F100.0 Z0.0
G2 F200.0 X25.5487 Y-24.7487 Z-0.5735 I0.3107 J-0.7372
G2 X24.3487 Y-25.4416 Z-1.1833 I-0.8 J0.0
G2 X23.9494 Y-24.7165 Z-1.5 I0.4 J0.6928
G2 X24.3487 Y-24.0559 I0.7994 J-0.0322
G2 X25.5487 Y-24.7487 I0.4 J-0.6928
G2 X24.3487 Y-25.4416 I-0.8 J0.0
G2 X23.9494 Y-24.7165 I0.4 J0.6928
G1 F100.0 X22.7504 Y-24.6682
G2 F200.0 X23.7487 Y-23.0167 I1.9984 J-0.0806
G2 X26.7487 Y-24.7487 I1.0 J-1.7321
G2 X23.7487 Y-26.4808 I-2.0 J0.0
G2 X22.7504 Y-24.6682 I1.0 J1.7321
G1 F100.0 X25.5234 Y-24.5489
G2 F200.0 X25.5487 Y-24.7487 Z-1.5735 I-0.7746 J-0.1998
G2 X24.3487 Y-25.4416 Z-2.1833 I-0.8 J0.0
G2 X23.9494 Y-24.7165 Z-2.5 I0.4 J0.6928
G2 X24.3487 Y-24.0559 I0.7994 J-0.0322
G2 X25.5487 Y-24.7487 I0.4 J-0.6928
G2 X24.3487 Y-25.4416 I-0.8 J0.0
G2 X23.9494 Y-24.7165 I0.4 J0.6928
G1 F100.0 X22.7504 Y-24.6682
G2 F200.0 X23.7487 Y-23.0167 I1.9984 J-0.0806
G2 X26.7487 Y-24.7487 I1.0 J-1.7321
G2 X23.7487 Y-26.4808 I-2.0 J0.0
G2 X22.7504 Y-24.6682 I1.0 J1.7321
G1 F100.0 X25.5234 Y-24.5489
G2 F200.0 X25.5487 Y-24.7487 Z-2.5735 I-0.7746 J-0.1998
G2 X24.3487 Y-25.4416 Z-3.1833 I-0.8 J0.0
G2 X23.9494 Y-24.7165 Z-3.5 I0.4 J0.6928
G2 X24.3487 Y-24.0559 I0.7994 J-0.0322
G2 X25.5487 Y-24.7487 I0.4 J-0.6928
G2 X24.3487 Y-25.4416 I-0.8 J0.0
G2 X23.9494 Y-24.7165 I0.4 J0.6928
G1 F100.0 X22.7504 Y-24.6682
G2 F200.0 X23.7487 Y-23.0167 I1.9984 J-0.0806
G2 X26.7487 Y-24.7487 I1.0 J-1.7321
G2 X23.7487 Y-26.4808 I-2.0 J0.0
G2 X22.7504 Y-24.6682 I1.0 J1.7321
G0 Z3.0
G0 X24.0115 Y24.4382
G0 Z0.1
G1 F100.0 Z0.0
G2 F200.0 X24.3487 Y25.4416 Z-0.421 I0.7372 J0.3106
G2 X25.5487 Y24.7487 Z-1.0309 I0.4 J-0.6928
G2 X24.7164 Y23.9494 Z-1.5 I-0.8 J0.0
G2 X24.3487 Y24.0559 I0.0323 J0.7993
G2 Y25.4416 I0.4 J0.6928
G2 X25.5487 Y24.7487 I0.4 J-0.6928
G2 X24.7164 Y23.9494 I-0.8 J0.0
G1 F100.0 X24.6679 Y22.7504
G2 F200.0 X23.7487 Y23.0167 I0.0808 J1.9984
G2 Y26.4808 I1.0 J1.7321
G2 X26.7487 Y24.7487 I1.0 J-1.7321
G2 X24.6679 Y22.7504 I-2.0 J0.0
G1 F100.0 X24.549 Y25.5234
G2 F200.0 X25.5487 Y24.7487 Z-2.0309 I0.1997 J-0.7747
G2 X24.7164 Y23.9494 Z-2.5 I-0.8 J0.0
G2 X24.3487 Y24.0559 I0.0323 J0.7993
G2 Y25.4416 I0.4 J0.6928
G2 X25.5487 Y24.7487 I0.4 J-0.6928
G2 X24.7164 Y23.9494 I-0.8 J0.0
G1 F100.0 X24.6679 Y22.7504
G2 F200.0 X23.7487 Y23.0167 I0.0808 J1.9984
G2 Y26.4808 I1.0 J1.7321
G2 X26.7487 Y24.7487 I1.0 J-1.7321
G2 X24.6679 Y22.7504 I-2.0 J0.0
G1 F100.0 X24.549 Y25.5234
G2 F200.0 X25.5487 Y24.7487 Z-3.0309 I0.1997 J-0.7747
G2 X24.7164 Y23.9494 Z-3.5 I-0.8 J0.0
G2 X24.3487 Y24.0559 I0.0323 J0.7993
G2 Y25.4416 I0.4 J0.6928
G2 X25.5487 Y24.7487 I0.4 J-0.6928
G2 X24.7164 Y23.9494 I-0.8 J0.0
G1 F100.0 X24.6679 Y22.7504
G2 F200.0 X23.7487 Y23.0167 I0.0808 J1.9984
G2 Y26.4808 I1.0 J1.7321
G2 X26.7487 Y24.7487 I1.0 J-1.7321
G2 X24.6679 Y22.7504 I-2.0 J0.0
G0 Z3.0
G0 X50.8035 Y73.7747
G0 Z0.1
G1 F100.0 Z0.0
G2 F200.0 X51.2026 Y74.43 Z-0.2913 I0.7991 J-0.0375
G2 X52.4026 Y73.7372 Z-0.9011 I0.4 J-0.6928
G2 X51.2289 Y73.0298 Z-1.5 I-0.8 J0.0
G2 X51.2026 Y73.0444 I0.3737 J0.7074
G2 Y74.43 I0.4 J0.6928
G2 X52.4026 Y73.7372 I0.4 J-0.6928
G2 X51.2289 Y73.0298 I-0.8 J0.0
G1 F100.0 X50.6684 Y71.9688
G2 F200.0 X50.6026 Y72.0051 I0.9342 J1.7684
G2 Y75.4692 I1.0 J1.7321
G2 X53.6026 Y73.7372 I1.0 J-1.7321
G2 X50.6684 Y71.9688 I-2.0 J0.0
G1 F100.0 X51.7562 Y74.5223
G2 F200.0 X52.4026 Y73.7372 Z-1.9011 I-0.1536 J-0.7851
G2 X51.2289 Y73.0298 Z-2.5 I-0.8 J0.0
G2 X51.2026 Y73.0444 I0.3737 J0.7074
G2 Y74.43 I0.4 J0.6928
G2 X52.4026 Y73.7372 I0.4 J-0.6928
G2 X51.2289 Y73.0298 I-0.8 J0.0
G1 F100.0 X50.6684 Y71.9688
G2 F200.0 X50.6026 Y72.0051 I0.9342 J1.7684
G2 Y75.4692 I1.0 J1.7321
G2 X53.6026 Y73.7372 I1.0 J-1.7321
G2 X50.6684 Y71.9688 I-2.0 J0.0
G1 F100.0 X51.7562 Y74.5223
G2 F200.0 X52.4026 Y73.7372 Z-2.9011 I-0.1536 J-0.7851
G2 X51.2289 Y73.0298 Z-3.5 I-0.8 J0.0
G2 X51.2026 Y73.0444 I0.3737 J0.7074
G2 Y74.43 I0.4 J0.6928
G2 X52.4026 Y73.7372 I0.4 J-0.6928
G2 X51.2289 Y73.0298 I-0.8 J0.0
G1 F100.0 X50.6684 Y71.9688
G2 F200.0 X50.6026 Y72.0051 I0.9342 J1.7684
G2 Y75.4692 I1.0 J1.7321
G2 X53.6026 Y73.7372 I1.0 J-1.7321
G2 X50.6684 Y71.9688 I-2.0 J0.0
G0 Z3.0
G0 X90.4696 Y-0.4647
G0 Z0.1
G1 F100.0 Z0.0
G2 F200.0 X90.7932 Y-1.1074 Z-0.2716 I-0.4765 J-0.6426
G2 X89.5932 Y-1.8002 Z-0.8815 I-0.8 J0.0
G2 Y-0.4146 Z-1.4913 I0.4 J0.6928
G2 X89.6141 Y-0.4029 Z-1.5 I0.4 J-0.6928
G2 X90.7932 Y-1.1074 I0.3791 J-0.7045
G2 X89.5932 Y-1.8002 I-0.8 J0.0
G2 Y-0.4146 I0.4 J0.6928
G2 X89.6141 Y-0.4029 I0.4 J-0.6928
G1 F100.0 X89.0454 Y0.6538
G2 F200.0 X91.9932 Y-1.1074 I0.9478 J-1.7612
G2 X88.9932 Y-2.8394 I-2.0 J0.0
G2 Y0.6247 I1.0 J1.7321
G2 X89.0454 Y0.6538 I1.0 J-1.7321
G1 F100.0 X90.5595 Y-1.6725
G2 F200.0 X89.5932 Y-1.8002 Z-1.8815 I-0.5663 J0.5651
G2 Y-0.4146 Z-2.4913 I0.4 J0.6928
G2 X89.6141 Y-0.4029 Z-2.5 I0.4 J-0.6928
G2 X90.7932 Y-1.1074 I0.3791 J-0.7045
G2 X89.5932 Y-1.8002 I-0.8 J0.0
G2 Y-0.4146 I0.4 J0.6928
G2 X89.6141 Y-0.4029 I0.4 J-0.6928
G1 F100.0 X89.0454 Y0.6538
G2 F200.0 X91.9932 Y-1.1074 I0.9478 J-1.7612
G2 X88.9932 Y-2.8394 I-2.0 J0.0
G2 Y0.6247 I1.0 J1.7321
G2 X89.0454 Y0.6538 I1.0 J-1.7321
G1 F100.0 X90.5595 Y-1.6725
G2 F200.0 X89.5932 Y-1.8002 Z-2.8815 I-0.5663 J0.5651
G2 Y-0.4146 Z-3.4913 I0.4 J0.6928
G2 X89.6141 Y-0.4029 Z-3.5 I0.4 J-0.6928
G2 X90.7932 Y-1.1074 I0.3791 J-0.7045
G2 X89.5932 Y-1.8002 I-0.8 J0.0
G2 Y-0.4146 I0.4 J0.6928
G2 X89.6141 Y-0.4029 I0.4 J-0.6928
G1 F100.0 X89.0454 Y0.6538
G2 F200.0 X91.9932 Y-1.1074 I0.9478 J-1.7612
G2 X88.9932 Y-2.8394 I-2.0 J0.0
G2 Y0.6247 I1.0 J1.7321
G2 X89.0454 Y0.6538 I1.0 J-1.7321
G0 Z3.0
G0 X67.5378 Y-60.3083
G0 Z0.1
G1 F100.0 Z0.0
G2 F200.0 X67.541 Y-60.3792 Z-0.0258 I-0.7969 J-0.0709
G2 X66.341 Y-61.072 Z-0.6357 I-0.8 J0.0
G2 Y-59.6864 Z-1.2455 I0.4 J0.6928
G2 X67.0156 Y-59.6278 Z-1.5 I0.4 J-0.6928
G2 X67.541 Y-60.3792 I-0.2746 J-0.7514
G2 X66.341 Y-61.072 I-0.8 J0.0
G2 Y-59.6864 I0.4 J0.6928
G2 X67.0156 Y-59.6278 I0.4 J-0.6928
G1 F100.0 X67.4274 Y-58.5007
G2 F200.0 X68.741 Y-60.3792 I-0.6865 J-1.8785
G2 X65.741 Y-62.1112 I-2.0 J0.0
G2 Y-58.6471 I1.0 J1.7321
G2 X67.4274 Y-58.5007 I1.0 J-1.7321
G1 F100.0 X66.6949 Y-61.1778
G2 F200.0 X66.341 Y-61.072 Z-1.6357 I0.0461 J0.7987
G2 Y-59.6864 Z-2.2455 I0.4 J0.6928
G2 X67.0156 Y-59.6278 Z-2.5 I0.4 J-0.6928
G2 X67.541 Y-60.3792 I-0.2746 J-0.7514
G2 X66.341 Y-61.072 I-0.8 J0.0
G2 Y-59.6864 I0.4 J0.6928
G2 X67.0156 Y-59.6278 I0.4 J-0.6928
G1 F100.0 X67.4274 Y-58.5007
G2 F200.0 X68.741 Y-60.3792 I-0.6865 J-1.8785
G2 X65.741 Y-62.1112 I-2.0 J0.0
G2 Y-58.6471 I1.0 J1.7321
G2 X67.4274 Y-58.5007 I1.0 J-1.7321
G1 F100.0 X66.6949 Y-61.1778
G2 F200.0 X66.341 Y-61.072 Z-2.6357 I0.0461 J0.7987
G2 Y-59.6864 Z-3.2455 I0.4 J0.6928
G2 X67.0156 Y-59.6278 Z-3.5 I0.4 J-0.6928
G2 X67.541 Y-60.3792 I-0.2746 J-0.7514
G2 X66.341 Y-61.072 I-0.8 J0.0
G2 Y-59.6864 I0.4 J0.6928
G2 X67.0156 Y-59.6278 I0.4 J-0.6928
G1 F100.0 X67.4274 Y-58.5007
G2 F200.0 X68.741 Y-60.3792 I-0.6865 J-1.8785
G2 X65.741 Y-62.1112 I-2.0 J0.0
G2 Y-58.6471 I1.0 J1.7321
G2 X67.4274 Y-58.5007 I1.0 J-1.7321
G0 Z3.0
G0 X10.73 Y-89.9088
G0 Z0.1
G1 F100.0 Z0.0
G2 F200.0 X9.6868 Y-90.1258 Z-0.4244 I-0.6431 J0.4758
G2 Y-88.7401 Z-1.0342 I0.4 J0.6928
G2 X10.7909 Y-89.0531 Z-1.5 I0.4 J-0.6928
G2 X10.8868 Y-89.433 I-0.7041 J-0.3798
G2 X9.6868 Y-90.1258 I-0.8 J0.0
G2 Y-88.7401 I0.4 J0.6928
G2 X10.7909 Y-89.0531 I0.4 J-0.6928
G1 F100.0 X11.8471 Y-88.4834
G2 F200.0 X12.0868 Y-89.433 I-1.7602 J-0.9495
G2 X9.0868 Y-91.165 I-2.0 J0.0
G2 Y-87.7009 I1.0 J1.7321
G2 X11.8471 Y-88.4834 I1.0 J-1.7321
G1 F100.0 X9.5223 Y-89.9998
G2 F200.0 X9.6868 Y-88.7401 Z-2.0342 I0.5645 J0.5669
G2 X10.7909 Y-89.0531 Z-2.5 I0.4 J-0.6928
G2 X10.8868 Y-89.433 I-0.7041 J-0.3798
G2 X9.6868 Y-90.1258 I-0.8 J0.0
G2 Y-88.7401 I0.4 J0.6928
G2 X10.7909 Y-89.0531 I0.4 J-0.6928
G1 F100.0 X11.8471 Y-88.4834
G2 F200.0 X12.0868 Y-89.433 I-1.7602 J-0.9495
G2 X9.0868 Y-91.165 I-2.0 J0.0
G2 Y-87.7009 I1.0 J1.7321
G2 X11.8471 Y-88.4834 I1.0 J-1.7321
G1 F100.0 X9.5223 Y-89.9998
G2 F200.0 X9.6868 Y-88.7401 Z-3.0342 I0.5645 J0.5669
G2 X10.7909 Y-89.0531 Z-3.5 I0.4 J-0.6928
G2 X10.8868 Y-89.433 I-0.7041 J-0.3798
G2 X9.6868 Y-90.1258 I-0.8 J0.0
G2 Y-88.7401 I0.4 J0.6928
G2 X10.7909 Y-89.0531 I0.4 J-0.6928
G1 F100.0 X11.8471 Y-88.4834
G2 F200.0 X12.0868 Y-89.433 I-1.7602 J-0.9495
G2 X9.0868 Y-91.165 I-2.0 J0.0
G2 Y-87.7009 I1.0 J1.7321
G2 X11.8471 Y-88.4834 I1.0 J-1.7321
G0 Z3.0
G0 X-51.4481 Y-74.5105
G0 Z0.1
G1 F100.0 Z0.0
G2 F200.0 X-52.0154 Y-74.421 Z-0.2138 I-0.1673 J0.7823
G2 Y-73.0354 Z-0.8236 I0.4 J0.6928
G2 X-50.8154 Y-73.7282 Z-1.4335 I0.4 J-0.6928
G2 X-50.8362 Y-73.9094 Z-1.5 I-0.8 J0.0
G2 X-52.0154 Y-74.421 I-0.7792 J0.1812
G2 Y-73.0354 I0.4 J0.6928
G2 X-50.8154 Y-73.7282 I0.4 J-0.6928
G2 X-50.8362 Y-73.9094 I-0.8 J0.0
G1 F100.0 X-49.6674 Y-74.1811
G2 F200.0 X-52.6154 Y-75.4602 I-1.948 J0.4529
G2 Y-71.9961 I1.0 J1.7321
G2 X-49.6154 Y-73.7282 I1.0 J-1.7321
G2 X-49.6674 Y-74.1811 I-2.0 J0.0
G1 F100.0 X-52.4138 Y-73.7796
G2 F200.0 X-52.0154 Y-73.0354 Z-1.8236 I0.7983 J0.0514
G2 X-50.8154 Y-73.7282 Z-2.4335 I0.4 J-0.6928
G2 X-50.8362 Y-73.9094 Z-2.5 I-0.8 J0.0
G2 X-52.0154 Y-74.421 I-0.7792 J0.1812
G2 Y-73.0354 I0.4 J0.6928
G2 X-50.8154 Y-73.7282 I0.4 J-0.6928
G2 X-50.8362 Y-73.9094 I-0.8 J0.0
G1 F100.0 X-49.6674 Y-74.1811
G2 F200.0 X-52.6154 Y-75.4602 I-1.948 J0.4529
G2 Y-71.9961 I1.0 J1.7321
G2 X-49.6154 Y-73.7282 I1.0 J-1.7321
G2 X-49.6674 Y-74.1811 I-2.0 J0.0
G1 F100.0 X-52.4138 Y-73.7796
G2 F200.0 X-52.0154 Y-73.0354 Z-2.8236 I0.7983 J0.0514
G2 X-50.8154 Y-73.7282 Z-3.4335 I0.4 J-0.6928
G2 X-50.8362 Y-73.9094 Z-3.5 I-0.8 J0.0
G2 X-52.0154 Y-74.421 I-0.7792 J0.1812
G2 Y-73.0354 I0.4 J0.6928
G2 X-50.8154 Y-73.7282 I0.4 J-0.6928
G2 X-50.8362 Y-73.9094 I-0.8 J0.0
G1 F100.0 X-49.6674 Y-74.1811
G2 F200.0 X-52.6154 Y-75.4602 I-1.948 J0.4529
G2 Y-71.9961 I1.0 J1.7321
G2 X-49.6154 Y-73.7282 I1.0 J-1.7321
G2 X-49.6674 Y-74.1811 I-2.0 J0.0
G0 Z3.0
G0 X-87.8779 Y-21.8219
G0 Z0.1
G1 F100.0 Z0.0
G2 F200.0 X-87.8857 Y-21.8174 Z-0.0033 I0.3922 J0.6973
G2 Y-20.4318 Z-0.6131 I0.4 J0.6928
G2 X-86.6857 Y-21.1246 Z-1.2229 I0.4 J-0.6928
G2 X-87.0214 Y-21.7761 Z-1.5 I-0.8 J0.0
G2 X-87.8857 Y-21.8174 I-0.4643 J0.6514
G2 Y-20.4318 I0.4 J0.6928
G2 X-86.6857 Y-21.1246 I0.4 J-0.6928
G2 X-87.0214 Y-21.7761 I-0.8 J0.0
G1 F100.0 X-86.3248 Y-22.7532
G2 F200.0 X-88.4857 Y-22.8567 I-1.1609 J1.6286
G2 Y-19.3926 I1.0 J1.7321
G2 X-85.4857 Y-21.1246 I1.0 J-1.7321
G2 X-86.3248 Y-22.7532 I-2.0 J0.0
G1 F100.0 X-88.1183 Y-20.6349
G2 F200.0 X-87.8857 Y-20.4318 Z-1.6131 I0.6326 J-0.4897
G2 X-86.6857 Y-21.1246 Z-2.2229 I0.4 J-0.6928
G2 X-87.0214 Y-21.7761 Z-2.5 I-0.8 J0.0
G2 X-87.8857 Y-21.8174 I-0.4643 J0.6514
G2 Y-20.4318 I0.4 J0.6928
G2 X-86.6857 Y-21.1246 I0.4 J-0.6928
G2 X-87.0214 Y-21.7761 I-0.8 J0.0
G1 F100.0 X-86.3248 Y-22.7532
G2 F200.0 X-88.4857 Y-22.8567 I-1.1609 J1.6286
G2 Y-19.3926 I1.0 J1.7321
G2 X-85.4857 Y-21.1246 I1.0 J-1.7321
G2 X-86.3248 Y-22.7532 I-2.0 J0.0
G1 F100.0 X-88.1183 Y-20.6349
G2 F200.0 X-87.8857 Y-20.4318 Z-2.6131 I0.6326 J-0.4897
G2 X-86.6857 Y-21.1246 Z-3.2229 I0.4 J-0.6928
G2 X-87.0214 Y-21.7761 Z-3.5 I-0.8 J0.0
G2 X-87.8857 Y-21.8174 I-0.4643 J0.6514
G2 Y-20.4318 I0.4 J0.6928
G2 X-86.6857 Y-21.1246 I0.4 J-0.6928
G2 X-87.0214 Y-21.7761 I-0.8 J0.0
G1 F100.0 X-86.3248 Y-22.7532
G2 F200.0 X-88.4857 Y-22.8567 I-1.1609 J1.6286
G2 Y-19.3926 I1.0 J1.7321
G2 X-85.4857 Y-21.1246 I1.0 J-1.7321
G2 X-86.3248 Y-22.7532 I-2.0 J0.0
G0 Z3.0
G0 X-32.6344 Y84.2073
G0 Z0.1
G1 F100.0 Z0.0
G2 F200.0 X-32.2348 Y84.8745 Z-0.2956 I0.7996 J-0.0257
G2 X-31.0348 Y84.1816 Z-0.9054 I0.4 J-0.6928
G2 X-32.198 Y83.4688 Z-1.5 I-0.8 J0.0
G2 X-32.2348 Y83.4888 I0.3632 J0.7128
G2 Y84.8745 I0.4 J0.6928
G2 X-31.0348 Y84.1816 I0.4 J-0.6928
G2 X-32.198 Y83.4688 I-0.8 J0.0
G1 F100.0 X-32.7428 Y82.3996
G2 F200.0 X-32.8348 Y82.4496 I0.908 J1.782
G2 Y85.9137 I1.0 J1.7321
G2 X-29.8348 Y84.1816 I1.0 J-1.7321
G2 X-32.7428 Y82.3996 I-2.0 J0.0
G1 F100.0 X-31.6927 Y84.9689
G2 F200.0 X-31.0348 Y84.1816 Z-1.9054 I-0.1421 J-0.7873
G2 X-32.198 Y83.4688 Z-2.5 I-0.8 J0.0
G2 X-32.2348 Y83.4888 I0.3632 J0.7128
G2 Y84.8745 I0.4 J0.6928
G2 X-31.0348 Y84.1816 I0.4 J-0.6928
G2 X-32.198 Y83.4688 I-0.8 J0.0
G1 F100.0 X-32.7428 Y82.3996
G2 F200.0 X-32.8348 Y82.4496 I0.908 J1.782
G2 Y85.9137 I1.0 J1.7321
G2 X-29.8348 Y84.1816 I1.0 J-1.7321
G2 X-32.7428 Y82.3996 I-2.0 J0.0
G1 F100.0 X-31.6927 Y84.9689
G2 F200.0 X-31.0348 Y84.1816 Z-2.9054 I-0.1421 J-0.7873
G2 X-32.198 Y83.4688 Z-3.5 I-0.8 J0.0
G2 X-32.2348 Y83.4888 I0.3632 J0.7128
G2 Y84.8745 I0.4 J0.6928
G2 X-31.0348 Y84.1816 I0.4 J-0.6928
G2 X-32.198 Y83.4688 I-0.8 J0.0
G1 F100.0 X-32.7428 Y82.3996
G2 F200.0 X-32.8348 Y82.4496 I0.908 J1.782
G2 Y85.9137 I1.0 J1.7321
G2 X-29.8348 Y84.1816 I1.0 J-1.7321
G2 X-32.7428 Y82.3996 I-2.0 J0.0
( Drill1 )
G0 Z5.0
( T5 : 5.0 )
T5 M6
M3 S1000
G0 X-79.572 Y42.0512
G98
G81 X-79.572 Y42.0512 Z-0.5 R5.0 F80.0
G81 X-24.7487 Y24.7487 Z-0.5
G81 X24.7487 Z-0.5
G81 Y-24.7487 Z-0.5
G81 X-24.7487 Z-0.5
G81 X-51.6154 Y-73.7282 Z-0.5
G81 X10.0868 Y-89.433 Z-0.5
G81 X66.741 Y-60.3792 Z-0.5
G81 X89.9932 Y-1.1074 Z-0.5
G81 X51.6026 Y73.7372 Z-0.5
G81 X-31.8348 Y84.1816 Z-0.5
G81 X-87.4857 Y-21.1246 Z-0.5
G80
( Profile2 )
G0 Z3.0
( T6 : 6.0 )
T6 M6
M3 S1000
G0 X103.0 Y-4.1212
G0 Z0.1
G1 F100.0 Z0.0
G1 F200.0 Y0.0 Z-1.5
G3 X-51.5 Y89.2006 I-103.0 J0.0
G3 Y-89.2006 I51.5 J-89.2006
G3 X103.0 Y0.0 I51.5 J89.2006
G1 F100.0 Y-4.1212
G1 F200.0 Y0.0 Z-3.0
G3 X-51.5 Y89.2006 I-103.0 J0.0
G3 Y-89.2006 I51.5 J-89.2006
G3 X103.0 Y0.0 I51.5 J89.2006
G1 F100.0 Y-4.1212
G1 F200.0 Y0.0 Z-4.5
G3 X-51.5 Y89.2006 I-103.0 J0.0
G3 Y-89.2006 I51.5 J-89.2006
G3 X103.0 Y0.0 I51.5 J89.2006
G1 F100.0 Y-4.1212
G1 F200.0 Y0.0 Z-6.0
G3 X-51.5 Y89.2006 I-103.0 J0.0
G3 Y-89.2006 I51.5 J-89.2006
G3 X103.0 Y0.0 I51.5 J89.2006
G1 F100.0 Y-4.1212
G1 F200.0 Y0.0 Z-7.5
G3 X-51.5 Y89.2006 I-103.0 J0.0
G3 Y-89.2006 I51.5 J-89.2006
G3 X103.0 Y0.0 I51.5 J89.2006
G1 F100.0 Y-4.1212
G1 F200.0 Y-3.8426 Z-7.6014
G1 Y0.0 Z-9.0
G0 Z-8.5
G3 X102.935 Y3.6574 I-103.0 J0.0
G1 F100.0 Z-9.0
G3 F200.0 X4.1705 Y102.9155 I-102.935 J-3.6574
G0 Z-8.5
G3 X-3.3294 Y102.9462 I-4.1705 J-102.9155
G1 F100.0 Z-9.0
G3 F200.0 X-51.5 Y89.2006 I3.3294 J-102.9462
G3 X-102.9317 Y3.75 I51.5 J-89.2006
G0 Z-8.5
G3 Y-3.75 I102.9317 J-3.75
G1 F100.0 Z-9.0
G3 F200.0 X-51.5 Y-89.2006 I102.9317 J3.75
G3 X-3.9546 Y-102.9241 I51.5 J89.2006
G0 Z-8.5
G3 X3.5454 Y-102.939 I3.9546 J102.9241
G1 F100.0 Z-9.0
G3 F200.0 X102.9283 Y-3.8426 I-3.5454 J102.939
G0 Z-8.5
G3 X103.0 Y0.0 I-102.9283 J3.8426
G1 F100.0 Y-4.1212
G1 F200.0 Y-3.8426
G1 F100.0 Z-9.1014
G1 F200.0 Y0.0 Z-10.5
G0 Z-8.5
G3 X102.935 Y3.6574 I-103.0 J0.0
G0 Z-8.9
G1 F100.0 Z-10.5
G3 F200.0 X4.1705 Y102.9155 I-102.935 J-3.6574
G0 Z-8.5
G3 X-3.3294 Y102.9462 I-4.1705 J-102.9155
G0 Z-8.9
G1 F100.0 Z-10.5
G3 F200.0 X-51.5 Y89.2006 I3.3294 J-102.9462
G3 X-102.9317 Y3.75 I51.5 J-89.2006
G0 Z-8.5
G3 Y-3.75 I102.9317 J-3.75
G0 Z-8.9
G1 F100.0 Z-10.5
G3 F200.0 X-51.5 Y-89.2006 I102.9317 J3.75
G3 X-3.9546 Y-102.9241 I51.5 J89.2006
G0 Z-8.5
G3 X3.5454 Y-102.939 I3.9546 J102.9241
G0 Z-8.9
G1 F100.0 Z-10.5
G3 F200.0 X102.9283 Y-3.8426 I-3.5454 J102.939
G0 Z-8.5
G3 X103.0 Y0.0 I-102.9283 J3.8426
G1 F100.0 Y-2.7475
G0 Z-8.9
G1 Z-10.5
G1 F200.0 Y0.0 Z-11.5
G0 Z-8.5
G3 X102.935 Y3.6574 I-103.0 J0.0
G0 Z-10.4
G1 F100.0 Z-11.5
G3 F200.0 X4.1705 Y102.9155 I-102.935 J-3.6574
G0 Z-8.5
G3 X-3.3294 Y102.9462 I-4.1705 J-102.9155
G0 Z-10.4
G1 F100.0 Z-11.5
G3 F200.0 X-51.5 Y89.2006 I3.3294 J-102.9462
G3 X-102.9317 Y3.75 I51.5 J-89.2006
G0 Z-8.5
G3 Y-3.75 I102.9317 J-3.75
G0 Z-10.4
G1 F100.0 Z-11.5
G3 F200.0 X-51.5 Y-89.2006 I102.9317 J3.75
G3 X-3.9546 Y-102.9241 I51.5 J89.2006
G0 Z-8.5
G3 X3.5454 Y-102.939 I3.9546 J102.9241
G0 Z-10.4
G1 F100.0 Z-11.5
G3 F200.0 X102.9283 Y-3.8426 I-3.5454 J102.939
G0 Z-8.5
G3 X103.0 Y0.0 I-102.9283 J3.8426
G0 Z3.0
M5
M30
