( Made using CamBam - http://www.cambam.co.uk )
( disks 3/23/2018 11:20:24 AM )
( T5 : 3.0 )
( T6 : 6.0 )
G21 G90 G64 G40
G0 Z3.0
( T6 : 6.0 )
T6 M6
( Pocket1 )
G17
M3 S1000
G0 X6.9725 Y158.6687
G0 Z0.1
G1 F800.0 Z0.0
G2 F2000.0 X6.825 Y158.6701 Z-0.0561 I-0.0725 J0.1313
G2 Y158.9299 Z-0.1705 I0.075 J0.1299
G2 X7.05 Y158.8 Z-0.2848 I0.075 J-0.1299
G2 X6.825 Y158.6701 Z-0.3992 I-0.15 J0.0
G2 Y158.9299 Z-0.5135 I0.075 J0.1299
G2 X7.05 Y158.8 Z-0.6279 I0.075 J-0.1299
G2 X6.825 Y158.6701 Z-0.7422 I-0.15 J0.0
G2 Y158.9299 Z-0.8566 I0.075 J0.1299
G2 X7.05 Y158.8 Z-0.9709 I0.075 J-0.1299
G2 X6.825 Y158.6701 Z-1.0852 I-0.15 J0.0
G2 Y158.9299 Z-1.1996 I0.075 J0.1299
G2 X7.05 Y158.8 Z-1.3139 I0.075 J-0.1299
G2 X6.825 Y158.6701 Z-1.4283 I-0.15 J0.0
G2 Y158.9299 Z-1.5426 I0.075 J0.1299
G2 X7.05 Y158.8 Z-1.657 I0.075 J-0.1299
G2 X6.825 Y158.6701 Z-1.7713 I-0.15 J0.0
G2 Y158.9299 Z-1.8857 I0.075 J0.1299
G2 X7.05 Y158.8 Z-2.0 I0.075 J-0.1299
G2 X6.825 Y158.6701 I-0.15 J0.0
G2 Y158.9299 I0.075 J0.1299
G2 X7.05 Y158.8 I0.075 J-0.1299
G1 F800.0 X6.9725 Y158.6687
G2 F2000.0 X6.825 Y158.6701 Z-2.0561 I-0.0725 J0.1313
G2 Y158.9299 Z-2.1705 I0.075 J0.1299
G2 X7.05 Y158.8 Z-2.2848 I0.075 J-0.1299
G2 X6.825 Y158.6701 Z-2.3992 I-0.15 J0.0
G2 Y158.9299 Z-2.5135 I0.075 J0.1299
G2 X7.05 Y158.8 Z-2.6279 I0.075 J-0.1299
G2 X6.825 Y158.6701 Z-2.7422 I-0.15 J0.0
G2 Y158.9299 Z-2.8566 I0.075 J0.1299
G2 X7.05 Y158.8 Z-2.9709 I0.075 J-0.1299
G2 X6.825 Y158.6701 Z-3.0852 I-0.15 J0.0
G2 Y158.9299 Z-3.1996 I0.075 J0.1299
G2 X7.05 Y158.8 Z-3.3139 I0.075 J-0.1299
G2 X6.825 Y158.6701 Z-3.4283 I-0.15 J0.0
G2 Y158.9299 Z-3.5426 I0.075 J0.1299
G2 X7.05 Y158.8 Z-3.657 I0.075 J-0.1299
G2 X6.825 Y158.6701 Z-3.7713 I-0.15 J0.0
G2 Y158.9299 Z-3.8857 I0.075 J0.1299
G2 X7.05 Y158.8 Z-4.0 I0.075 J-0.1299
G2 X6.825 Y158.6701 I-0.15 J0.0
G2 Y158.9299 I0.075 J0.1299
G2 X7.05 Y158.8 I0.075 J-0.1299
G1 F800.0 X6.9725 Y158.6687
G2 F2000.0 X6.825 Y158.6701 Z-4.0561 I-0.0725 J0.1313
G2 Y158.9299 Z-4.1705 I0.075 J0.1299
G2 X7.05 Y158.8 Z-4.2848 I0.075 J-0.1299
G2 X6.825 Y158.6701 Z-4.3992 I-0.15 J0.0
G2 Y158.9299 Z-4.5135 I0.075 J0.1299
G2 X7.05 Y158.8 Z-4.6279 I0.075 J-0.1299
G2 X6.825 Y158.6701 Z-4.7422 I-0.15 J0.0
G2 Y158.9299 Z-4.8566 I0.075 J0.1299
G2 X7.05 Y158.8 Z-4.9709 I0.075 J-0.1299
G2 X6.825 Y158.6701 Z-5.0852 I-0.15 J0.0
G2 Y158.9299 Z-5.1996 I0.075 J0.1299
G2 X7.05 Y158.8 Z-5.3139 I0.075 J-0.1299
G2 X6.825 Y158.6701 Z-5.4283 I-0.15 J0.0
G2 Y158.9299 Z-5.5426 I0.075 J0.1299
G2 X7.05 Y158.8 Z-5.657 I0.075 J-0.1299
G2 X6.825 Y158.6701 Z-5.7713 I-0.15 J0.0
G2 Y158.9299 Z-5.8857 I0.075 J0.1299
G2 X7.05 Y158.8 Z-6.0 I0.075 J-0.1299
G2 X6.825 Y158.6701 I-0.15 J0.0
G2 Y158.9299 I0.075 J0.1299
G2 X7.05 Y158.8 I0.075 J-0.1299
G1 F800.0 X6.9725 Y158.6687
G2 F2000.0 X6.825 Y158.6701 Z-6.0561 I-0.0725 J0.1313
G2 Y158.9299 Z-6.1705 I0.075 J0.1299
G2 X7.05 Y158.8 Z-6.2848 I0.075 J-0.1299
G2 X6.825 Y158.6701 Z-6.3992 I-0.15 J0.0
G2 Y158.9299 Z-6.5135 I0.075 J0.1299
G2 X7.05 Y158.8 Z-6.6279 I0.075 J-0.1299
G2 X6.825 Y158.6701 Z-6.7422 I-0.15 J0.0
G2 Y158.9299 Z-6.8566 I0.075 J0.1299
G2 X7.05 Y158.8 Z-6.9709 I0.075 J-0.1299
G2 X6.825 Y158.6701 Z-7.0852 I-0.15 J0.0
G2 Y158.9299 Z-7.1996 I0.075 J0.1299
G2 X7.05 Y158.8 Z-7.3139 I0.075 J-0.1299
G2 X6.825 Y158.6701 Z-7.4283 I-0.15 J0.0
G2 Y158.9299 Z-7.5426 I0.075 J0.1299
G2 X7.05 Y158.8 Z-7.657 I0.075 J-0.1299
G2 X6.825 Y158.6701 Z-7.7713 I-0.15 J0.0
G2 Y158.9299 Z-7.8857 I0.075 J0.1299
G2 X7.05 Y158.8 Z-8.0 I0.075 J-0.1299
G2 X6.825 Y158.6701 I-0.15 J0.0
G2 Y158.9299 I0.075 J0.1299
G2 X7.05 Y158.8 I0.075 J-0.1299
G1 F800.0 X6.9725 Y158.6687
G2 F2000.0 X6.825 Y158.6701 Z-8.0561 I-0.0725 J0.1313
G2 Y158.9299 Z-8.1705 I0.075 J0.1299
G2 X7.05 Y158.8 Z-8.2848 I0.075 J-0.1299
G2 X6.825 Y158.6701 Z-8.3992 I-0.15 J0.0
G2 Y158.9299 Z-8.5135 I0.075 J0.1299
G2 X7.05 Y158.8 Z-8.6279 I0.075 J-0.1299
G2 X6.825 Y158.6701 Z-8.7422 I-0.15 J0.0
G2 Y158.9299 Z-8.8566 I0.075 J0.1299
G2 X7.05 Y158.8 Z-8.9709 I0.075 J-0.1299
G2 X6.825 Y158.6701 Z-9.0852 I-0.15 J0.0
G2 Y158.9299 Z-9.1996 I0.075 J0.1299
G2 X7.05 Y158.8 Z-9.3139 I0.075 J-0.1299
G2 X6.825 Y158.6701 Z-9.4283 I-0.15 J0.0
G2 Y158.9299 Z-9.5426 I0.075 J0.1299
G2 X7.05 Y158.8 Z-9.657 I0.075 J-0.1299
G2 X6.825 Y158.6701 Z-9.7713 I-0.15 J0.0
G2 Y158.9299 Z-9.8857 I0.075 J0.1299
G2 X7.05 Y158.8 Z-10.0 I0.075 J-0.1299
G2 X6.825 Y158.6701 I-0.15 J0.0
G2 Y158.9299 I0.075 J0.1299
G2 X7.05 Y158.8 I0.075 J-0.1299
G1 F800.0 X6.9725 Y158.6687
G2 F2000.0 X6.825 Y158.6701 Z-10.0561 I-0.0725 J0.1313
G2 Y158.9299 Z-10.1705 I0.075 J0.1299
G2 X7.05 Y158.8 Z-10.2848 I0.075 J-0.1299
G2 X6.825 Y158.6701 Z-10.3992 I-0.15 J0.0
G2 Y158.9299 Z-10.5135 I0.075 J0.1299
G2 X7.05 Y158.8 Z-10.6279 I0.075 J-0.1299
G2 X6.825 Y158.6701 Z-10.7422 I-0.15 J0.0
G2 Y158.9299 Z-10.8566 I0.075 J0.1299
G2 X7.05 Y158.8 Z-10.9709 I0.075 J-0.1299
G2 X6.825 Y158.6701 Z-11.0852 I-0.15 J0.0
G2 Y158.9299 Z-11.1996 I0.075 J0.1299
G2 X7.05 Y158.8 Z-11.3139 I0.075 J-0.1299
G2 X6.825 Y158.6701 Z-11.4283 I-0.15 J0.0
G2 Y158.9299 Z-11.5426 I0.075 J0.1299
G2 X7.05 Y158.8 Z-11.657 I0.075 J-0.1299
G2 X6.825 Y158.6701 Z-11.7713 I-0.15 J0.0
G2 Y158.9299 Z-11.8857 I0.075 J0.1299
G2 X7.05 Y158.8 Z-12.0 I0.075 J-0.1299
G2 X6.825 Y158.6701 I-0.15 J0.0
G2 Y158.9299 I0.075 J0.1299
G2 X7.05 Y158.8 I0.075 J-0.1299
G1 F800.0 X6.9725 Y158.6687
G2 F2000.0 X6.825 Y158.6701 Z-12.0561 I-0.0725 J0.1313
G2 Y158.9299 Z-12.1705 I0.075 J0.1299
G2 X7.05 Y158.8 Z-12.2848 I0.075 J-0.1299
G2 X6.825 Y158.6701 Z-12.3992 I-0.15 J0.0
G2 Y158.9299 Z-12.5135 I0.075 J0.1299
G2 X7.05 Y158.8 Z-12.6279 I0.075 J-0.1299
G2 X6.825 Y158.6701 Z-12.7422 I-0.15 J0.0
G2 Y158.9299 Z-12.8566 I0.075 J0.1299
G2 X7.05 Y158.8 Z-12.9709 I0.075 J-0.1299
G2 X6.825 Y158.6701 Z-13.0852 I-0.15 J0.0
G2 Y158.9299 Z-13.1996 I0.075 J0.1299
G2 X7.05 Y158.8 Z-13.3139 I0.075 J-0.1299
G2 X6.825 Y158.6701 Z-13.4283 I-0.15 J0.0
G2 Y158.9299 Z-13.5426 I0.075 J0.1299
G2 X7.05 Y158.8 Z-13.657 I0.075 J-0.1299
G2 X6.825 Y158.6701 Z-13.7713 I-0.15 J0.0
G2 Y158.9299 Z-13.8857 I0.075 J0.1299
G2 X7.05 Y158.8 Z-14.0 I0.075 J-0.1299
G2 X6.825 Y158.6701 I-0.15 J0.0
G2 Y158.9299 I0.075 J0.1299
G2 X7.05 Y158.8 I0.075 J-0.1299
G1 F800.0 X7.0292 Y158.7238
G2 F2000.0 X6.825 Y158.6701 Z-14.0852 I-0.1292 J0.0762
G2 Y158.9299 Z-14.1996 I0.075 J0.1299
G2 X7.05 Y158.8 Z-14.3139 I0.075 J-0.1299
G2 X6.825 Y158.6701 Z-14.4283 I-0.15 J0.0
G2 Y158.9299 Z-14.5426 I0.075 J0.1299
G2 X7.05 Y158.8 Z-14.657 I0.075 J-0.1299
G2 X6.825 Y158.6701 Z-14.7713 I-0.15 J0.0
G2 Y158.9299 Z-14.8857 I0.075 J0.1299
G2 X7.05 Y158.8 Z-15.0 I0.075 J-0.1299
G2 X6.825 Y158.6701 I-0.15 J0.0
G2 Y158.9299 I0.075 J0.1299
G2 X7.05 Y158.8 I0.075 J-0.1299
G0 Z3.0
G0 X49.4418 Y116.4441
G0 Z0.1
G1 F800.0 Z0.0
G2 F2000.0 X49.55 Y116.3 Z-0.0703 I-0.0418 J-0.1441
G2 X49.325 Y116.1701 Z-0.1847 I-0.15 J0.0
G2 X49.2941 Y116.4063 Z-0.2848 I0.075 J0.1299
G2 X49.325 Y116.4299 Z-0.299 I0.1059 J-0.1063
G2 X49.55 Y116.3 Z-0.4134 I0.075 J-0.1299
G2 X49.325 Y116.1701 Z-0.5277 I-0.15 J0.0
G2 X49.2941 Y116.4063 Z-0.6279 I0.075 J0.1299
G2 X49.325 Y116.4299 Z-0.6421 I0.1059 J-0.1063
G2 X49.55 Y116.3 Z-0.7564 I0.075 J-0.1299
G2 X49.325 Y116.1701 Z-0.8708 I-0.15 J0.0
G2 X49.2941 Y116.4063 Z-0.9709 I0.075 J0.1299
G2 X49.325 Y116.4299 Z-0.9851 I0.1059 J-0.1063
G2 X49.55 Y116.3 Z-1.0994 I0.075 J-0.1299
G2 X49.325 Y116.1701 Z-1.2138 I-0.15 J0.0
G2 X49.2941 Y116.4063 Z-1.3139 I0.075 J0.1299
G2 X49.325 Y116.4299 Z-1.3281 I0.1059 J-0.1063
G2 X49.55 Y116.3 Z-1.4425 I0.075 J-0.1299
G2 X49.325 Y116.1701 Z-1.5568 I-0.15 J0.0
G2 X49.2941 Y116.4063 Z-1.657 I0.075 J0.1299
G2 X49.325 Y116.4299 Z-1.6712 I0.1059 J-0.1063
G2 X49.55 Y116.3 Z-1.7855 I0.075 J-0.1299
G2 X49.325 Y116.1701 Z-1.8999 I-0.15 J0.0
G2 X49.2941 Y116.4063 Z-2.0 I0.075 J0.1299
G2 X49.325 Y116.4299 I0.1059 J-0.1063
G2 X49.55 Y116.3 I0.075 J-0.1299
G2 X49.325 Y116.1701 I-0.15 J0.0
G2 X49.2941 Y116.4063 I0.075 J0.1299
G1 F800.0 X49.4418 Y116.4441
G2 F2000.0 X49.55 Y116.3 Z-2.0703 I-0.0418 J-0.1441
G2 X49.325 Y116.1701 Z-2.1847 I-0.15 J0.0
G2 X49.2941 Y116.4063 Z-2.2848 I0.075 J0.1299
G2 X49.325 Y116.4299 Z-2.299 I0.1059 J-0.1063
G2 X49.55 Y116.3 Z-2.4134 I0.075 J-0.1299
G2 X49.325 Y116.1701 Z-2.5277 I-0.15 J0.0
G2 X49.2941 Y116.4063 Z-2.6279 I0.075 J0.1299
G2 X49.325 Y116.4299 Z-2.6421 I0.1059 J-0.1063
G2 X49.55 Y116.3 Z-2.7564 I0.075 J-0.1299
G2 X49.325 Y116.1701 Z-2.8708 I-0.15 J0.0
G2 X49.2941 Y116.4063 Z-2.9709 I0.075 J0.1299
G2 X49.325 Y116.4299 Z-2.9851 I0.1059 J-0.1063
G2 X49.55 Y116.3 Z-3.0994 I0.075 J-0.1299
G2 X49.325 Y116.1701 Z-3.2138 I-0.15 J0.0
G2 X49.2941 Y116.4063 Z-3.3139 I0.075 J0.1299
G2 X49.325 Y116.4299 Z-3.3281 I0.1059 J-0.1063
G2 X49.55 Y116.3 Z-3.4425 I0.075 J-0.1299
G2 X49.325 Y116.1701 Z-3.5568 I-0.15 J0.0
G2 X49.2941 Y116.4063 Z-3.657 I0.075 J0.1299
G2 X49.325 Y116.4299 Z-3.6712 I0.1059 J-0.1063
G2 X49.55 Y116.3 Z-3.7855 I0.075 J-0.1299
G2 X49.325 Y116.1701 Z-3.8999 I-0.15 J0.0
G2 X49.2941 Y116.4063 Z-4.0 I0.075 J0.1299
G2 X49.325 Y116.4299 I0.1059 J-0.1063
G2 X49.55 Y116.3 I0.075 J-0.1299
G2 X49.325 Y116.1701 I-0.15 J0.0
G2 X49.2941 Y116.4063 I0.075 J0.1299
G1 F800.0 X49.4418 Y116.4441
G2 F2000.0 X49.55 Y116.3 Z-4.0703 I-0.0418 J-0.1441
G2 X49.325 Y116.1701 Z-4.1847 I-0.15 J0.0
G2 X49.2941 Y116.4063 Z-4.2848 I0.075 J0.1299
G2 X49.325 Y116.4299 Z-4.299 I0.1059 J-0.1063
G2 X49.55 Y116.3 Z-4.4134 I0.075 J-0.1299
G2 X49.325 Y116.1701 Z-4.5277 I-0.15 J0.0
G2 X49.2941 Y116.4063 Z-4.6279 I0.075 J0.1299
G2 X49.325 Y116.4299 Z-4.6421 I0.1059 J-0.1063
G2 X49.55 Y116.3 Z-4.7564 I0.075 J-0.1299
G2 X49.325 Y116.1701 Z-4.8708 I-0.15 J0.0
G2 X49.2941 Y116.4063 Z-4.9709 I0.075 J0.1299
G2 X49.325 Y116.4299 Z-4.9851 I0.1059 J-0.1063
G2 X49.55 Y116.3 Z-5.0994 I0.075 J-0.1299
G2 X49.325 Y116.1701 Z-5.2138 I-0.15 J0.0
G2 X49.2941 Y116.4063 Z-5.3139 I0.075 J0.1299
G2 X49.325 Y116.4299 Z-5.3281 I0.1059 J-0.1063
G2 X49.55 Y116.3 Z-5.4425 I0.075 J-0.1299
G2 X49.325 Y116.1701 Z-5.5568 I-0.15 J0.0
G2 X49.2941 Y116.4063 Z-5.657 I0.075 J0.1299
G2 X49.325 Y116.4299 Z-5.6712 I0.1059 J-0.1063
G2 X49.55 Y116.3 Z-5.7855 I0.075 J-0.1299
G2 X49.325 Y116.1701 Z-5.8999 I-0.15 J0.0
G2 X49.2941 Y116.4063 Z-6.0 I0.075 J0.1299
G2 X49.325 Y116.4299 I0.1059 J-0.1063
G2 X49.55 Y116.3 I0.075 J-0.1299
G2 X49.325 Y116.1701 I-0.15 J0.0
G2 X49.2941 Y116.4063 I0.075 J0.1299
G1 F800.0 X49.4418 Y116.4441
G2 F2000.0 X49.55 Y116.3 Z-6.0703 I-0.0418 J-0.1441
G2 X49.325 Y116.1701 Z-6.1847 I-0.15 J0.0
G2 X49.2941 Y116.4063 Z-6.2848 I0.075 J0.1299
G2 X49.325 Y116.4299 Z-6.299 I0.1059 J-0.1063
G2 X49.55 Y116.3 Z-6.4134 I0.075 J-0.1299
G2 X49.325 Y116.1701 Z-6.5277 I-0.15 J0.0
G2 X49.2941 Y116.4063 Z-6.6279 I0.075 J0.1299
G2 X49.325 Y116.4299 Z-6.6421 I0.1059 J-0.1063
G2 X49.55 Y116.3 Z-6.7564 I0.075 J-0.1299
G2 X49.325 Y116.1701 Z-6.8708 I-0.15 J0.0
G2 X49.2941 Y116.4063 Z-6.9709 I0.075 J0.1299
G2 X49.325 Y116.4299 Z-6.9851 I0.1059 J-0.1063
G2 X49.55 Y116.3 Z-7.0994 I0.075 J-0.1299
G2 X49.325 Y116.1701 Z-7.2138 I-0.15 J0.0
G2 X49.2941 Y116.4063 Z-7.3139 I0.075 J0.1299
G2 X49.325 Y116.4299 Z-7.3281 I0.1059 J-0.1063
G2 X49.55 Y116.3 Z-7.4425 I0.075 J-0.1299
G2 X49.325 Y116.1701 Z-7.5568 I-0.15 J0.0
G2 X49.2941 Y116.4063 Z-7.657 I0.075 J0.1299
G2 X49.325 Y116.4299 Z-7.6712 I0.1059 J-0.1063
G2 X49.55 Y116.3 Z-7.7855 I0.075 J-0.1299
G2 X49.325 Y116.1701 Z-7.8999 I-0.15 J0.0
G2 X49.2941 Y116.4063 Z-8.0 I0.075 J0.1299
G2 X49.325 Y116.4299 I0.1059 J-0.1063
G2 X49.55 Y116.3 I0.075 J-0.1299
G2 X49.325 Y116.1701 I-0.15 J0.0
G2 X49.2941 Y116.4063 I0.075 J0.1299
G1 F800.0 X49.4418 Y116.4441
G2 F2000.0 X49.55 Y116.3 Z-8.0703 I-0.0418 J-0.1441
G2 X49.325 Y116.1701 Z-8.1847 I-0.15 J0.0
G2 X49.2941 Y116.4063 Z-8.2848 I0.075 J0.1299
G2 X49.325 Y116.4299 Z-8.299 I0.1059 J-0.1063
G2 X49.55 Y116.3 Z-8.4134 I0.075 J-0.1299
G2 X49.325 Y116.1701 Z-8.5277 I-0.15 J0.0
G2 X49.2941 Y116.4063 Z-8.6279 I0.075 J0.1299
G2 X49.325 Y116.4299 Z-8.6421 I0.1059 J-0.1063
G2 X49.55 Y116.3 Z-8.7564 I0.075 J-0.1299
G2 X49.325 Y116.1701 Z-8.8708 I-0.15 J0.0
G2 X49.2941 Y116.4063 Z-8.9709 I0.075 J0.1299
G2 X49.325 Y116.4299 Z-8.9851 I0.1059 J-0.1063
G2 X49.55 Y116.3 Z-9.0994 I0.075 J-0.1299
G2 X49.325 Y116.1701 Z-9.2138 I-0.15 J0.0
G2 X49.2941 Y116.4063 Z-9.3139 I0.075 J0.1299
G2 X49.325 Y116.4299 Z-9.3281 I0.1059 J-0.1063
G2 X49.55 Y116.3 Z-9.4425 I0.075 J-0.1299
G2 X49.325 Y116.1701 Z-9.5568 I-0.15 J0.0
G2 X49.2941 Y116.4063 Z-9.657 I0.075 J0.1299
G2 X49.325 Y116.4299 Z-9.6712 I0.1059 J-0.1063
G2 X49.55 Y116.3 Z-9.7855 I0.075 J-0.1299
G2 X49.325 Y116.1701 Z-9.8999 I-0.15 J0.0
G2 X49.2941 Y116.4063 Z-10.0 I0.075 J0.1299
G2 X49.325 Y116.4299 I0.1059 J-0.1063
G2 X49.55 Y116.3 I0.075 J-0.1299
G2 X49.325 Y116.1701 I-0.15 J0.0
G2 X49.2941 Y116.4063 I0.075 J0.1299
G1 F800.0 X49.4418 Y116.4441
G2 F2000.0 X49.55 Y116.3 Z-10.0703 I-0.0418 J-0.1441
G2 X49.325 Y116.1701 Z-10.1847 I-0.15 J0.0
G2 X49.2941 Y116.4063 Z-10.2848 I0.075 J0.1299
G2 X49.325 Y116.4299 Z-10.299 I0.1059 J-0.1063
G2 X49.55 Y116.3 Z-10.4134 I0.075 J-0.1299
G2 X49.325 Y116.1701 Z-10.5277 I-0.15 J0.0
G2 X49.2941 Y116.4063 Z-10.6279 I0.075 J0.1299
G2 X49.325 Y116.4299 Z-10.6421 I0.1059 J-0.1063
G2 X49.55 Y116.3 Z-10.7564 I0.075 J-0.1299
G2 X49.325 Y116.1701 Z-10.8708 I-0.15 J0.0
G2 X49.2941 Y116.4063 Z-10.9709 I0.075 J0.1299
G2 X49.325 Y116.4299 Z-10.9851 I0.1059 J-0.1063
G2 X49.55 Y116.3 Z-11.0994 I0.075 J-0.1299
G2 X49.325 Y116.1701 Z-11.2138 I-0.15 J0.0
G2 X49.2941 Y116.4063 Z-11.3139 I0.075 J0.1299
G2 X49.325 Y116.4299 Z-11.3281 I0.1059 J-0.1063
G2 X49.55 Y116.3 Z-11.4425 I0.075 J-0.1299
G2 X49.325 Y116.1701 Z-11.5568 I-0.15 J0.0
G2 X49.2941 Y116.4063 Z-11.657 I0.075 J0.1299
G2 X49.325 Y116.4299 Z-11.6712 I0.1059 J-0.1063
G2 X49.55 Y116.3 Z-11.7855 I0.075 J-0.1299
G2 X49.325 Y116.1701 Z-11.8999 I-0.15 J0.0
G2 X49.2941 Y116.4063 Z-12.0 I0.075 J0.1299
G2 X49.325 Y116.4299 I0.1059 J-0.1063
G2 X49.55 Y116.3 I0.075 J-0.1299
G2 X49.325 Y116.1701 I-0.15 J0.0
G2 X49.2941 Y116.4063 I0.075 J0.1299
G1 F800.0 X49.4418 Y116.4441
G2 F2000.0 X49.55 Y116.3 Z-12.0703 I-0.0418 J-0.1441
G2 X49.325 Y116.1701 Z-12.1847 I-0.15 J0.0
G2 X49.2941 Y116.4063 Z-12.2848 I0.075 J0.1299
G2 X49.325 Y116.4299 Z-12.299 I0.1059 J-0.1063
G2 X49.55 Y116.3 Z-12.4134 I0.075 J-0.1299
G2 X49.325 Y116.1701 Z-12.5277 I-0.15 J0.0
G2 X49.2941 Y116.4063 Z-12.6279 I0.075 J0.1299
G2 X49.325 Y116.4299 Z-12.6421 I0.1059 J-0.1063
G2 X49.55 Y116.3 Z-12.7564 I0.075 J-0.1299
G2 X49.325 Y116.1701 Z-12.8708 I-0.15 J0.0
G2 X49.2941 Y116.4063 Z-12.9709 I0.075 J0.1299
G2 X49.325 Y116.4299 Z-12.9851 I0.1059 J-0.1063
G2 X49.55 Y116.3 Z-13.0994 I0.075 J-0.1299
G2 X49.325 Y116.1701 Z-13.2138 I-0.15 J0.0
G2 X49.2941 Y116.4063 Z-13.3139 I0.075 J0.1299
G2 X49.325 Y116.4299 Z-13.3281 I0.1059 J-0.1063
G2 X49.55 Y116.3 Z-13.4425 I0.075 J-0.1299
G2 X49.325 Y116.1701 Z-13.5568 I-0.15 J0.0
G2 X49.2941 Y116.4063 Z-13.657 I0.075 J0.1299
G2 X49.325 Y116.4299 Z-13.6712 I0.1059 J-0.1063
G2 X49.55 Y116.3 Z-13.7855 I0.075 J-0.1299
G2 X49.325 Y116.1701 Z-13.8999 I-0.15 J0.0
G2 X49.2941 Y116.4063 Z-14.0 I0.075 J0.1299
G2 X49.325 Y116.4299 I0.1059 J-0.1063
G2 X49.55 Y116.3 I0.075 J-0.1299
G2 X49.325 Y116.1701 I-0.15 J0.0
G2 X49.2941 Y116.4063 I0.075 J0.1299
G1 F800.0 X49.3628 Y116.4453
G2 F2000.0 X49.55 Y116.3 Z-14.0994 I0.0372 J-0.1453
G2 X49.325 Y116.1701 Z-14.2138 I-0.15 J0.0
G2 X49.2941 Y116.4063 Z-14.3139 I0.075 J0.1299
G2 X49.325 Y116.4299 Z-14.3281 I0.1059 J-0.1063
G2 X49.55 Y116.3 Z-14.4425 I0.075 J-0.1299
G2 X49.325 Y116.1701 Z-14.5568 I-0.15 J0.0
G2 X49.2941 Y116.4063 Z-14.657 I0.075 J0.1299
G2 X49.325 Y116.4299 Z-14.6712 I0.1059 J-0.1063
G2 X49.55 Y116.3 Z-14.7855 I0.075 J-0.1299
G2 X49.325 Y116.1701 Z-14.8999 I-0.15 J0.0
G2 X49.2941 Y116.4063 Z-15.0 I0.075 J0.1299
G2 X49.325 Y116.4299 I0.1059 J-0.1063
G2 X49.55 Y116.3 I0.075 J-0.1299
G2 X49.325 Y116.1701 I-0.15 J0.0
G2 X49.2941 Y116.4063 I0.075 J0.1299
G0 Z3.0
G0 X50.0294 Y93.0759
G0 Z0.1
G1 F800.0 Z0.0
G2 F2000.0 X50.05 Y93.0 Z-0.029 I-0.1294 J-0.0759
G2 X49.825 Y92.8701 Z-0.1433 I-0.15 J0.0
G2 Y93.1299 Z-0.2577 I0.075 J0.1299
G2 X49.8961 Y93.1499 Z-0.2848 I0.075 J-0.1299
G2 X50.05 Y93.0 Z-0.372 I0.0039 J-0.1499
G2 X49.825 Y92.8701 Z-0.4863 I-0.15 J0.0
G2 Y93.1299 Z-0.6007 I0.075 J0.1299
G2 X49.8961 Y93.1499 Z-0.6279 I0.075 J-0.1299
G2 X50.05 Y93.0 Z-0.715 I0.0039 J-0.1499
G2 X49.825 Y92.8701 Z-0.8294 I-0.15 J0.0
G2 Y93.1299 Z-0.9437 I0.075 J0.1299
G2 X49.8961 Y93.1499 Z-0.9709 I0.075 J-0.1299
G2 X50.05 Y93.0 Z-1.0581 I0.0039 J-0.1499
G2 X49.825 Y92.8701 Z-1.1724 I-0.15 J0.0
G2 Y93.1299 Z-1.2868 I0.075 J0.1299
G2 X49.8961 Y93.1499 Z-1.3139 I0.075 J-0.1299
G2 X50.05 Y93.0 Z-1.4011 I0.0039 J-0.1499
G2 X49.825 Y92.8701 Z-1.5154 I-0.15 J0.0
G2 Y93.1299 Z-1.6298 I0.075 J0.1299
G2 X49.8961 Y93.1499 Z-1.657 I0.075 J-0.1299
G2 X50.05 Y93.0 Z-1.7441 I0.0039 J-0.1499
G2 X49.825 Y92.8701 Z-1.8585 I-0.15 J0.0
G2 Y93.1299 Z-1.9728 I0.075 J0.1299
G2 X49.8961 Y93.1499 Z-2.0 I0.075 J-0.1299
G2 X50.05 Y93.0 I0.0039 J-0.1499
G2 X49.825 Y92.8701 I-0.15 J0.0
G2 Y93.1299 I0.075 J0.1299
G2 X49.8961 Y93.1499 I0.075 J-0.1299
G1 F800.0 X50.0294 Y93.0759
G2 F2000.0 X50.05 Y93.0 Z-2.029 I-0.1294 J-0.0759
G2 X49.825 Y92.8701 Z-2.1433 I-0.15 J0.0
G2 Y93.1299 Z-2.2577 I0.075 J0.1299
G2 X49.8961 Y93.1499 Z-2.2848 I0.075 J-0.1299
G2 X50.05 Y93.0 Z-2.372 I0.0039 J-0.1499
G2 X49.825 Y92.8701 Z-2.4863 I-0.15 J0.0
G2 Y93.1299 Z-2.6007 I0.075 J0.1299
G2 X49.8961 Y93.1499 Z-2.6279 I0.075 J-0.1299
G2 X50.05 Y93.0 Z-2.715 I0.0039 J-0.1499
G2 X49.825 Y92.8701 Z-2.8294 I-0.15 J0.0
G2 Y93.1299 Z-2.9437 I0.075 J0.1299
G2 X49.8961 Y93.1499 Z-2.9709 I0.075 J-0.1299
G2 X50.05 Y93.0 Z-3.0581 I0.0039 J-0.1499
G2 X49.825 Y92.8701 Z-3.1724 I-0.15 J0.0
G2 Y93.1299 Z-3.2868 I0.075 J0.1299
G2 X49.8961 Y93.1499 Z-3.3139 I0.075 J-0.1299
G2 X50.05 Y93.0 Z-3.4011 I0.0039 J-0.1499
G2 X49.825 Y92.8701 Z-3.5154 I-0.15 J0.0
G2 Y93.1299 Z-3.6298 I0.075 J0.1299
G2 X49.8961 Y93.1499 Z-3.657 I0.075 J-0.1299
G2 X50.05 Y93.0 Z-3.7441 I0.0039 J-0.1499
G2 X49.825 Y92.8701 Z-3.8585 I-0.15 J0.0
G2 Y93.1299 Z-3.9728 I0.075 J0.1299
G2 X49.8961 Y93.1499 Z-4.0 I0.075 J-0.1299
G2 X50.05 Y93.0 I0.0039 J-0.1499
G2 X49.825 Y92.8701 I-0.15 J0.0
G2 Y93.1299 I0.075 J0.1299
G2 X49.8961 Y93.1499 I0.075 J-0.1299
G1 F800.0 X50.0294 Y93.0759
G2 F2000.0 X50.05 Y93.0 Z-4.029 I-0.1294 J-0.0759
G2 X49.825 Y92.8701 Z-4.1433 I-0.15 J0.0
G2 Y93.1299 Z-4.2577 I0.075 J0.1299
G2 X49.8961 Y93.1499 Z-4.2848 I0.075 J-0.1299
G2 X50.05 Y93.0 Z-4.372 I0.0039 J-0.1499
G2 X49.825 Y92.8701 Z-4.4863 I-0.15 J0.0
G2 Y93.1299 Z-4.6007 I0.075 J0.1299
G2 X49.8961 Y93.1499 Z-4.6279 I0.075 J-0.1299
G2 X50.05 Y93.0 Z-4.715 I0.0039 J-0.1499
G2 X49.825 Y92.8701 Z-4.8294 I-0.15 J0.0
G2 Y93.1299 Z-4.9437 I0.075 J0.1299
G2 X49.8961 Y93.1499 Z-4.9709 I0.075 J-0.1299
G2 X50.05 Y93.0 Z-5.0581 I0.0039 J-0.1499
G2 X49.825 Y92.8701 Z-5.1724 I-0.15 J0.0
G2 Y93.1299 Z-5.2868 I0.075 J0.1299
G2 X49.8961 Y93.1499 Z-5.3139 I0.075 J-0.1299
G2 X50.05 Y93.0 Z-5.4011 I0.0039 J-0.1499
G2 X49.825 Y92.8701 Z-5.5154 I-0.15 J0.0
G2 Y93.1299 Z-5.6298 I0.075 J0.1299
G2 X49.8961 Y93.1499 Z-5.657 I0.075 J-0.1299
G2 X50.05 Y93.0 Z-5.7441 I0.0039 J-0.1499
G2 X49.825 Y92.8701 Z-5.8585 I-0.15 J0.0
G2 Y93.1299 Z-5.9728 I0.075 J0.1299
G2 X49.8961 Y93.1499 Z-6.0 I0.075 J-0.1299
G2 X50.05 Y93.0 I0.0039 J-0.1499
G2 X49.825 Y92.8701 I-0.15 J0.0
G2 Y93.1299 I0.075 J0.1299
G2 X49.8961 Y93.1499 I0.075 J-0.1299
G1 F800.0 X50.0294 Y93.0759
G2 F2000.0 X50.05 Y93.0 Z-6.029 I-0.1294 J-0.0759
G2 X49.825 Y92.8701 Z-6.1433 I-0.15 J0.0
G2 Y93.1299 Z-6.2577 I0.075 J0.1299
G2 X49.8961 Y93.1499 Z-6.2848 I0.075 J-0.1299
G2 X50.05 Y93.0 Z-6.372 I0.0039 J-0.1499
G2 X49.825 Y92.8701 Z-6.4863 I-0.15 J0.0
G2 Y93.1299 Z-6.6007 I0.075 J0.1299
G2 X49.8961 Y93.1499 Z-6.6279 I0.075 J-0.1299
G2 X50.05 Y93.0 Z-6.715 I0.0039 J-0.1499
G2 X49.825 Y92.8701 Z-6.8294 I-0.15 J0.0
G2 Y93.1299 Z-6.9437 I0.075 J0.1299
G2 X49.8961 Y93.1499 Z-6.9709 I0.075 J-0.1299
G2 X50.05 Y93.0 Z-7.0581 I0.0039 J-0.1499
G2 X49.825 Y92.8701 Z-7.1724 I-0.15 J0.0
G2 Y93.1299 Z-7.2868 I0.075 J0.1299
G2 X49.8961 Y93.1499 Z-7.3139 I0.075 J-0.1299
G2 X50.05 Y93.0 Z-7.4011 I0.0039 J-0.1499
G2 X49.825 Y92.8701 Z-7.5154 I-0.15 J0.0
G2 Y93.1299 Z-7.6298 I0.075 J0.1299
G2 X49.8961 Y93.1499 Z-7.657 I0.075 J-0.1299
G2 X50.05 Y93.0 Z-7.7441 I0.0039 J-0.1499
G2 X49.825 Y92.8701 Z-7.8585 I-0.15 J0.0
G2 Y93.1299 Z-7.9728 I0.075 J0.1299
G2 X49.8961 Y93.1499 Z-8.0 I0.075 J-0.1299
G2 X50.05 Y93.0 I0.0039 J-0.1499
G2 X49.825 Y92.8701 I-0.15 J0.0
G2 Y93.1299 I0.075 J0.1299
G2 X49.8961 Y93.1499 I0.075 J-0.1299
G1 F800.0 X50.0294 Y93.0759
G2 F2000.0 X50.05 Y93.0 Z-8.029 I-0.1294 J-0.0759
G2 X49.825 Y92.8701 Z-8.1433 I-0.15 J0.0
G2 Y93.1299 Z-8.2577 I0.075 J0.1299
G2 X49.8961 Y93.1499 Z-8.2848 I0.075 J-0.1299
G2 X50.05 Y93.0 Z-8.372 I0.0039 J-0.1499
G2 X49.825 Y92.8701 Z-8.4863 I-0.15 J0.0
G2 Y93.1299 Z-8.6007 I0.075 J0.1299
G2 X49.8961 Y93.1499 Z-8.6279 I0.075 J-0.1299
G2 X50.05 Y93.0 Z-8.715 I0.0039 J-0.1499
G2 X49.825 Y92.8701 Z-8.8294 I-0.15 J0.0
G2 Y93.1299 Z-8.9437 I0.075 J0.1299
G2 X49.8961 Y93.1499 Z-8.9709 I0.075 J-0.1299
G2 X50.05 Y93.0 Z-9.0581 I0.0039 J-0.1499
G2 X49.825 Y92.8701 Z-9.1724 I-0.15 J0.0
G2 Y93.1299 Z-9.2868 I0.075 J0.1299
G2 X49.8961 Y93.1499 Z-9.3139 I0.075 J-0.1299
G2 X50.05 Y93.0 Z-9.4011 I0.0039 J-0.1499
G2 X49.825 Y92.8701 Z-9.5154 I-0.15 J0.0
G2 Y93.1299 Z-9.6298 I0.075 J0.1299
G2 X49.8961 Y93.1499 Z-9.657 I0.075 J-0.1299
G2 X50.05 Y93.0 Z-9.7441 I0.0039 J-0.1499
G2 X49.825 Y92.8701 Z-9.8585 I-0.15 J0.0
G2 Y93.1299 Z-9.9728 I0.075 J0.1299
G2 X49.8961 Y93.1499 Z-10.0 I0.075 J-0.1299
G2 X50.05 Y93.0 I0.0039 J-0.1499
G2 X49.825 Y92.8701 I-0.15 J0.0
G2 Y93.1299 I0.075 J0.1299
G2 X49.8961 Y93.1499 I0.075 J-0.1299
G1 F800.0 X50.0294 Y93.0759
G2 F2000.0 X50.05 Y93.0 Z-10.029 I-0.1294 J-0.0759
G2 X49.825 Y92.8701 Z-10.1433 I-0.15 J0.0
G2 Y93.1299 Z-10.2577 I0.075 J0.1299
G2 X49.8961 Y93.1499 Z-10.2848 I0.075 J-0.1299
G2 X50.05 Y93.0 Z-10.372 I0.0039 J-0.1499
G2 X49.825 Y92.8701 Z-10.4863 I-0.15 J0.0
G2 Y93.1299 Z-10.6007 I0.075 J0.1299
G2 X49.8961 Y93.1499 Z-10.6279 I0.075 J-0.1299
G2 X50.05 Y93.0 Z-10.715 I0.0039 J-0.1499
G2 X49.825 Y92.8701 Z-10.8294 I-0.15 J0.0
G2 Y93.1299 Z-10.9437 I0.075 J0.1299
G2 X49.8961 Y93.1499 Z-10.9709 I0.075 J-0.1299
G2 X50.05 Y93.0 Z-11.0581 I0.0039 J-0.1499
G2 X49.825 Y92.8701 Z-11.1724 I-0.15 J0.0
G2 Y93.1299 Z-11.2868 I0.075 J0.1299
G2 X49.8961 Y93.1499 Z-11.3139 I0.075 J-0.1299
G2 X50.05 Y93.0 Z-11.4011 I0.0039 J-0.1499
G2 X49.825 Y92.8701 Z-11.5154 I-0.15 J0.0
G2 Y93.1299 Z-11.6298 I0.075 J0.1299
G2 X49.8961 Y93.1499 Z-11.657 I0.075 J-0.1299
G2 X50.05 Y93.0 Z-11.7441 I0.0039 J-0.1499
G2 X49.825 Y92.8701 Z-11.8585 I-0.15 J0.0
G2 Y93.1299 Z-11.9728 I0.075 J0.1299
G2 X49.8961 Y93.1499 Z-12.0 I0.075 J-0.1299
G2 X50.05 Y93.0 I0.0039 J-0.1499
G2 X49.825 Y92.8701 I-0.15 J0.0
G2 Y93.1299 I0.075 J0.1299
G2 X49.8961 Y93.1499 I0.075 J-0.1299
G1 F800.0 X50.0294 Y93.0759
G2 F2000.0 X50.05 Y93.0 Z-12.029 I-0.1294 J-0.0759
G2 X49.825 Y92.8701 Z-12.1433 I-0.15 J0.0
G2 Y93.1299 Z-12.2577 I0.075 J0.1299
G2 X49.8961 Y93.1499 Z-12.2848 I0.075 J-0.1299
G2 X50.05 Y93.0 Z-12.372 I0.0039 J-0.1499
G2 X49.825 Y92.8701 Z-12.4863 I-0.15 J0.0
G2 Y93.1299 Z-12.6007 I0.075 J0.1299
G2 X49.8961 Y93.1499 Z-12.6279 I0.075 J-0.1299
G2 X50.05 Y93.0 Z-12.715 I0.0039 J-0.1499
G2 X49.825 Y92.8701 Z-12.8294 I-0.15 J0.0
G2 Y93.1299 Z-12.9437 I0.075 J0.1299
G2 X49.8961 Y93.1499 Z-12.9709 I0.075 J-0.1299
G2 X50.05 Y93.0 Z-13.0581 I0.0039 J-0.1499
G2 X49.825 Y92.8701 Z-13.1724 I-0.15 J0.0
G2 Y93.1299 Z-13.2868 I0.075 J0.1299
G2 X49.8961 Y93.1499 Z-13.3139 I0.075 J-0.1299
G2 X50.05 Y93.0 Z-13.4011 I0.0039 J-0.1499
G2 X49.825 Y92.8701 Z-13.5154 I-0.15 J0.0
G2 Y93.1299 Z-13.6298 I0.075 J0.1299
G2 X49.8961 Y93.1499 Z-13.657 I0.075 J-0.1299
G2 X50.05 Y93.0 Z-13.7441 I0.0039 J-0.1499
G2 X49.825 Y92.8701 Z-13.8585 I-0.15 J0.0
G2 Y93.1299 Z-13.9728 I0.075 J0.1299
G2 X49.8961 Y93.1499 Z-14.0 I0.075 J-0.1299
G2 X50.05 Y93.0 I0.0039 J-0.1499
G2 X49.825 Y92.8701 I-0.15 J0.0
G2 Y93.1299 I0.075 J0.1299
G2 X49.8961 Y93.1499 I0.075 J-0.1299
G1 F800.0 X49.9729 Y93.1311
G2 F2000.0 X50.05 Y93.0 Z-14.0581 I-0.0729 J-0.1311
G2 X49.825 Y92.8701 Z-14.1724 I-0.15 J0.0
G2 Y93.1299 Z-14.2868 I0.075 J0.1299
G2 X49.8961 Y93.1499 Z-14.3139 I0.075 J-0.1299
G2 X50.05 Y93.0 Z-14.4011 I0.0039 J-0.1499
G2 X49.825 Y92.8701 Z-14.5154 I-0.15 J0.0
G2 Y93.1299 Z-14.6298 I0.075 J0.1299
G2 X49.8961 Y93.1499 Z-14.657 I0.075 J-0.1299
G2 X50.05 Y93.0 Z-14.7441 I0.0039 J-0.1499
G2 X49.825 Y92.8701 Z-14.8585 I-0.15 J0.0
G2 Y93.1299 Z-14.9728 I0.075 J0.1299
G2 X49.8961 Y93.1499 Z-15.0 I0.075 J-0.1299
G2 X50.05 Y93.0 I0.0039 J-0.1499
G2 X49.825 Y92.8701 I-0.15 J0.0
G2 Y93.1299 I0.075 J0.1299
G2 X49.8961 Y93.1499 I0.075 J-0.1299
G0 Z3.0
G0 X7.5442 Y50.4587
G0 Z0.1
G1 F800.0 Z0.0
G2 F2000.0 X7.325 Y50.3701 Z-0.0991 I-0.1442 J0.0413
G2 Y50.6299 Z-0.2135 I0.075 J0.1299
G2 X7.5059 Y50.6063 Z-0.2848 I0.075 J-0.1299
G2 X7.55 Y50.5 Z-0.3278 I-0.1059 J-0.1063
G2 X7.325 Y50.3701 Z-0.4422 I-0.15 J0.0
G2 Y50.6299 Z-0.5565 I0.075 J0.1299
G2 X7.5059 Y50.6063 Z-0.6279 I0.075 J-0.1299
G2 X7.55 Y50.5 Z-0.6708 I-0.1059 J-0.1063
G2 X7.325 Y50.3701 Z-0.7852 I-0.15 J0.0
G2 Y50.6299 Z-0.8995 I0.075 J0.1299
G2 X7.5059 Y50.6063 Z-0.9709 I0.075 J-0.1299
G2 X7.55 Y50.5 Z-1.0139 I-0.1059 J-0.1063
G2 X7.325 Y50.3701 Z-1.1282 I-0.15 J0.0
G2 Y50.6299 Z-1.2426 I0.075 J0.1299
G2 X7.5059 Y50.6063 Z-1.3139 I0.075 J-0.1299
G2 X7.55 Y50.5 Z-1.3569 I-0.1059 J-0.1063
G2 X7.325 Y50.3701 Z-1.4713 I-0.15 J0.0
G2 Y50.6299 Z-1.5856 I0.075 J0.1299
G2 X7.5059 Y50.6063 Z-1.657 I0.075 J-0.1299
G2 X7.55 Y50.5 Z-1.6999 I-0.1059 J-0.1063
G2 X7.325 Y50.3701 Z-1.8143 I-0.15 J0.0
G2 Y50.6299 Z-1.9286 I0.075 J0.1299
G2 X7.5059 Y50.6063 Z-2.0 I0.075 J-0.1299
G2 X7.55 Y50.5 I-0.1059 J-0.1063
G2 X7.325 Y50.3701 I-0.15 J0.0
G2 Y50.6299 I0.075 J0.1299
G2 X7.5059 Y50.6063 I0.075 J-0.1299
G1 F800.0 X7.5442 Y50.4587
G2 F2000.0 X7.325 Y50.3701 Z-2.0991 I-0.1442 J0.0413
G2 Y50.6299 Z-2.2135 I0.075 J0.1299
G2 X7.5059 Y50.6063 Z-2.2848 I0.075 J-0.1299
G2 X7.55 Y50.5 Z-2.3278 I-0.1059 J-0.1063
G2 X7.325 Y50.3701 Z-2.4422 I-0.15 J0.0
G2 Y50.6299 Z-2.5565 I0.075 J0.1299
G2 X7.5059 Y50.6063 Z-2.6279 I0.075 J-0.1299
G2 X7.55 Y50.5 Z-2.6708 I-0.1059 J-0.1063
G2 X7.325 Y50.3701 Z-2.7852 I-0.15 J0.0
G2 Y50.6299 Z-2.8995 I0.075 J0.1299
G2 X7.5059 Y50.6063 Z-2.9709 I0.075 J-0.1299
G2 X7.55 Y50.5 Z-3.0139 I-0.1059 J-0.1063
G2 X7.325 Y50.3701 Z-3.1282 I-0.15 J0.0
G2 Y50.6299 Z-3.2426 I0.075 J0.1299
G2 X7.5059 Y50.6063 Z-3.3139 I0.075 J-0.1299
G2 X7.55 Y50.5 Z-3.3569 I-0.1059 J-0.1063
G2 X7.325 Y50.3701 Z-3.4713 I-0.15 J0.0
G2 Y50.6299 Z-3.5856 I0.075 J0.1299
G2 X7.5059 Y50.6063 Z-3.657 I0.075 J-0.1299
G2 X7.55 Y50.5 Z-3.6999 I-0.1059 J-0.1063
G2 X7.325 Y50.3701 Z-3.8143 I-0.15 J0.0
G2 Y50.6299 Z-3.9286 I0.075 J0.1299
G2 X7.5059 Y50.6063 Z-4.0 I0.075 J-0.1299
G2 X7.55 Y50.5 I-0.1059 J-0.1063
G2 X7.325 Y50.3701 I-0.15 J0.0
G2 Y50.6299 I0.075 J0.1299
G2 X7.5059 Y50.6063 I0.075 J-0.1299
G1 F800.0 X7.5442 Y50.4587
G2 F2000.0 X7.325 Y50.3701 Z-4.0991 I-0.1442 J0.0413
G2 Y50.6299 Z-4.2135 I0.075 J0.1299
G2 X7.5059 Y50.6063 Z-4.2848 I0.075 J-0.1299
G2 X7.55 Y50.5 Z-4.3278 I-0.1059 J-0.1063
G2 X7.325 Y50.3701 Z-4.4422 I-0.15 J0.0
G2 Y50.6299 Z-4.5565 I0.075 J0.1299
G2 X7.5059 Y50.6063 Z-4.6279 I0.075 J-0.1299
G2 X7.55 Y50.5 Z-4.6708 I-0.1059 J-0.1063
G2 X7.325 Y50.3701 Z-4.7852 I-0.15 J0.0
G2 Y50.6299 Z-4.8995 I0.075 J0.1299
G2 X7.5059 Y50.6063 Z-4.9709 I0.075 J-0.1299
G2 X7.55 Y50.5 Z-5.0139 I-0.1059 J-0.1063
G2 X7.325 Y50.3701 Z-5.1282 I-0.15 J0.0
G2 Y50.6299 Z-5.2426 I0.075 J0.1299
G2 X7.5059 Y50.6063 Z-5.3139 I0.075 J-0.1299
G2 X7.55 Y50.5 Z-5.3569 I-0.1059 J-0.1063
G2 X7.325 Y50.3701 Z-5.4713 I-0.15 J0.0
G2 Y50.6299 Z-5.5856 I0.075 J0.1299
G2 X7.5059 Y50.6063 Z-5.657 I0.075 J-0.1299
G2 X7.55 Y50.5 Z-5.6999 I-0.1059 J-0.1063
G2 X7.325 Y50.3701 Z-5.8143 I-0.15 J0.0
G2 Y50.6299 Z-5.9286 I0.075 J0.1299
G2 X7.5059 Y50.6063 Z-6.0 I0.075 J-0.1299
G2 X7.55 Y50.5 I-0.1059 J-0.1063
G2 X7.325 Y50.3701 I-0.15 J0.0
G2 Y50.6299 I0.075 J0.1299
G2 X7.5059 Y50.6063 I0.075 J-0.1299
G1 F800.0 X7.5442 Y50.4587
G2 F2000.0 X7.325 Y50.3701 Z-6.0991 I-0.1442 J0.0413
G2 Y50.6299 Z-6.2135 I0.075 J0.1299
G2 X7.5059 Y50.6063 Z-6.2848 I0.075 J-0.1299
G2 X7.55 Y50.5 Z-6.3278 I-0.1059 J-0.1063
G2 X7.325 Y50.3701 Z-6.4422 I-0.15 J0.0
G2 Y50.6299 Z-6.5565 I0.075 J0.1299
G2 X7.5059 Y50.6063 Z-6.6279 I0.075 J-0.1299
G2 X7.55 Y50.5 Z-6.6708 I-0.1059 J-0.1063
G2 X7.325 Y50.3701 Z-6.7852 I-0.15 J0.0
G2 Y50.6299 Z-6.8995 I0.075 J0.1299
G2 X7.5059 Y50.6063 Z-6.9709 I0.075 J-0.1299
G2 X7.55 Y50.5 Z-7.0139 I-0.1059 J-0.1063
G2 X7.325 Y50.3701 Z-7.1282 I-0.15 J0.0
G2 Y50.6299 Z-7.2426 I0.075 J0.1299
G2 X7.5059 Y50.6063 Z-7.3139 I0.075 J-0.1299
G2 X7.55 Y50.5 Z-7.3569 I-0.1059 J-0.1063
G2 X7.325 Y50.3701 Z-7.4713 I-0.15 J0.0
G2 Y50.6299 Z-7.5856 I0.075 J0.1299
G2 X7.5059 Y50.6063 Z-7.657 I0.075 J-0.1299
G2 X7.55 Y50.5 Z-7.6999 I-0.1059 J-0.1063
G2 X7.325 Y50.3701 Z-7.8143 I-0.15 J0.0
G2 Y50.6299 Z-7.9286 I0.075 J0.1299
G2 X7.5059 Y50.6063 Z-8.0 I0.075 J-0.1299
G2 X7.55 Y50.5 I-0.1059 J-0.1063
G2 X7.325 Y50.3701 I-0.15 J0.0
G2 Y50.6299 I0.075 J0.1299
G2 X7.5059 Y50.6063 I0.075 J-0.1299
G1 F800.0 X7.5442 Y50.4587
G2 F2000.0 X7.325 Y50.3701 Z-8.0991 I-0.1442 J0.0413
G2 Y50.6299 Z-8.2135 I0.075 J0.1299
G2 X7.5059 Y50.6063 Z-8.2848 I0.075 J-0.1299
G2 X7.55 Y50.5 Z-8.3278 I-0.1059 J-0.1063
G2 X7.325 Y50.3701 Z-8.4422 I-0.15 J0.0
G2 Y50.6299 Z-8.5565 I0.075 J0.1299
G2 X7.5059 Y50.6063 Z-8.6279 I0.075 J-0.1299
G2 X7.55 Y50.5 Z-8.6708 I-0.1059 J-0.1063
G2 X7.325 Y50.3701 Z-8.7852 I-0.15 J0.0
G2 Y50.6299 Z-8.8995 I0.075 J0.1299
G2 X7.5059 Y50.6063 Z-8.9709 I0.075 J-0.1299
G2 X7.55 Y50.5 Z-9.0139 I-0.1059 J-0.1063
G2 X7.325 Y50.3701 Z-9.1282 I-0.15 J0.0
G2 Y50.6299 Z-9.2426 I0.075 J0.1299
G2 X7.5059 Y50.6063 Z-9.3139 I0.075 J-0.1299
G2 X7.55 Y50.5 Z-9.3569 I-0.1059 J-0.1063
G2 X7.325 Y50.3701 Z-9.4713 I-0.15 J0.0
G2 Y50.6299 Z-9.5856 I0.075 J0.1299
G2 X7.5059 Y50.6063 Z-9.657 I0.075 J-0.1299
G2 X7.55 Y50.5 Z-9.6999 I-0.1059 J-0.1063
G2 X7.325 Y50.3701 Z-9.8143 I-0.15 J0.0
G2 Y50.6299 Z-9.9286 I0.075 J0.1299
G2 X7.5059 Y50.6063 Z-10.0 I0.075 J-0.1299
G2 X7.55 Y50.5 I-0.1059 J-0.1063
G2 X7.325 Y50.3701 I-0.15 J0.0
G2 Y50.6299 I0.075 J0.1299
G2 X7.5059 Y50.6063 I0.075 J-0.1299
G1 F800.0 X7.5442 Y50.4587
G2 F2000.0 X7.325 Y50.3701 Z-10.0991 I-0.1442 J0.0413
G2 Y50.6299 Z-10.2135 I0.075 J0.1299
G2 X7.5059 Y50.6063 Z-10.2848 I0.075 J-0.1299
G2 X7.55 Y50.5 Z-10.3278 I-0.1059 J-0.1063
G2 X7.325 Y50.3701 Z-10.4422 I-0.15 J0.0
G2 Y50.6299 Z-10.5565 I0.075 J0.1299
G2 X7.5059 Y50.6063 Z-10.6279 I0.075 J-0.1299
G2 X7.55 Y50.5 Z-10.6708 I-0.1059 J-0.1063
G2 X7.325 Y50.3701 Z-10.7852 I-0.15 J0.0
G2 Y50.6299 Z-10.8995 I0.075 J0.1299
G2 X7.5059 Y50.6063 Z-10.9709 I0.075 J-0.1299
G2 X7.55 Y50.5 Z-11.0139 I-0.1059 J-0.1063
G2 X7.325 Y50.3701 Z-11.1282 I-0.15 J0.0
G2 Y50.6299 Z-11.2426 I0.075 J0.1299
G2 X7.5059 Y50.6063 Z-11.3139 I0.075 J-0.1299
G2 X7.55 Y50.5 Z-11.3569 I-0.1059 J-0.1063
G2 X7.325 Y50.3701 Z-11.4713 I-0.15 J0.0
G2 Y50.6299 Z-11.5856 I0.075 J0.1299
G2 X7.5059 Y50.6063 Z-11.657 I0.075 J-0.1299
G2 X7.55 Y50.5 Z-11.6999 I-0.1059 J-0.1063
G2 X7.325 Y50.3701 Z-11.8143 I-0.15 J0.0
G2 Y50.6299 Z-11.9286 I0.075 J0.1299
G2 X7.5059 Y50.6063 Z-12.0 I0.075 J-0.1299
G2 X7.55 Y50.5 I-0.1059 J-0.1063
G2 X7.325 Y50.3701 I-0.15 J0.0
G2 Y50.6299 I0.075 J0.1299
G2 X7.5059 Y50.6063 I0.075 J-0.1299
G1 F800.0 X7.5442 Y50.4587
G2 F2000.0 X7.325 Y50.3701 Z-12.0991 I-0.1442 J0.0413
G2 Y50.6299 Z-12.2135 I0.075 J0.1299
G2 X7.5059 Y50.6063 Z-12.2848 I0.075 J-0.1299
G2 X7.55 Y50.5 Z-12.3278 I-0.1059 J-0.1063
G2 X7.325 Y50.3701 Z-12.4422 I-0.15 J0.0
G2 Y50.6299 Z-12.5565 I0.075 J0.1299
G2 X7.5059 Y50.6063 Z-12.6279 I0.075 J-0.1299
G2 X7.55 Y50.5 Z-12.6708 I-0.1059 J-0.1063
G2 X7.325 Y50.3701 Z-12.7852 I-0.15 J0.0
G2 Y50.6299 Z-12.8995 I0.075 J0.1299
G2 X7.5059 Y50.6063 Z-12.9709 I0.075 J-0.1299
G2 X7.55 Y50.5 Z-13.0139 I-0.1059 J-0.1063
G2 X7.325 Y50.3701 Z-13.1282 I-0.15 J0.0
G2 Y50.6299 Z-13.2426 I0.075 J0.1299
G2 X7.5059 Y50.6063 Z-13.3139 I0.075 J-0.1299
G2 X7.55 Y50.5 Z-13.3569 I-0.1059 J-0.1063
G2 X7.325 Y50.3701 Z-13.4713 I-0.15 J0.0
G2 Y50.6299 Z-13.5856 I0.075 J0.1299
G2 X7.5059 Y50.6063 Z-13.657 I0.075 J-0.1299
G2 X7.55 Y50.5 Z-13.6999 I-0.1059 J-0.1063
G2 X7.325 Y50.3701 Z-13.8143 I-0.15 J0.0
G2 Y50.6299 Z-13.9286 I0.075 J0.1299
G2 X7.5059 Y50.6063 Z-14.0 I0.075 J-0.1299
G2 X7.55 Y50.5 I-0.1059 J-0.1063
G2 X7.325 Y50.3701 I-0.15 J0.0
G2 Y50.6299 I0.075 J0.1299
G2 X7.5059 Y50.6063 I0.075 J-0.1299
G1 F800.0 X7.5452 Y50.5377
G2 F2000.0 X7.55 Y50.5 Z-14.0139 I-0.1452 J-0.0377
G2 X7.325 Y50.3701 Z-14.1282 I-0.15 J0.0
G2 Y50.6299 Z-14.2426 I0.075 J0.1299
G2 X7.5059 Y50.6063 Z-14.3139 I0.075 J-0.1299
G2 X7.55 Y50.5 Z-14.3569 I-0.1059 J-0.1063
G2 X7.325 Y50.3701 Z-14.4713 I-0.15 J0.0
G2 Y50.6299 Z-14.5856 I0.075 J0.1299
G2 X7.5059 Y50.6063 Z-14.657 I0.075 J-0.1299
G2 X7.55 Y50.5 Z-14.6999 I-0.1059 J-0.1063
G2 X7.325 Y50.3701 Z-14.8143 I-0.15 J0.0
G2 Y50.6299 Z-14.9286 I0.075 J0.1299
G2 X7.5059 Y50.6063 Z-15.0 I0.075 J-0.1299
G2 X7.55 Y50.5 I-0.1059 J-0.1063
G2 X7.325 Y50.3701 I-0.15 J0.0
G2 Y50.6299 I0.075 J0.1299
G2 X7.5059 Y50.6063 I0.075 J-0.1299
G0 Z3.0
G0 X49.9419 Y8.144
G0 Z0.1
G1 F800.0 Z0.0
G2 F2000.0 X50.05 Y8.0 Z-0.0703 I-0.0419 J-0.144
G2 X49.825 Y7.8701 Z-0.1846 I-0.15 J0.0
G2 X49.7942 Y8.1063 Z-0.2848 I0.075 J0.1299
G2 X49.825 Y8.1299 Z-0.299 I0.1058 J-0.1063
G2 X50.05 Y8.0 Z-0.4133 I0.075 J-0.1299
G2 X49.825 Y7.8701 Z-0.5277 I-0.15 J0.0
G2 X49.7942 Y8.1063 Z-0.6279 I0.075 J0.1299
G2 X49.825 Y8.1299 Z-0.642 I0.1058 J-0.1063
G2 X50.05 Y8.0 Z-0.7564 I0.075 J-0.1299
G2 X49.825 Y7.8701 Z-0.8707 I-0.15 J0.0
G2 X49.7942 Y8.1063 Z-0.9709 I0.075 J0.1299
G2 X49.825 Y8.1299 Z-0.9851 I0.1058 J-0.1063
G2 X50.05 Y8.0 Z-1.0994 I0.075 J-0.1299
G2 X49.825 Y7.8701 Z-1.2137 I-0.15 J0.0
G2 X49.7942 Y8.1063 Z-1.3139 I0.075 J0.1299
G2 X49.825 Y8.1299 Z-1.3281 I0.1058 J-0.1063
G2 X50.05 Y8.0 Z-1.4424 I0.075 J-0.1299
G2 X49.825 Y7.8701 Z-1.5568 I-0.15 J0.0
G2 X49.7942 Y8.1063 Z-1.657 I0.075 J0.1299
G2 X49.825 Y8.1299 Z-1.6711 I0.1058 J-0.1063
G2 X50.05 Y8.0 Z-1.7855 I0.075 J-0.1299
G2 X49.825 Y7.8701 Z-1.8998 I-0.15 J0.0
G2 X49.7942 Y8.1063 Z-2.0 I0.075 J0.1299
G2 X49.825 Y8.1299 I0.1058 J-0.1063
G2 X50.05 Y8.0 I0.075 J-0.1299
G2 X49.825 Y7.8701 I-0.15 J0.0
G2 X49.7942 Y8.1063 I0.075 J0.1299
G1 F800.0 X49.9419 Y8.144
G2 F2000.0 X50.05 Y8.0 Z-2.0703 I-0.0419 J-0.144
G2 X49.825 Y7.8701 Z-2.1846 I-0.15 J0.0
G2 X49.7942 Y8.1063 Z-2.2848 I0.075 J0.1299
G2 X49.825 Y8.1299 Z-2.299 I0.1058 J-0.1063
G2 X50.05 Y8.0 Z-2.4133 I0.075 J-0.1299
G2 X49.825 Y7.8701 Z-2.5277 I-0.15 J0.0
G2 X49.7942 Y8.1063 Z-2.6279 I0.075 J0.1299
G2 X49.825 Y8.1299 Z-2.642 I0.1058 J-0.1063
G2 X50.05 Y8.0 Z-2.7564 I0.075 J-0.1299
G2 X49.825 Y7.8701 Z-2.8707 I-0.15 J0.0
G2 X49.7942 Y8.1063 Z-2.9709 I0.075 J0.1299
G2 X49.825 Y8.1299 Z-2.9851 I0.1058 J-0.1063
G2 X50.05 Y8.0 Z-3.0994 I0.075 J-0.1299
G2 X49.825 Y7.8701 Z-3.2137 I-0.15 J0.0
G2 X49.7942 Y8.1063 Z-3.3139 I0.075 J0.1299
G2 X49.825 Y8.1299 Z-3.3281 I0.1058 J-0.1063
G2 X50.05 Y8.0 Z-3.4424 I0.075 J-0.1299
G2 X49.825 Y7.8701 Z-3.5568 I-0.15 J0.0
G2 X49.7942 Y8.1063 Z-3.657 I0.075 J0.1299
G2 X49.825 Y8.1299 Z-3.6711 I0.1058 J-0.1063
G2 X50.05 Y8.0 Z-3.7855 I0.075 J-0.1299
G2 X49.825 Y7.8701 Z-3.8998 I-0.15 J0.0
G2 X49.7942 Y8.1063 Z-4.0 I0.075 J0.1299
G2 X49.825 Y8.1299 I0.1058 J-0.1063
G2 X50.05 Y8.0 I0.075 J-0.1299
G2 X49.825 Y7.8701 I-0.15 J0.0
G2 X49.7942 Y8.1063 I0.075 J0.1299
G1 F800.0 X49.9419 Y8.144
G2 F2000.0 X50.05 Y8.0 Z-4.0703 I-0.0419 J-0.144
G2 X49.825 Y7.8701 Z-4.1846 I-0.15 J0.0
G2 X49.7942 Y8.1063 Z-4.2848 I0.075 J0.1299
G2 X49.825 Y8.1299 Z-4.299 I0.1058 J-0.1063
G2 X50.05 Y8.0 Z-4.4133 I0.075 J-0.1299
G2 X49.825 Y7.8701 Z-4.5277 I-0.15 J0.0
G2 X49.7942 Y8.1063 Z-4.6279 I0.075 J0.1299
G2 X49.825 Y8.1299 Z-4.642 I0.1058 J-0.1063
G2 X50.05 Y8.0 Z-4.7564 I0.075 J-0.1299
G2 X49.825 Y7.8701 Z-4.8707 I-0.15 J0.0
G2 X49.7942 Y8.1063 Z-4.9709 I0.075 J0.1299
G2 X49.825 Y8.1299 Z-4.9851 I0.1058 J-0.1063
G2 X50.05 Y8.0 Z-5.0994 I0.075 J-0.1299
G2 X49.825 Y7.8701 Z-5.2137 I-0.15 J0.0
G2 X49.7942 Y8.1063 Z-5.3139 I0.075 J0.1299
G2 X49.825 Y8.1299 Z-5.3281 I0.1058 J-0.1063
G2 X50.05 Y8.0 Z-5.4424 I0.075 J-0.1299
G2 X49.825 Y7.8701 Z-5.5568 I-0.15 J0.0
G2 X49.7942 Y8.1063 Z-5.657 I0.075 J0.1299
G2 X49.825 Y8.1299 Z-5.6711 I0.1058 J-0.1063
G2 X50.05 Y8.0 Z-5.7855 I0.075 J-0.1299
G2 X49.825 Y7.8701 Z-5.8998 I-0.15 J0.0
G2 X49.7942 Y8.1063 Z-6.0 I0.075 J0.1299
G2 X49.825 Y8.1299 I0.1058 J-0.1063
G2 X50.05 Y8.0 I0.075 J-0.1299
G2 X49.825 Y7.8701 I-0.15 J0.0
G2 X49.7942 Y8.1063 I0.075 J0.1299
G1 F800.0 X49.9419 Y8.144
G2 F2000.0 X50.05 Y8.0 Z-6.0703 I-0.0419 J-0.144
G2 X49.825 Y7.8701 Z-6.1846 I-0.15 J0.0
G2 X49.7942 Y8.1063 Z-6.2848 I0.075 J0.1299
G2 X49.825 Y8.1299 Z-6.299 I0.1058 J-0.1063
G2 X50.05 Y8.0 Z-6.4133 I0.075 J-0.1299
G2 X49.825 Y7.8701 Z-6.5277 I-0.15 J0.0
G2 X49.7942 Y8.1063 Z-6.6279 I0.075 J0.1299
G2 X49.825 Y8.1299 Z-6.642 I0.1058 J-0.1063
G2 X50.05 Y8.0 Z-6.7564 I0.075 J-0.1299
G2 X49.825 Y7.8701 Z-6.8707 I-0.15 J0.0
G2 X49.7942 Y8.1063 Z-6.9709 I0.075 J0.1299
G2 X49.825 Y8.1299 Z-6.9851 I0.1058 J-0.1063
G2 X50.05 Y8.0 Z-7.0994 I0.075 J-0.1299
G2 X49.825 Y7.8701 Z-7.2137 I-0.15 J0.0
G2 X49.7942 Y8.1063 Z-7.3139 I0.075 J0.1299
G2 X49.825 Y8.1299 Z-7.3281 I0.1058 J-0.1063
G2 X50.05 Y8.0 Z-7.4424 I0.075 J-0.1299
G2 X49.825 Y7.8701 Z-7.5568 I-0.15 J0.0
G2 X49.7942 Y8.1063 Z-7.657 I0.075 J0.1299
G2 X49.825 Y8.1299 Z-7.6711 I0.1058 J-0.1063
G2 X50.05 Y8.0 Z-7.7855 I0.075 J-0.1299
G2 X49.825 Y7.8701 Z-7.8998 I-0.15 J0.0
G2 X49.7942 Y8.1063 Z-8.0 I0.075 J0.1299
G2 X49.825 Y8.1299 I0.1058 J-0.1063
G2 X50.05 Y8.0 I0.075 J-0.1299
G2 X49.825 Y7.8701 I-0.15 J0.0
G2 X49.7942 Y8.1063 I0.075 J0.1299
G1 F800.0 X49.9419 Y8.144
G2 F2000.0 X50.05 Y8.0 Z-8.0703 I-0.0419 J-0.144
G2 X49.825 Y7.8701 Z-8.1846 I-0.15 J0.0
G2 X49.7942 Y8.1063 Z-8.2848 I0.075 J0.1299
G2 X49.825 Y8.1299 Z-8.299 I0.1058 J-0.1063
G2 X50.05 Y8.0 Z-8.4133 I0.075 J-0.1299
G2 X49.825 Y7.8701 Z-8.5277 I-0.15 J0.0
G2 X49.7942 Y8.1063 Z-8.6279 I0.075 J0.1299
G2 X49.825 Y8.1299 Z-8.642 I0.1058 J-0.1063
G2 X50.05 Y8.0 Z-8.7564 I0.075 J-0.1299
G2 X49.825 Y7.8701 Z-8.8707 I-0.15 J0.0
G2 X49.7942 Y8.1063 Z-8.9709 I0.075 J0.1299
G2 X49.825 Y8.1299 Z-8.9851 I0.1058 J-0.1063
G2 X50.05 Y8.0 Z-9.0994 I0.075 J-0.1299
G2 X49.825 Y7.8701 Z-9.2137 I-0.15 J0.0
G2 X49.7942 Y8.1063 Z-9.3139 I0.075 J0.1299
G2 X49.825 Y8.1299 Z-9.3281 I0.1058 J-0.1063
G2 X50.05 Y8.0 Z-9.4424 I0.075 J-0.1299
G2 X49.825 Y7.8701 Z-9.5568 I-0.15 J0.0
G2 X49.7942 Y8.1063 Z-9.657 I0.075 J0.1299
G2 X49.825 Y8.1299 Z-9.6711 I0.1058 J-0.1063
G2 X50.05 Y8.0 Z-9.7855 I0.075 J-0.1299
G2 X49.825 Y7.8701 Z-9.8998 I-0.15 J0.0
G2 X49.7942 Y8.1063 Z-10.0 I0.075 J0.1299
G2 X49.825 Y8.1299 I0.1058 J-0.1063
G2 X50.05 Y8.0 I0.075 J-0.1299
G2 X49.825 Y7.8701 I-0.15 J0.0
G2 X49.7942 Y8.1063 I0.075 J0.1299
G1 F800.0 X49.9419 Y8.144
G2 F2000.0 X50.05 Y8.0 Z-10.0703 I-0.0419 J-0.144
G2 X49.825 Y7.8701 Z-10.1846 I-0.15 J0.0
G2 X49.7942 Y8.1063 Z-10.2848 I0.075 J0.1299
G2 X49.825 Y8.1299 Z-10.299 I0.1058 J-0.1063
G2 X50.05 Y8.0 Z-10.4133 I0.075 J-0.1299
G2 X49.825 Y7.8701 Z-10.5277 I-0.15 J0.0
G2 X49.7942 Y8.1063 Z-10.6279 I0.075 J0.1299
G2 X49.825 Y8.1299 Z-10.642 I0.1058 J-0.1063
G2 X50.05 Y8.0 Z-10.7564 I0.075 J-0.1299
G2 X49.825 Y7.8701 Z-10.8707 I-0.15 J0.0
G2 X49.7942 Y8.1063 Z-10.9709 I0.075 J0.1299
G2 X49.825 Y8.1299 Z-10.9851 I0.1058 J-0.1063
G2 X50.05 Y8.0 Z-11.0994 I0.075 J-0.1299
G2 X49.825 Y7.8701 Z-11.2137 I-0.15 J0.0
G2 X49.7942 Y8.1063 Z-11.3139 I0.075 J0.1299
G2 X49.825 Y8.1299 Z-11.3281 I0.1058 J-0.1063
G2 X50.05 Y8.0 Z-11.4424 I0.075 J-0.1299
G2 X49.825 Y7.8701 Z-11.5568 I-0.15 J0.0
G2 X49.7942 Y8.1063 Z-11.657 I0.075 J0.1299
G2 X49.825 Y8.1299 Z-11.6711 I0.1058 J-0.1063
G2 X50.05 Y8.0 Z-11.7855 I0.075 J-0.1299
G2 X49.825 Y7.8701 Z-11.8998 I-0.15 J0.0
G2 X49.7942 Y8.1063 Z-12.0 I0.075 J0.1299
G2 X49.825 Y8.1299 I0.1058 J-0.1063
G2 X50.05 Y8.0 I0.075 J-0.1299
G2 X49.825 Y7.8701 I-0.15 J0.0
G2 X49.7942 Y8.1063 I0.075 J0.1299
G1 F800.0 X49.9419 Y8.144
G2 F2000.0 X50.05 Y8.0 Z-12.0703 I-0.0419 J-0.144
G2 X49.825 Y7.8701 Z-12.1846 I-0.15 J0.0
G2 X49.7942 Y8.1063 Z-12.2848 I0.075 J0.1299
G2 X49.825 Y8.1299 Z-12.299 I0.1058 J-0.1063
G2 X50.05 Y8.0 Z-12.4133 I0.075 J-0.1299
G2 X49.825 Y7.8701 Z-12.5277 I-0.15 J0.0
G2 X49.7942 Y8.1063 Z-12.6279 I0.075 J0.1299
G2 X49.825 Y8.1299 Z-12.642 I0.1058 J-0.1063
G2 X50.05 Y8.0 Z-12.7564 I0.075 J-0.1299
G2 X49.825 Y7.8701 Z-12.8707 I-0.15 J0.0
G2 X49.7942 Y8.1063 Z-12.9709 I0.075 J0.1299
G2 X49.825 Y8.1299 Z-12.9851 I0.1058 J-0.1063
G2 X50.05 Y8.0 Z-13.0994 I0.075 J-0.1299
G2 X49.825 Y7.8701 Z-13.2137 I-0.15 J0.0
G2 X49.7942 Y8.1063 Z-13.3139 I0.075 J0.1299
G2 X49.825 Y8.1299 Z-13.3281 I0.1058 J-0.1063
G2 X50.05 Y8.0 Z-13.4424 I0.075 J-0.1299
G2 X49.825 Y7.8701 Z-13.5568 I-0.15 J0.0
G2 X49.7942 Y8.1063 Z-13.657 I0.075 J0.1299
G2 X49.825 Y8.1299 Z-13.6711 I0.1058 J-0.1063
G2 X50.05 Y8.0 Z-13.7855 I0.075 J-0.1299
G2 X49.825 Y7.8701 Z-13.8998 I-0.15 J0.0
G2 X49.7942 Y8.1063 Z-14.0 I0.075 J0.1299
G2 X49.825 Y8.1299 I0.1058 J-0.1063
G2 X50.05 Y8.0 I0.075 J-0.1299
G2 X49.825 Y7.8701 I-0.15 J0.0
G2 X49.7942 Y8.1063 I0.075 J0.1299
G1 F800.0 X49.8629 Y8.1453
G2 F2000.0 X50.05 Y8.0 Z-14.0994 I0.0371 J-0.1453
G2 X49.825 Y7.8701 Z-14.2137 I-0.15 J0.0
G2 X49.7942 Y8.1063 Z-14.3139 I0.075 J0.1299
G2 X49.825 Y8.1299 Z-14.3281 I0.1058 J-0.1063
G2 X50.05 Y8.0 Z-14.4424 I0.075 J-0.1299
G2 X49.825 Y7.8701 Z-14.5568 I-0.15 J0.0
G2 X49.7942 Y8.1063 Z-14.657 I0.075 J0.1299
G2 X49.825 Y8.1299 Z-14.6711 I0.1058 J-0.1063
G2 X50.05 Y8.0 Z-14.7855 I0.075 J-0.1299
G2 X49.825 Y7.8701 Z-14.8998 I-0.15 J0.0
G2 X49.7942 Y8.1063 Z-15.0 I0.075 J0.1299
G2 X49.825 Y8.1299 I0.1058 J-0.1063
G2 X50.05 Y8.0 I0.075 J-0.1299
G2 X49.825 Y7.8701 I-0.15 J0.0
G2 X49.7942 Y8.1063 I0.075 J0.1299
G0 Z3.0
G0 X92.256 Y50.5419
G0 Z0.1
G1 F800.0 Z0.0
G2 F2000.0 X92.325 Y50.6299 Z-0.0417 I0.144 J-0.0419
G2 X92.55 Y50.5 Z-0.1561 I0.075 J-0.1299
G2 X92.325 Y50.3701 Z-0.2704 I-0.15 J0.0
G2 X92.2937 Y50.3942 Z-0.2848 I0.075 J0.1299
G2 X92.325 Y50.6299 Z-0.3847 I0.1063 J0.1058
G2 X92.55 Y50.5 Z-0.4991 I0.075 J-0.1299
G2 X92.325 Y50.3701 Z-0.6134 I-0.15 J0.0
G2 X92.2937 Y50.3942 Z-0.6279 I0.075 J0.1299
G2 X92.325 Y50.6299 Z-0.7278 I0.1063 J0.1058
G2 X92.55 Y50.5 Z-0.8421 I0.075 J-0.1299
G2 X92.325 Y50.3701 Z-0.9565 I-0.15 J0.0
G2 X92.2937 Y50.3942 Z-0.9709 I0.075 J0.1299
G2 X92.325 Y50.6299 Z-1.0708 I0.1063 J0.1058
G2 X92.55 Y50.5 Z-1.1852 I0.075 J-0.1299
G2 X92.325 Y50.3701 Z-1.2995 I-0.15 J0.0
G2 X92.2937 Y50.3942 Z-1.3139 I0.075 J0.1299
G2 X92.325 Y50.6299 Z-1.4138 I0.1063 J0.1058
G2 X92.55 Y50.5 Z-1.5282 I0.075 J-0.1299
G2 X92.325 Y50.3701 Z-1.6425 I-0.15 J0.0
G2 X92.2937 Y50.3942 Z-1.657 I0.075 J0.1299
G2 X92.325 Y50.6299 Z-1.7569 I0.1063 J0.1058
G2 X92.55 Y50.5 Z-1.8712 I0.075 J-0.1299
G2 X92.325 Y50.3701 Z-1.9856 I-0.15 J0.0
G2 X92.2937 Y50.3942 Z-2.0 I0.075 J0.1299
G2 X92.325 Y50.6299 I0.1063 J0.1058
G2 X92.55 Y50.5 I0.075 J-0.1299
G2 X92.325 Y50.3701 I-0.15 J0.0
G2 X92.2937 Y50.3942 I0.075 J0.1299
G1 F800.0 X92.256 Y50.5419
G2 F2000.0 X92.325 Y50.6299 Z-2.0417 I0.144 J-0.0419
G2 X92.55 Y50.5 Z-2.1561 I0.075 J-0.1299
G2 X92.325 Y50.3701 Z-2.2704 I-0.15 J0.0
G2 X92.2937 Y50.3942 Z-2.2848 I0.075 J0.1299
G2 X92.325 Y50.6299 Z-2.3847 I0.1063 J0.1058
G2 X92.55 Y50.5 Z-2.4991 I0.075 J-0.1299
G2 X92.325 Y50.3701 Z-2.6134 I-0.15 J0.0
G2 X92.2937 Y50.3942 Z-2.6279 I0.075 J0.1299
G2 X92.325 Y50.6299 Z-2.7278 I0.1063 J0.1058
G2 X92.55 Y50.5 Z-2.8421 I0.075 J-0.1299
G2 X92.325 Y50.3701 Z-2.9565 I-0.15 J0.0
G2 X92.2937 Y50.3942 Z-2.9709 I0.075 J0.1299
G2 X92.325 Y50.6299 Z-3.0708 I0.1063 J0.1058
G2 X92.55 Y50.5 Z-3.1852 I0.075 J-0.1299
G2 X92.325 Y50.3701 Z-3.2995 I-0.15 J0.0
G2 X92.2937 Y50.3942 Z-3.3139 I0.075 J0.1299
G2 X92.325 Y50.6299 Z-3.4138 I0.1063 J0.1058
G2 X92.55 Y50.5 Z-3.5282 I0.075 J-0.1299
G2 X92.325 Y50.3701 Z-3.6425 I-0.15 J0.0
G2 X92.2937 Y50.3942 Z-3.657 I0.075 J0.1299
G2 X92.325 Y50.6299 Z-3.7569 I0.1063 J0.1058
G2 X92.55 Y50.5 Z-3.8712 I0.075 J-0.1299
G2 X92.325 Y50.3701 Z-3.9856 I-0.15 J0.0
G2 X92.2937 Y50.3942 Z-4.0 I0.075 J0.1299
G2 X92.325 Y50.6299 I0.1063 J0.1058
G2 X92.55 Y50.5 I0.075 J-0.1299
G2 X92.325 Y50.3701 I-0.15 J0.0
G2 X92.2937 Y50.3942 I0.075 J0.1299
G1 F800.0 X92.256 Y50.5419
G2 F2000.0 X92.325 Y50.6299 Z-4.0417 I0.144 J-0.0419
G2 X92.55 Y50.5 Z-4.1561 I0.075 J-0.1299
G2 X92.325 Y50.3701 Z-4.2704 I-0.15 J0.0
G2 X92.2937 Y50.3942 Z-4.2848 I0.075 J0.1299
G2 X92.325 Y50.6299 Z-4.3847 I0.1063 J0.1058
G2 X92.55 Y50.5 Z-4.4991 I0.075 J-0.1299
G2 X92.325 Y50.3701 Z-4.6134 I-0.15 J0.0
G2 X92.2937 Y50.3942 Z-4.6279 I0.075 J0.1299
G2 X92.325 Y50.6299 Z-4.7278 I0.1063 J0.1058
G2 X92.55 Y50.5 Z-4.8421 I0.075 J-0.1299
G2 X92.325 Y50.3701 Z-4.9565 I-0.15 J0.0
G2 X92.2937 Y50.3942 Z-4.9709 I0.075 J0.1299
G2 X92.325 Y50.6299 Z-5.0708 I0.1063 J0.1058
G2 X92.55 Y50.5 Z-5.1852 I0.075 J-0.1299
G2 X92.325 Y50.3701 Z-5.2995 I-0.15 J0.0
G2 X92.2937 Y50.3942 Z-5.3139 I0.075 J0.1299
G2 X92.325 Y50.6299 Z-5.4138 I0.1063 J0.1058
G2 X92.55 Y50.5 Z-5.5282 I0.075 J-0.1299
G2 X92.325 Y50.3701 Z-5.6425 I-0.15 J0.0
G2 X92.2937 Y50.3942 Z-5.657 I0.075 J0.1299
G2 X92.325 Y50.6299 Z-5.7569 I0.1063 J0.1058
G2 X92.55 Y50.5 Z-5.8712 I0.075 J-0.1299
G2 X92.325 Y50.3701 Z-5.9856 I-0.15 J0.0
G2 X92.2937 Y50.3942 Z-6.0 I0.075 J0.1299
G2 X92.325 Y50.6299 I0.1063 J0.1058
G2 X92.55 Y50.5 I0.075 J-0.1299
G2 X92.325 Y50.3701 I-0.15 J0.0
G2 X92.2937 Y50.3942 I0.075 J0.1299
G1 F800.0 X92.256 Y50.5419
G2 F2000.0 X92.325 Y50.6299 Z-6.0417 I0.144 J-0.0419
G2 X92.55 Y50.5 Z-6.1561 I0.075 J-0.1299
G2 X92.325 Y50.3701 Z-6.2704 I-0.15 J0.0
G2 X92.2937 Y50.3942 Z-6.2848 I0.075 J0.1299
G2 X92.325 Y50.6299 Z-6.3847 I0.1063 J0.1058
G2 X92.55 Y50.5 Z-6.4991 I0.075 J-0.1299
G2 X92.325 Y50.3701 Z-6.6134 I-0.15 J0.0
G2 X92.2937 Y50.3942 Z-6.6279 I0.075 J0.1299
G2 X92.325 Y50.6299 Z-6.7278 I0.1063 J0.1058
G2 X92.55 Y50.5 Z-6.8421 I0.075 J-0.1299
G2 X92.325 Y50.3701 Z-6.9565 I-0.15 J0.0
G2 X92.2937 Y50.3942 Z-6.9709 I0.075 J0.1299
G2 X92.325 Y50.6299 Z-7.0708 I0.1063 J0.1058
G2 X92.55 Y50.5 Z-7.1852 I0.075 J-0.1299
G2 X92.325 Y50.3701 Z-7.2995 I-0.15 J0.0
G2 X92.2937 Y50.3942 Z-7.3139 I0.075 J0.1299
G2 X92.325 Y50.6299 Z-7.4138 I0.1063 J0.1058
G2 X92.55 Y50.5 Z-7.5282 I0.075 J-0.1299
G2 X92.325 Y50.3701 Z-7.6425 I-0.15 J0.0
G2 X92.2937 Y50.3942 Z-7.657 I0.075 J0.1299
G2 X92.325 Y50.6299 Z-7.7569 I0.1063 J0.1058
G2 X92.55 Y50.5 Z-7.8712 I0.075 J-0.1299
G2 X92.325 Y50.3701 Z-7.9856 I-0.15 J0.0
G2 X92.2937 Y50.3942 Z-8.0 I0.075 J0.1299
G2 X92.325 Y50.6299 I0.1063 J0.1058
G2 X92.55 Y50.5 I0.075 J-0.1299
G2 X92.325 Y50.3701 I-0.15 J0.0
G2 X92.2937 Y50.3942 I0.075 J0.1299
G1 F800.0 X92.256 Y50.5419
G2 F2000.0 X92.325 Y50.6299 Z-8.0417 I0.144 J-0.0419
G2 X92.55 Y50.5 Z-8.1561 I0.075 J-0.1299
G2 X92.325 Y50.3701 Z-8.2704 I-0.15 J0.0
G2 X92.2937 Y50.3942 Z-8.2848 I0.075 J0.1299
G2 X92.325 Y50.6299 Z-8.3847 I0.1063 J0.1058
G2 X92.55 Y50.5 Z-8.4991 I0.075 J-0.1299
G2 X92.325 Y50.3701 Z-8.6134 I-0.15 J0.0
G2 X92.2937 Y50.3942 Z-8.6279 I0.075 J0.1299
G2 X92.325 Y50.6299 Z-8.7278 I0.1063 J0.1058
G2 X92.55 Y50.5 Z-8.8421 I0.075 J-0.1299
G2 X92.325 Y50.3701 Z-8.9565 I-0.15 J0.0
G2 X92.2937 Y50.3942 Z-8.9709 I0.075 J0.1299
G2 X92.325 Y50.6299 Z-9.0708 I0.1063 J0.1058
G2 X92.55 Y50.5 Z-9.1852 I0.075 J-0.1299
G2 X92.325 Y50.3701 Z-9.2995 I-0.15 J0.0
G2 X92.2937 Y50.3942 Z-9.3139 I0.075 J0.1299
G2 X92.325 Y50.6299 Z-9.4138 I0.1063 J0.1058
G2 X92.55 Y50.5 Z-9.5282 I0.075 J-0.1299
G2 X92.325 Y50.3701 Z-9.6425 I-0.15 J0.0
G2 X92.2937 Y50.3942 Z-9.657 I0.075 J0.1299
G2 X92.325 Y50.6299 Z-9.7569 I0.1063 J0.1058
G2 X92.55 Y50.5 Z-9.8712 I0.075 J-0.1299
G2 X92.325 Y50.3701 Z-9.9856 I-0.15 J0.0
G2 X92.2937 Y50.3942 Z-10.0 I0.075 J0.1299
G2 X92.325 Y50.6299 I0.1063 J0.1058
G2 X92.55 Y50.5 I0.075 J-0.1299
G2 X92.325 Y50.3701 I-0.15 J0.0
G2 X92.2937 Y50.3942 I0.075 J0.1299
G1 F800.0 X92.256 Y50.5419
G2 F2000.0 X92.325 Y50.6299 Z-10.0417 I0.144 J-0.0419
G2 X92.55 Y50.5 Z-10.1561 I0.075 J-0.1299
G2 X92.325 Y50.3701 Z-10.2704 I-0.15 J0.0
G2 X92.2937 Y50.3942 Z-10.2848 I0.075 J0.1299
G2 X92.325 Y50.6299 Z-10.3847 I0.1063 J0.1058
G2 X92.55 Y50.5 Z-10.4991 I0.075 J-0.1299
G2 X92.325 Y50.3701 Z-10.6134 I-0.15 J0.0
G2 X92.2937 Y50.3942 Z-10.6279 I0.075 J0.1299
G2 X92.325 Y50.6299 Z-10.7278 I0.1063 J0.1058
G2 X92.55 Y50.5 Z-10.8421 I0.075 J-0.1299
G2 X92.325 Y50.3701 Z-10.9565 I-0.15 J0.0
G2 X92.2937 Y50.3942 Z-10.9709 I0.075 J0.1299
G2 X92.325 Y50.6299 Z-11.0708 I0.1063 J0.1058
G2 X92.55 Y50.5 Z-11.1852 I0.075 J-0.1299
G2 X92.325 Y50.3701 Z-11.2995 I-0.15 J0.0
G2 X92.2937 Y50.3942 Z-11.3139 I0.075 J0.1299
G2 X92.325 Y50.6299 Z-11.4138 I0.1063 J0.1058
G2 X92.55 Y50.5 Z-11.5282 I0.075 J-0.1299
G2 X92.325 Y50.3701 Z-11.6425 I-0.15 J0.0
G2 X92.2937 Y50.3942 Z-11.657 I0.075 J0.1299
G2 X92.325 Y50.6299 Z-11.7569 I0.1063 J0.1058
G2 X92.55 Y50.5 Z-11.8712 I0.075 J-0.1299
G2 X92.325 Y50.3701 Z-11.9856 I-0.15 J0.0
G2 X92.2937 Y50.3942 Z-12.0 I0.075 J0.1299
G2 X92.325 Y50.6299 I0.1063 J0.1058
G2 X92.55 Y50.5 I0.075 J-0.1299
G2 X92.325 Y50.3701 I-0.15 J0.0
G2 X92.2937 Y50.3942 I0.075 J0.1299
G1 F800.0 X92.256 Y50.5419
G2 F2000.0 X92.325 Y50.6299 Z-12.0417 I0.144 J-0.0419
G2 X92.55 Y50.5 Z-12.1561 I0.075 J-0.1299
G2 X92.325 Y50.3701 Z-12.2704 I-0.15 J0.0
G2 X92.2937 Y50.3942 Z-12.2848 I0.075 J0.1299
G2 X92.325 Y50.6299 Z-12.3847 I0.1063 J0.1058
G2 X92.55 Y50.5 Z-12.4991 I0.075 J-0.1299
G2 X92.325 Y50.3701 Z-12.6134 I-0.15 J0.0
G2 X92.2937 Y50.3942 Z-12.6279 I0.075 J0.1299
G2 X92.325 Y50.6299 Z-12.7278 I0.1063 J0.1058
G2 X92.55 Y50.5 Z-12.8421 I0.075 J-0.1299
G2 X92.325 Y50.3701 Z-12.9565 I-0.15 J0.0
G2 X92.2937 Y50.3942 Z-12.9709 I0.075 J0.1299
G2 X92.325 Y50.6299 Z-13.0708 I0.1063 J0.1058
G2 X92.55 Y50.5 Z-13.1852 I0.075 J-0.1299
G2 X92.325 Y50.3701 Z-13.2995 I-0.15 J0.0
G2 X92.2937 Y50.3942 Z-13.3139 I0.075 J0.1299
G2 X92.325 Y50.6299 Z-13.4138 I0.1063 J0.1058
G2 X92.55 Y50.5 Z-13.5282 I0.075 J-0.1299
G2 X92.325 Y50.3701 Z-13.6425 I-0.15 J0.0
G2 X92.2937 Y50.3942 Z-13.657 I0.075 J0.1299
G2 X92.325 Y50.6299 Z-13.7569 I0.1063 J0.1058
G2 X92.55 Y50.5 Z-13.8712 I0.075 J-0.1299
G2 X92.325 Y50.3701 Z-13.9856 I-0.15 J0.0
G2 X92.2937 Y50.3942 Z-14.0 I0.075 J0.1299
G2 X92.325 Y50.6299 I0.1063 J0.1058
G2 X92.55 Y50.5 I0.075 J-0.1299
G2 X92.325 Y50.3701 I-0.15 J0.0
G2 X92.2937 Y50.3942 I0.075 J0.1299
G1 F800.0 X92.2547 Y50.4629
G2 F2000.0 X92.325 Y50.6299 Z-14.0708 I0.1453 J0.0371
G2 X92.55 Y50.5 Z-14.1852 I0.075 J-0.1299
G2 X92.325 Y50.3701 Z-14.2995 I-0.15 J0.0
G2 X92.2937 Y50.3942 Z-14.3139 I0.075 J0.1299
G2 X92.325 Y50.6299 Z-14.4138 I0.1063 J0.1058
G2 X92.55 Y50.5 Z-14.5282 I0.075 J-0.1299
G2 X92.325 Y50.3701 Z-14.6425 I-0.15 J0.0
G2 X92.2937 Y50.3942 Z-14.657 I0.075 J0.1299
G2 X92.325 Y50.6299 Z-14.7569 I0.1063 J0.1058
G2 X92.55 Y50.5 Z-14.8712 I0.075 J-0.1299
G2 X92.325 Y50.3701 Z-14.9856 I-0.15 J0.0
G2 X92.2937 Y50.3942 Z-15.0 I0.075 J0.1299
G2 X92.325 Y50.6299 I0.1063 J0.1058
G2 X92.55 Y50.5 I0.075 J-0.1299
G2 X92.325 Y50.3701 I-0.15 J0.0
G2 X92.2937 Y50.3942 I0.075 J0.1299
G0 Z3.0
G0 X117.9224 Y51.5284
G0 Z0.1
G1 F800.0 Z0.0
G2 F2000.0 X117.925 Y51.5299 Z-0.0011 I0.0776 J-0.1284
G2 X118.15 Y51.4 Z-0.1154 I0.075 J-0.1299
G2 X117.925 Y51.2701 Z-0.2298 I-0.15 J0.0
G2 X117.8501 Y51.3941 Z-0.2848 I0.075 J0.1299
G2 X117.925 Y51.5299 Z-0.3441 I0.1499 J0.0059
G2 X118.15 Y51.4 Z-0.4585 I0.075 J-0.1299
G2 X117.925 Y51.2701 Z-0.5728 I-0.15 J0.0
G2 X117.8501 Y51.3941 Z-0.6279 I0.075 J0.1299
G2 X117.925 Y51.5299 Z-0.6872 I0.1499 J0.0059
G2 X118.15 Y51.4 Z-0.8015 I0.075 J-0.1299
G2 X117.925 Y51.2701 Z-0.9159 I-0.15 J0.0
G2 X117.8501 Y51.3941 Z-0.9709 I0.075 J0.1299
G2 X117.925 Y51.5299 Z-1.0302 I0.1499 J0.0059
G2 X118.15 Y51.4 Z-1.1446 I0.075 J-0.1299
G2 X117.925 Y51.2701 Z-1.2589 I-0.15 J0.0
G2 X117.8501 Y51.3941 Z-1.3139 I0.075 J0.1299
G2 X117.925 Y51.5299 Z-1.3732 I0.1499 J0.0059
G2 X118.15 Y51.4 Z-1.4876 I0.075 J-0.1299
G2 X117.925 Y51.2701 Z-1.6019 I-0.15 J0.0
G2 X117.8501 Y51.3941 Z-1.657 I0.075 J0.1299
G2 X117.925 Y51.5299 Z-1.7163 I0.1499 J0.0059
G2 X118.15 Y51.4 Z-1.8306 I0.075 J-0.1299
G2 X117.925 Y51.2701 Z-1.945 I-0.15 J0.0
G2 X117.8501 Y51.3941 Z-2.0 I0.075 J0.1299
G2 X117.925 Y51.5299 I0.1499 J0.0059
G2 X118.15 Y51.4 I0.075 J-0.1299
G2 X117.925 Y51.2701 I-0.15 J0.0
G2 X117.8501 Y51.3941 I0.075 J0.1299
G1 F800.0 X117.9224 Y51.5284
G2 F2000.0 X117.925 Y51.5299 Z-2.0011 I0.0776 J-0.1284
G2 X118.15 Y51.4 Z-2.1154 I0.075 J-0.1299
G2 X117.925 Y51.2701 Z-2.2298 I-0.15 J0.0
G2 X117.8501 Y51.3941 Z-2.2848 I0.075 J0.1299
G2 X117.925 Y51.5299 Z-2.3441 I0.1499 J0.0059
G2 X118.15 Y51.4 Z-2.4585 I0.075 J-0.1299
G2 X117.925 Y51.2701 Z-2.5728 I-0.15 J0.0
G2 X117.8501 Y51.3941 Z-2.6279 I0.075 J0.1299
G2 X117.925 Y51.5299 Z-2.6872 I0.1499 J0.0059
G2 X118.15 Y51.4 Z-2.8015 I0.075 J-0.1299
G2 X117.925 Y51.2701 Z-2.9159 I-0.15 J0.0
G2 X117.8501 Y51.3941 Z-2.9709 I0.075 J0.1299
G2 X117.925 Y51.5299 Z-3.0302 I0.1499 J0.0059
G2 X118.15 Y51.4 Z-3.1446 I0.075 J-0.1299
G2 X117.925 Y51.2701 Z-3.2589 I-0.15 J0.0
G2 X117.8501 Y51.3941 Z-3.3139 I0.075 J0.1299
G2 X117.925 Y51.5299 Z-3.3732 I0.1499 J0.0059
G2 X118.15 Y51.4 Z-3.4876 I0.075 J-0.1299
G2 X117.925 Y51.2701 Z-3.6019 I-0.15 J0.0
G2 X117.8501 Y51.3941 Z-3.657 I0.075 J0.1299
G2 X117.925 Y51.5299 Z-3.7163 I0.1499 J0.0059
G2 X118.15 Y51.4 Z-3.8306 I0.075 J-0.1299
G2 X117.925 Y51.2701 Z-3.945 I-0.15 J0.0
G2 X117.8501 Y51.3941 Z-4.0 I0.075 J0.1299
G2 X117.925 Y51.5299 I0.1499 J0.0059
G2 X118.15 Y51.4 I0.075 J-0.1299
G2 X117.925 Y51.2701 I-0.15 J0.0
G2 X117.8501 Y51.3941 I0.075 J0.1299
G1 F800.0 X117.9224 Y51.5284
G2 F2000.0 X117.925 Y51.5299 Z-4.0011 I0.0776 J-0.1284
G2 X118.15 Y51.4 Z-4.1154 I0.075 J-0.1299
G2 X117.925 Y51.2701 Z-4.2298 I-0.15 J0.0
G2 X117.8501 Y51.3941 Z-4.2848 I0.075 J0.1299
G2 X117.925 Y51.5299 Z-4.3441 I0.1499 J0.0059
G2 X118.15 Y51.4 Z-4.4585 I0.075 J-0.1299
G2 X117.925 Y51.2701 Z-4.5728 I-0.15 J0.0
G2 X117.8501 Y51.3941 Z-4.6279 I0.075 J0.1299
G2 X117.925 Y51.5299 Z-4.6872 I0.1499 J0.0059
G2 X118.15 Y51.4 Z-4.8015 I0.075 J-0.1299
G2 X117.925 Y51.2701 Z-4.9159 I-0.15 J0.0
G2 X117.8501 Y51.3941 Z-4.9709 I0.075 J0.1299
G2 X117.925 Y51.5299 Z-5.0302 I0.1499 J0.0059
G2 X118.15 Y51.4 Z-5.1446 I0.075 J-0.1299
G2 X117.925 Y51.2701 Z-5.2589 I-0.15 J0.0
G2 X117.8501 Y51.3941 Z-5.3139 I0.075 J0.1299
G2 X117.925 Y51.5299 Z-5.3732 I0.1499 J0.0059
G2 X118.15 Y51.4 Z-5.4876 I0.075 J-0.1299
G2 X117.925 Y51.2701 Z-5.6019 I-0.15 J0.0
G2 X117.8501 Y51.3941 Z-5.657 I0.075 J0.1299
G2 X117.925 Y51.5299 Z-5.7163 I0.1499 J0.0059
G2 X118.15 Y51.4 Z-5.8306 I0.075 J-0.1299
G2 X117.925 Y51.2701 Z-5.945 I-0.15 J0.0
G2 X117.8501 Y51.3941 Z-6.0 I0.075 J0.1299
G2 X117.925 Y51.5299 I0.1499 J0.0059
G2 X118.15 Y51.4 I0.075 J-0.1299
G2 X117.925 Y51.2701 I-0.15 J0.0
G2 X117.8501 Y51.3941 I0.075 J0.1299
G1 F800.0 X117.9224 Y51.5284
G2 F2000.0 X117.925 Y51.5299 Z-6.0011 I0.0776 J-0.1284
G2 X118.15 Y51.4 Z-6.1154 I0.075 J-0.1299
G2 X117.925 Y51.2701 Z-6.2298 I-0.15 J0.0
G2 X117.8501 Y51.3941 Z-6.2848 I0.075 J0.1299
G2 X117.925 Y51.5299 Z-6.3441 I0.1499 J0.0059
G2 X118.15 Y51.4 Z-6.4585 I0.075 J-0.1299
G2 X117.925 Y51.2701 Z-6.5728 I-0.15 J0.0
G2 X117.8501 Y51.3941 Z-6.6279 I0.075 J0.1299
G2 X117.925 Y51.5299 Z-6.6872 I0.1499 J0.0059
G2 X118.15 Y51.4 Z-6.8015 I0.075 J-0.1299
G2 X117.925 Y51.2701 Z-6.9159 I-0.15 J0.0
G2 X117.8501 Y51.3941 Z-6.9709 I0.075 J0.1299
G2 X117.925 Y51.5299 Z-7.0302 I0.1499 J0.0059
G2 X118.15 Y51.4 Z-7.1446 I0.075 J-0.1299
G2 X117.925 Y51.2701 Z-7.2589 I-0.15 J0.0
G2 X117.8501 Y51.3941 Z-7.3139 I0.075 J0.1299
G2 X117.925 Y51.5299 Z-7.3732 I0.1499 J0.0059
G2 X118.15 Y51.4 Z-7.4876 I0.075 J-0.1299
G2 X117.925 Y51.2701 Z-7.6019 I-0.15 J0.0
G2 X117.8501 Y51.3941 Z-7.657 I0.075 J0.1299
G2 X117.925 Y51.5299 Z-7.7163 I0.1499 J0.0059
G2 X118.15 Y51.4 Z-7.8306 I0.075 J-0.1299
G2 X117.925 Y51.2701 Z-7.945 I-0.15 J0.0
G2 X117.8501 Y51.3941 Z-8.0 I0.075 J0.1299
G2 X117.925 Y51.5299 I0.1499 J0.0059
G2 X118.15 Y51.4 I0.075 J-0.1299
G2 X117.925 Y51.2701 I-0.15 J0.0
G2 X117.8501 Y51.3941 I0.075 J0.1299
G1 F800.0 X117.9224 Y51.5284
G2 F2000.0 X117.925 Y51.5299 Z-8.0011 I0.0776 J-0.1284
G2 X118.15 Y51.4 Z-8.1154 I0.075 J-0.1299
G2 X117.925 Y51.2701 Z-8.2298 I-0.15 J0.0
G2 X117.8501 Y51.3941 Z-8.2848 I0.075 J0.1299
G2 X117.925 Y51.5299 Z-8.3441 I0.1499 J0.0059
G2 X118.15 Y51.4 Z-8.4585 I0.075 J-0.1299
G2 X117.925 Y51.2701 Z-8.5728 I-0.15 J0.0
G2 X117.8501 Y51.3941 Z-8.6279 I0.075 J0.1299
G2 X117.925 Y51.5299 Z-8.6872 I0.1499 J0.0059
G2 X118.15 Y51.4 Z-8.8015 I0.075 J-0.1299
G2 X117.925 Y51.2701 Z-8.9159 I-0.15 J0.0
G2 X117.8501 Y51.3941 Z-8.9709 I0.075 J0.1299
G2 X117.925 Y51.5299 Z-9.0302 I0.1499 J0.0059
G2 X118.15 Y51.4 Z-9.1446 I0.075 J-0.1299
G2 X117.925 Y51.2701 Z-9.2589 I-0.15 J0.0
G2 X117.8501 Y51.3941 Z-9.3139 I0.075 J0.1299
G2 X117.925 Y51.5299 Z-9.3732 I0.1499 J0.0059
G2 X118.15 Y51.4 Z-9.4876 I0.075 J-0.1299
G2 X117.925 Y51.2701 Z-9.6019 I-0.15 J0.0
G2 X117.8501 Y51.3941 Z-9.657 I0.075 J0.1299
G2 X117.925 Y51.5299 Z-9.7163 I0.1499 J0.0059
G2 X118.15 Y51.4 Z-9.8306 I0.075 J-0.1299
G2 X117.925 Y51.2701 Z-9.945 I-0.15 J0.0
G2 X117.8501 Y51.3941 Z-10.0 I0.075 J0.1299
G2 X117.925 Y51.5299 I0.1499 J0.0059
G2 X118.15 Y51.4 I0.075 J-0.1299
G2 X117.925 Y51.2701 I-0.15 J0.0
G2 X117.8501 Y51.3941 I0.075 J0.1299
G1 F800.0 X117.9224 Y51.5284
G2 F2000.0 X117.925 Y51.5299 Z-10.0011 I0.0776 J-0.1284
G2 X118.15 Y51.4 Z-10.1154 I0.075 J-0.1299
G2 X117.925 Y51.2701 Z-10.2298 I-0.15 J0.0
G2 X117.8501 Y51.3941 Z-10.2848 I0.075 J0.1299
G2 X117.925 Y51.5299 Z-10.3441 I0.1499 J0.0059
G2 X118.15 Y51.4 Z-10.4585 I0.075 J-0.1299
G2 X117.925 Y51.2701 Z-10.5728 I-0.15 J0.0
G2 X117.8501 Y51.3941 Z-10.6279 I0.075 J0.1299
G2 X117.925 Y51.5299 Z-10.6872 I0.1499 J0.0059
G2 X118.15 Y51.4 Z-10.8015 I0.075 J-0.1299
G2 X117.925 Y51.2701 Z-10.9159 I-0.15 J0.0
G2 X117.8501 Y51.3941 Z-10.9709 I0.075 J0.1299
G2 X117.925 Y51.5299 Z-11.0302 I0.1499 J0.0059
G2 X118.15 Y51.4 Z-11.1446 I0.075 J-0.1299
G2 X117.925 Y51.2701 Z-11.2589 I-0.15 J0.0
G2 X117.8501 Y51.3941 Z-11.3139 I0.075 J0.1299
G2 X117.925 Y51.5299 Z-11.3732 I0.1499 J0.0059
G2 X118.15 Y51.4 Z-11.4876 I0.075 J-0.1299
G2 X117.925 Y51.2701 Z-11.6019 I-0.15 J0.0
G2 X117.8501 Y51.3941 Z-11.657 I0.075 J0.1299
G2 X117.925 Y51.5299 Z-11.7163 I0.1499 J0.0059
G2 X118.15 Y51.4 Z-11.8306 I0.075 J-0.1299
G2 X117.925 Y51.2701 Z-11.945 I-0.15 J0.0
G2 X117.8501 Y51.3941 Z-12.0 I0.075 J0.1299
G2 X117.925 Y51.5299 I0.1499 J0.0059
G2 X118.15 Y51.4 I0.075 J-0.1299
G2 X117.925 Y51.2701 I-0.15 J0.0
G2 X117.8501 Y51.3941 I0.075 J0.1299
G1 F800.0 X117.9224 Y51.5284
G2 F2000.0 X117.925 Y51.5299 Z-12.0011 I0.0776 J-0.1284
G2 X118.15 Y51.4 Z-12.1154 I0.075 J-0.1299
G2 X117.925 Y51.2701 Z-12.2298 I-0.15 J0.0
G2 X117.8501 Y51.3941 Z-12.2848 I0.075 J0.1299
G2 X117.925 Y51.5299 Z-12.3441 I0.1499 J0.0059
G2 X118.15 Y51.4 Z-12.4585 I0.075 J-0.1299
G2 X117.925 Y51.2701 Z-12.5728 I-0.15 J0.0
G2 X117.8501 Y51.3941 Z-12.6279 I0.075 J0.1299
G2 X117.925 Y51.5299 Z-12.6872 I0.1499 J0.0059
G2 X118.15 Y51.4 Z-12.8015 I0.075 J-0.1299
G2 X117.925 Y51.2701 Z-12.9159 I-0.15 J0.0
G2 X117.8501 Y51.3941 Z-12.9709 I0.075 J0.1299
G2 X117.925 Y51.5299 Z-13.0302 I0.1499 J0.0059
G2 X118.15 Y51.4 Z-13.1446 I0.075 J-0.1299
G2 X117.925 Y51.2701 Z-13.2589 I-0.15 J0.0
G2 X117.8501 Y51.3941 Z-13.3139 I0.075 J0.1299
G2 X117.925 Y51.5299 Z-13.3732 I0.1499 J0.0059
G2 X118.15 Y51.4 Z-13.4876 I0.075 J-0.1299
G2 X117.925 Y51.2701 Z-13.6019 I-0.15 J0.0
G2 X117.8501 Y51.3941 Z-13.657 I0.075 J0.1299
G2 X117.925 Y51.5299 Z-13.7163 I0.1499 J0.0059
G2 X118.15 Y51.4 Z-13.8306 I0.075 J-0.1299
G2 X117.925 Y51.2701 Z-13.945 I-0.15 J0.0
G2 X117.8501 Y51.3941 Z-14.0 I0.075 J0.1299
G2 X117.925 Y51.5299 I0.1499 J0.0059
G2 X118.15 Y51.4 I0.075 J-0.1299
G2 X117.925 Y51.2701 I-0.15 J0.0
G2 X117.8501 Y51.3941 I0.075 J0.1299
G1 F800.0 X117.8679 Y51.4711
G2 F2000.0 X117.925 Y51.5299 Z-14.0302 I0.1321 J-0.0711
G2 X118.15 Y51.4 Z-14.1446 I0.075 J-0.1299
G2 X117.925 Y51.2701 Z-14.2589 I-0.15 J0.0
G2 X117.8501 Y51.3941 Z-14.3139 I0.075 J0.1299
G2 X117.925 Y51.5299 Z-14.3732 I0.1499 J0.0059
G2 X118.15 Y51.4 Z-14.4876 I0.075 J-0.1299
G2 X117.925 Y51.2701 Z-14.6019 I-0.15 J0.0
G2 X117.8501 Y51.3941 Z-14.657 I0.075 J0.1299
G2 X117.925 Y51.5299 Z-14.7163 I0.1499 J0.0059
G2 X118.15 Y51.4 Z-14.8306 I0.075 J-0.1299
G2 X117.925 Y51.2701 Z-14.945 I-0.15 J0.0
G2 X117.8501 Y51.3941 Z-15.0 I0.075 J0.1299
G2 X117.925 Y51.5299 I0.1499 J0.0059
G2 X118.15 Y51.4 I0.075 J-0.1299
G2 X117.925 Y51.2701 I-0.15 J0.0
G2 X117.8501 Y51.3941 I0.075 J0.1299
G0 Z3.0
G0 X160.5413 Y9.0442
G0 Z0.1
G1 F800.0 Z0.0
G2 F2000.0 X160.65 Y8.9 Z-0.0705 I-0.0413 J-0.1442
G2 X160.425 Y8.7701 Z-0.1849 I-0.15 J0.0
G2 X160.3937 Y9.0059 Z-0.2848 I0.075 J0.1299
G2 X160.425 Y9.0299 Z-0.2992 I0.1063 J-0.1059
G2 X160.65 Y8.9 Z-0.4136 I0.075 J-0.1299
G2 X160.425 Y8.7701 Z-0.5279 I-0.15 J0.0
G2 X160.3937 Y9.0059 Z-0.6279 I0.075 J0.1299
G2 X160.425 Y9.0299 Z-0.6423 I0.1063 J-0.1059
G2 X160.65 Y8.9 Z-0.7566 I0.075 J-0.1299
G2 X160.425 Y8.7701 Z-0.8709 I-0.15 J0.0
G2 X160.3937 Y9.0059 Z-0.9709 I0.075 J0.1299
G2 X160.425 Y9.0299 Z-0.9853 I0.1063 J-0.1059
G2 X160.65 Y8.9 Z-1.0996 I0.075 J-0.1299
G2 X160.425 Y8.7701 Z-1.214 I-0.15 J0.0
G2 X160.3937 Y9.0059 Z-1.3139 I0.075 J0.1299
G2 X160.425 Y9.0299 Z-1.3283 I0.1063 J-0.1059
G2 X160.65 Y8.9 Z-1.4427 I0.075 J-0.1299
G2 X160.425 Y8.7701 Z-1.557 I-0.15 J0.0
G2 X160.3937 Y9.0059 Z-1.657 I0.075 J0.1299
G2 X160.425 Y9.0299 Z-1.6714 I0.1063 J-0.1059
G2 X160.65 Y8.9 Z-1.7857 I0.075 J-0.1299
G2 X160.425 Y8.7701 Z-1.9 I-0.15 J0.0
G2 X160.3937 Y9.0059 Z-2.0 I0.075 J0.1299
G2 X160.425 Y9.0299 I0.1063 J-0.1059
G2 X160.65 Y8.9 I0.075 J-0.1299
G2 X160.425 Y8.7701 I-0.15 J0.0
G2 X160.3937 Y9.0059 I0.075 J0.1299
G1 F800.0 X160.5413 Y9.0442
G2 F2000.0 X160.65 Y8.9 Z-2.0705 I-0.0413 J-0.1442
G2 X160.425 Y8.7701 Z-2.1849 I-0.15 J0.0
G2 X160.3937 Y9.0059 Z-2.2848 I0.075 J0.1299
G2 X160.425 Y9.0299 Z-2.2992 I0.1063 J-0.1059
G2 X160.65 Y8.9 Z-2.4136 I0.075 J-0.1299
G2 X160.425 Y8.7701 Z-2.5279 I-0.15 J0.0
G2 X160.3937 Y9.0059 Z-2.6279 I0.075 J0.1299
G2 X160.425 Y9.0299 Z-2.6423 I0.1063 J-0.1059
G2 X160.65 Y8.9 Z-2.7566 I0.075 J-0.1299
G2 X160.425 Y8.7701 Z-2.8709 I-0.15 J0.0
G2 X160.3937 Y9.0059 Z-2.9709 I0.075 J0.1299
G2 X160.425 Y9.0299 Z-2.9853 I0.1063 J-0.1059
G2 X160.65 Y8.9 Z-3.0996 I0.075 J-0.1299
G2 X160.425 Y8.7701 Z-3.214 I-0.15 J0.0
G2 X160.3937 Y9.0059 Z-3.3139 I0.075 J0.1299
G2 X160.425 Y9.0299 Z-3.3283 I0.1063 J-0.1059
G2 X160.65 Y8.9 Z-3.4427 I0.075 J-0.1299
G2 X160.425 Y8.7701 Z-3.557 I-0.15 J0.0
G2 X160.3937 Y9.0059 Z-3.657 I0.075 J0.1299
G2 X160.425 Y9.0299 Z-3.6714 I0.1063 J-0.1059
G2 X160.65 Y8.9 Z-3.7857 I0.075 J-0.1299
G2 X160.425 Y8.7701 Z-3.9 I-0.15 J0.0
G2 X160.3937 Y9.0059 Z-4.0 I0.075 J0.1299
G2 X160.425 Y9.0299 I0.1063 J-0.1059
G2 X160.65 Y8.9 I0.075 J-0.1299
G2 X160.425 Y8.7701 I-0.15 J0.0
G2 X160.3937 Y9.0059 I0.075 J0.1299
G1 F800.0 X160.5413 Y9.0442
G2 F2000.0 X160.65 Y8.9 Z-4.0705 I-0.0413 J-0.1442
G2 X160.425 Y8.7701 Z-4.1849 I-0.15 J0.0
G2 X160.3937 Y9.0059 Z-4.2848 I0.075 J0.1299
G2 X160.425 Y9.0299 Z-4.2992 I0.1063 J-0.1059
G2 X160.65 Y8.9 Z-4.4136 I0.075 J-0.1299
G2 X160.425 Y8.7701 Z-4.5279 I-0.15 J0.0
G2 X160.3937 Y9.0059 Z-4.6279 I0.075 J0.1299
G2 X160.425 Y9.0299 Z-4.6423 I0.1063 J-0.1059
G2 X160.65 Y8.9 Z-4.7566 I0.075 J-0.1299
G2 X160.425 Y8.7701 Z-4.8709 I-0.15 J0.0
G2 X160.3937 Y9.0059 Z-4.9709 I0.075 J0.1299
G2 X160.425 Y9.0299 Z-4.9853 I0.1063 J-0.1059
G2 X160.65 Y8.9 Z-5.0996 I0.075 J-0.1299
G2 X160.425 Y8.7701 Z-5.214 I-0.15 J0.0
G2 X160.3937 Y9.0059 Z-5.3139 I0.075 J0.1299
G2 X160.425 Y9.0299 Z-5.3283 I0.1063 J-0.1059
G2 X160.65 Y8.9 Z-5.4427 I0.075 J-0.1299
G2 X160.425 Y8.7701 Z-5.557 I-0.15 J0.0
G2 X160.3937 Y9.0059 Z-5.657 I0.075 J0.1299
G2 X160.425 Y9.0299 Z-5.6714 I0.1063 J-0.1059
G2 X160.65 Y8.9 Z-5.7857 I0.075 J-0.1299
G2 X160.425 Y8.7701 Z-5.9 I-0.15 J0.0
G2 X160.3937 Y9.0059 Z-6.0 I0.075 J0.1299
G2 X160.425 Y9.0299 I0.1063 J-0.1059
G2 X160.65 Y8.9 I0.075 J-0.1299
G2 X160.425 Y8.7701 I-0.15 J0.0
G2 X160.3937 Y9.0059 I0.075 J0.1299
G1 F800.0 X160.5413 Y9.0442
G2 F2000.0 X160.65 Y8.9 Z-6.0705 I-0.0413 J-0.1442
G2 X160.425 Y8.7701 Z-6.1849 I-0.15 J0.0
G2 X160.3937 Y9.0059 Z-6.2848 I0.075 J0.1299
G2 X160.425 Y9.0299 Z-6.2992 I0.1063 J-0.1059
G2 X160.65 Y8.9 Z-6.4136 I0.075 J-0.1299
G2 X160.425 Y8.7701 Z-6.5279 I-0.15 J0.0
G2 X160.3937 Y9.0059 Z-6.6279 I0.075 J0.1299
G2 X160.425 Y9.0299 Z-6.6423 I0.1063 J-0.1059
G2 X160.65 Y8.9 Z-6.7566 I0.075 J-0.1299
G2 X160.425 Y8.7701 Z-6.8709 I-0.15 J0.0
G2 X160.3937 Y9.0059 Z-6.9709 I0.075 J0.1299
G2 X160.425 Y9.0299 Z-6.9853 I0.1063 J-0.1059
G2 X160.65 Y8.9 Z-7.0996 I0.075 J-0.1299
G2 X160.425 Y8.7701 Z-7.214 I-0.15 J0.0
G2 X160.3937 Y9.0059 Z-7.3139 I0.075 J0.1299
G2 X160.425 Y9.0299 Z-7.3283 I0.1063 J-0.1059
G2 X160.65 Y8.9 Z-7.4427 I0.075 J-0.1299
G2 X160.425 Y8.7701 Z-7.557 I-0.15 J0.0
G2 X160.3937 Y9.0059 Z-7.657 I0.075 J0.1299
G2 X160.425 Y9.0299 Z-7.6714 I0.1063 J-0.1059
G2 X160.65 Y8.9 Z-7.7857 I0.075 J-0.1299
G2 X160.425 Y8.7701 Z-7.9 I-0.15 J0.0
G2 X160.3937 Y9.0059 Z-8.0 I0.075 J0.1299
G2 X160.425 Y9.0299 I0.1063 J-0.1059
G2 X160.65 Y8.9 I0.075 J-0.1299
G2 X160.425 Y8.7701 I-0.15 J0.0
G2 X160.3937 Y9.0059 I0.075 J0.1299
G1 F800.0 X160.5413 Y9.0442
G2 F2000.0 X160.65 Y8.9 Z-8.0705 I-0.0413 J-0.1442
G2 X160.425 Y8.7701 Z-8.1849 I-0.15 J0.0
G2 X160.3937 Y9.0059 Z-8.2848 I0.075 J0.1299
G2 X160.425 Y9.0299 Z-8.2992 I0.1063 J-0.1059
G2 X160.65 Y8.9 Z-8.4136 I0.075 J-0.1299
G2 X160.425 Y8.7701 Z-8.5279 I-0.15 J0.0
G2 X160.3937 Y9.0059 Z-8.6279 I0.075 J0.1299
G2 X160.425 Y9.0299 Z-8.6423 I0.1063 J-0.1059
G2 X160.65 Y8.9 Z-8.7566 I0.075 J-0.1299
G2 X160.425 Y8.7701 Z-8.8709 I-0.15 J0.0
G2 X160.3937 Y9.0059 Z-8.9709 I0.075 J0.1299
G2 X160.425 Y9.0299 Z-8.9853 I0.1063 J-0.1059
G2 X160.65 Y8.9 Z-9.0996 I0.075 J-0.1299
G2 X160.425 Y8.7701 Z-9.214 I-0.15 J0.0
G2 X160.3937 Y9.0059 Z-9.3139 I0.075 J0.1299
G2 X160.425 Y9.0299 Z-9.3283 I0.1063 J-0.1059
G2 X160.65 Y8.9 Z-9.4427 I0.075 J-0.1299
G2 X160.425 Y8.7701 Z-9.557 I-0.15 J0.0
G2 X160.3937 Y9.0059 Z-9.657 I0.075 J0.1299
G2 X160.425 Y9.0299 Z-9.6714 I0.1063 J-0.1059
G2 X160.65 Y8.9 Z-9.7857 I0.075 J-0.1299
G2 X160.425 Y8.7701 Z-9.9 I-0.15 J0.0
G2 X160.3937 Y9.0059 Z-10.0 I0.075 J0.1299
G2 X160.425 Y9.0299 I0.1063 J-0.1059
G2 X160.65 Y8.9 I0.075 J-0.1299
G2 X160.425 Y8.7701 I-0.15 J0.0
G2 X160.3937 Y9.0059 I0.075 J0.1299
G1 F800.0 X160.5413 Y9.0442
G2 F2000.0 X160.65 Y8.9 Z-10.0705 I-0.0413 J-0.1442
G2 X160.425 Y8.7701 Z-10.1849 I-0.15 J0.0
G2 X160.3937 Y9.0059 Z-10.2848 I0.075 J0.1299
G2 X160.425 Y9.0299 Z-10.2992 I0.1063 J-0.1059
G2 X160.65 Y8.9 Z-10.4136 I0.075 J-0.1299
G2 X160.425 Y8.7701 Z-10.5279 I-0.15 J0.0
G2 X160.3937 Y9.0059 Z-10.6279 I0.075 J0.1299
G2 X160.425 Y9.0299 Z-10.6423 I0.1063 J-0.1059
G2 X160.65 Y8.9 Z-10.7566 I0.075 J-0.1299
G2 X160.425 Y8.7701 Z-10.8709 I-0.15 J0.0
G2 X160.3937 Y9.0059 Z-10.9709 I0.075 J0.1299
G2 X160.425 Y9.0299 Z-10.9853 I0.1063 J-0.1059
G2 X160.65 Y8.9 Z-11.0996 I0.075 J-0.1299
G2 X160.425 Y8.7701 Z-11.214 I-0.15 J0.0
G2 X160.3937 Y9.0059 Z-11.3139 I0.075 J0.1299
G2 X160.425 Y9.0299 Z-11.3283 I0.1063 J-0.1059
G2 X160.65 Y8.9 Z-11.4427 I0.075 J-0.1299
G2 X160.425 Y8.7701 Z-11.557 I-0.15 J0.0
G2 X160.3937 Y9.0059 Z-11.657 I0.075 J0.1299
G2 X160.425 Y9.0299 Z-11.6714 I0.1063 J-0.1059
G2 X160.65 Y8.9 Z-11.7857 I0.075 J-0.1299
G2 X160.425 Y8.7701 Z-11.9 I-0.15 J0.0
G2 X160.3937 Y9.0059 Z-12.0 I0.075 J0.1299
G2 X160.425 Y9.0299 I0.1063 J-0.1059
G2 X160.65 Y8.9 I0.075 J-0.1299
G2 X160.425 Y8.7701 I-0.15 J0.0
G2 X160.3937 Y9.0059 I0.075 J0.1299
G1 F800.0 X160.5413 Y9.0442
G2 F2000.0 X160.65 Y8.9 Z-12.0705 I-0.0413 J-0.1442
G2 X160.425 Y8.7701 Z-12.1849 I-0.15 J0.0
G2 X160.3937 Y9.0059 Z-12.2848 I0.075 J0.1299
G2 X160.425 Y9.0299 Z-12.2992 I0.1063 J-0.1059
G2 X160.65 Y8.9 Z-12.4136 I0.075 J-0.1299
G2 X160.425 Y8.7701 Z-12.5279 I-0.15 J0.0
G2 X160.3937 Y9.0059 Z-12.6279 I0.075 J0.1299
G2 X160.425 Y9.0299 Z-12.6423 I0.1063 J-0.1059
G2 X160.65 Y8.9 Z-12.7566 I0.075 J-0.1299
G2 X160.425 Y8.7701 Z-12.8709 I-0.15 J0.0
G2 X160.3937 Y9.0059 Z-12.9709 I0.075 J0.1299
G2 X160.425 Y9.0299 Z-12.9853 I0.1063 J-0.1059
G2 X160.65 Y8.9 Z-13.0996 I0.075 J-0.1299
G2 X160.425 Y8.7701 Z-13.214 I-0.15 J0.0
G2 X160.3937 Y9.0059 Z-13.3139 I0.075 J0.1299
G2 X160.425 Y9.0299 Z-13.3283 I0.1063 J-0.1059
G2 X160.65 Y8.9 Z-13.4427 I0.075 J-0.1299
G2 X160.425 Y8.7701 Z-13.557 I-0.15 J0.0
G2 X160.3937 Y9.0059 Z-13.657 I0.075 J0.1299
G2 X160.425 Y9.0299 Z-13.6714 I0.1063 J-0.1059
G2 X160.65 Y8.9 Z-13.7857 I0.075 J-0.1299
G2 X160.425 Y8.7701 Z-13.9 I-0.15 J0.0
G2 X160.3937 Y9.0059 Z-14.0 I0.075 J0.1299
G2 X160.425 Y9.0299 I0.1063 J-0.1059
G2 X160.65 Y8.9 I0.075 J-0.1299
G2 X160.425 Y8.7701 I-0.15 J0.0
G2 X160.3937 Y9.0059 I0.075 J0.1299
G1 F800.0 X160.4623 Y9.0452
G2 F2000.0 X160.65 Y8.9 Z-14.0996 I0.0377 J-0.1452
G2 X160.425 Y8.7701 Z-14.214 I-0.15 J0.0
G2 X160.3937 Y9.0059 Z-14.3139 I0.075 J0.1299
G2 X160.425 Y9.0299 Z-14.3283 I0.1063 J-0.1059
G2 X160.65 Y8.9 Z-14.4427 I0.075 J-0.1299
G2 X160.425 Y8.7701 Z-14.557 I-0.15 J0.0
G2 X160.3937 Y9.0059 Z-14.657 I0.075 J0.1299
G2 X160.425 Y9.0299 Z-14.6714 I0.1063 J-0.1059
G2 X160.65 Y8.9 Z-14.7857 I0.075 J-0.1299
G2 X160.425 Y8.7701 Z-14.9 I-0.15 J0.0
G2 X160.3937 Y9.0059 Z-15.0 I0.075 J0.1299
G2 X160.425 Y9.0299 I0.1063 J-0.1059
G2 X160.65 Y8.9 I0.075 J-0.1299
G2 X160.425 Y8.7701 I-0.15 J0.0
G2 X160.3937 Y9.0059 I0.075 J0.1299
G0 Z3.0
G0 X202.856 Y51.4419
G0 Z0.1
G1 F800.0 Z0.0
G2 F2000.0 X202.925 Y51.5299 Z-0.0417 I0.144 J-0.0419
G2 X203.15 Y51.4 Z-0.1561 I0.075 J-0.1299
G2 X202.925 Y51.2701 Z-0.2704 I-0.15 J0.0
G2 X202.8937 Y51.2942 Z-0.2848 I0.075 J0.1299
G2 X202.925 Y51.5299 Z-0.3847 I0.1063 J0.1058
G2 X203.15 Y51.4 Z-0.4991 I0.075 J-0.1299
G2 X202.925 Y51.2701 Z-0.6134 I-0.15 J0.0
G2 X202.8937 Y51.2942 Z-0.6279 I0.075 J0.1299
G2 X202.925 Y51.5299 Z-0.7278 I0.1063 J0.1058
G2 X203.15 Y51.4 Z-0.8421 I0.075 J-0.1299
G2 X202.925 Y51.2701 Z-0.9565 I-0.15 J0.0
G2 X202.8937 Y51.2942 Z-0.9709 I0.075 J0.1299
G2 X202.925 Y51.5299 Z-1.0708 I0.1063 J0.1058
G2 X203.15 Y51.4 Z-1.1852 I0.075 J-0.1299
G2 X202.925 Y51.2701 Z-1.2995 I-0.15 J0.0
G2 X202.8937 Y51.2942 Z-1.3139 I0.075 J0.1299
G2 X202.925 Y51.5299 Z-1.4138 I0.1063 J0.1058
G2 X203.15 Y51.4 Z-1.5282 I0.075 J-0.1299
G2 X202.925 Y51.2701 Z-1.6425 I-0.15 J0.0
G2 X202.8937 Y51.2942 Z-1.657 I0.075 J0.1299
G2 X202.925 Y51.5299 Z-1.7569 I0.1063 J0.1058
G2 X203.15 Y51.4 Z-1.8712 I0.075 J-0.1299
G2 X202.925 Y51.2701 Z-1.9856 I-0.15 J0.0
G2 X202.8937 Y51.2942 Z-2.0 I0.075 J0.1299
G2 X202.925 Y51.5299 I0.1063 J0.1058
G2 X203.15 Y51.4 I0.075 J-0.1299
G2 X202.925 Y51.2701 I-0.15 J0.0
G2 X202.8937 Y51.2942 I0.075 J0.1299
G1 F800.0 X202.856 Y51.4419
G2 F2000.0 X202.925 Y51.5299 Z-2.0417 I0.144 J-0.0419
G2 X203.15 Y51.4 Z-2.1561 I0.075 J-0.1299
G2 X202.925 Y51.2701 Z-2.2704 I-0.15 J0.0
G2 X202.8937 Y51.2942 Z-2.2848 I0.075 J0.1299
G2 X202.925 Y51.5299 Z-2.3847 I0.1063 J0.1058
G2 X203.15 Y51.4 Z-2.4991 I0.075 J-0.1299
G2 X202.925 Y51.2701 Z-2.6134 I-0.15 J0.0
G2 X202.8937 Y51.2942 Z-2.6279 I0.075 J0.1299
G2 X202.925 Y51.5299 Z-2.7278 I0.1063 J0.1058
G2 X203.15 Y51.4 Z-2.8421 I0.075 J-0.1299
G2 X202.925 Y51.2701 Z-2.9565 I-0.15 J0.0
G2 X202.8937 Y51.2942 Z-2.9709 I0.075 J0.1299
G2 X202.925 Y51.5299 Z-3.0708 I0.1063 J0.1058
G2 X203.15 Y51.4 Z-3.1852 I0.075 J-0.1299
G2 X202.925 Y51.2701 Z-3.2995 I-0.15 J0.0
G2 X202.8937 Y51.2942 Z-3.3139 I0.075 J0.1299
G2 X202.925 Y51.5299 Z-3.4138 I0.1063 J0.1058
G2 X203.15 Y51.4 Z-3.5282 I0.075 J-0.1299
G2 X202.925 Y51.2701 Z-3.6425 I-0.15 J0.0
G2 X202.8937 Y51.2942 Z-3.657 I0.075 J0.1299
G2 X202.925 Y51.5299 Z-3.7569 I0.1063 J0.1058
G2 X203.15 Y51.4 Z-3.8712 I0.075 J-0.1299
G2 X202.925 Y51.2701 Z-3.9856 I-0.15 J0.0
G2 X202.8937 Y51.2942 Z-4.0 I0.075 J0.1299
G2 X202.925 Y51.5299 I0.1063 J0.1058
G2 X203.15 Y51.4 I0.075 J-0.1299
G2 X202.925 Y51.2701 I-0.15 J0.0
G2 X202.8937 Y51.2942 I0.075 J0.1299
G1 F800.0 X202.856 Y51.4419
G2 F2000.0 X202.925 Y51.5299 Z-4.0417 I0.144 J-0.0419
G2 X203.15 Y51.4 Z-4.1561 I0.075 J-0.1299
G2 X202.925 Y51.2701 Z-4.2704 I-0.15 J0.0
G2 X202.8937 Y51.2942 Z-4.2848 I0.075 J0.1299
G2 X202.925 Y51.5299 Z-4.3847 I0.1063 J0.1058
G2 X203.15 Y51.4 Z-4.4991 I0.075 J-0.1299
G2 X202.925 Y51.2701 Z-4.6134 I-0.15 J0.0
G2 X202.8937 Y51.2942 Z-4.6279 I0.075 J0.1299
G2 X202.925 Y51.5299 Z-4.7278 I0.1063 J0.1058
G2 X203.15 Y51.4 Z-4.8421 I0.075 J-0.1299
G2 X202.925 Y51.2701 Z-4.9565 I-0.15 J0.0
G2 X202.8937 Y51.2942 Z-4.9709 I0.075 J0.1299
G2 X202.925 Y51.5299 Z-5.0708 I0.1063 J0.1058
G2 X203.15 Y51.4 Z-5.1852 I0.075 J-0.1299
G2 X202.925 Y51.2701 Z-5.2995 I-0.15 J0.0
G2 X202.8937 Y51.2942 Z-5.3139 I0.075 J0.1299
G2 X202.925 Y51.5299 Z-5.4138 I0.1063 J0.1058
G2 X203.15 Y51.4 Z-5.5282 I0.075 J-0.1299
G2 X202.925 Y51.2701 Z-5.6425 I-0.15 J0.0
G2 X202.8937 Y51.2942 Z-5.657 I0.075 J0.1299
G2 X202.925 Y51.5299 Z-5.7569 I0.1063 J0.1058
G2 X203.15 Y51.4 Z-5.8712 I0.075 J-0.1299
G2 X202.925 Y51.2701 Z-5.9856 I-0.15 J0.0
G2 X202.8937 Y51.2942 Z-6.0 I0.075 J0.1299
G2 X202.925 Y51.5299 I0.1063 J0.1058
G2 X203.15 Y51.4 I0.075 J-0.1299
G2 X202.925 Y51.2701 I-0.15 J0.0
G2 X202.8937 Y51.2942 I0.075 J0.1299
G1 F800.0 X202.856 Y51.4419
G2 F2000.0 X202.925 Y51.5299 Z-6.0417 I0.144 J-0.0419
G2 X203.15 Y51.4 Z-6.1561 I0.075 J-0.1299
G2 X202.925 Y51.2701 Z-6.2704 I-0.15 J0.0
G2 X202.8937 Y51.2942 Z-6.2848 I0.075 J0.1299
G2 X202.925 Y51.5299 Z-6.3847 I0.1063 J0.1058
G2 X203.15 Y51.4 Z-6.4991 I0.075 J-0.1299
G2 X202.925 Y51.2701 Z-6.6134 I-0.15 J0.0
G2 X202.8937 Y51.2942 Z-6.6279 I0.075 J0.1299
G2 X202.925 Y51.5299 Z-6.7278 I0.1063 J0.1058
G2 X203.15 Y51.4 Z-6.8421 I0.075 J-0.1299
G2 X202.925 Y51.2701 Z-6.9565 I-0.15 J0.0
G2 X202.8937 Y51.2942 Z-6.9709 I0.075 J0.1299
G2 X202.925 Y51.5299 Z-7.0708 I0.1063 J0.1058
G2 X203.15 Y51.4 Z-7.1852 I0.075 J-0.1299
G2 X202.925 Y51.2701 Z-7.2995 I-0.15 J0.0
G2 X202.8937 Y51.2942 Z-7.3139 I0.075 J0.1299
G2 X202.925 Y51.5299 Z-7.4138 I0.1063 J0.1058
G2 X203.15 Y51.4 Z-7.5282 I0.075 J-0.1299
G2 X202.925 Y51.2701 Z-7.6425 I-0.15 J0.0
G2 X202.8937 Y51.2942 Z-7.657 I0.075 J0.1299
G2 X202.925 Y51.5299 Z-7.7569 I0.1063 J0.1058
G2 X203.15 Y51.4 Z-7.8712 I0.075 J-0.1299
G2 X202.925 Y51.2701 Z-7.9856 I-0.15 J0.0
G2 X202.8937 Y51.2942 Z-8.0 I0.075 J0.1299
G2 X202.925 Y51.5299 I0.1063 J0.1058
G2 X203.15 Y51.4 I0.075 J-0.1299
G2 X202.925 Y51.2701 I-0.15 J0.0
G2 X202.8937 Y51.2942 I0.075 J0.1299
G1 F800.0 X202.856 Y51.4419
G2 F2000.0 X202.925 Y51.5299 Z-8.0417 I0.144 J-0.0419
G2 X203.15 Y51.4 Z-8.1561 I0.075 J-0.1299
G2 X202.925 Y51.2701 Z-8.2704 I-0.15 J0.0
G2 X202.8937 Y51.2942 Z-8.2848 I0.075 J0.1299
G2 X202.925 Y51.5299 Z-8.3847 I0.1063 J0.1058
G2 X203.15 Y51.4 Z-8.4991 I0.075 J-0.1299
G2 X202.925 Y51.2701 Z-8.6134 I-0.15 J0.0
G2 X202.8937 Y51.2942 Z-8.6279 I0.075 J0.1299
G2 X202.925 Y51.5299 Z-8.7278 I0.1063 J0.1058
G2 X203.15 Y51.4 Z-8.8421 I0.075 J-0.1299
G2 X202.925 Y51.2701 Z-8.9565 I-0.15 J0.0
G2 X202.8937 Y51.2942 Z-8.9709 I0.075 J0.1299
G2 X202.925 Y51.5299 Z-9.0708 I0.1063 J0.1058
G2 X203.15 Y51.4 Z-9.1852 I0.075 J-0.1299
G2 X202.925 Y51.2701 Z-9.2995 I-0.15 J0.0
G2 X202.8937 Y51.2942 Z-9.3139 I0.075 J0.1299
G2 X202.925 Y51.5299 Z-9.4138 I0.1063 J0.1058
G2 X203.15 Y51.4 Z-9.5282 I0.075 J-0.1299
G2 X202.925 Y51.2701 Z-9.6425 I-0.15 J0.0
G2 X202.8937 Y51.2942 Z-9.657 I0.075 J0.1299
G2 X202.925 Y51.5299 Z-9.7569 I0.1063 J0.1058
G2 X203.15 Y51.4 Z-9.8712 I0.075 J-0.1299
G2 X202.925 Y51.2701 Z-9.9856 I-0.15 J0.0
G2 X202.8937 Y51.2942 Z-10.0 I0.075 J0.1299
G2 X202.925 Y51.5299 I0.1063 J0.1058
G2 X203.15 Y51.4 I0.075 J-0.1299
G2 X202.925 Y51.2701 I-0.15 J0.0
G2 X202.8937 Y51.2942 I0.075 J0.1299
G1 F800.0 X202.856 Y51.4419
G2 F2000.0 X202.925 Y51.5299 Z-10.0417 I0.144 J-0.0419
G2 X203.15 Y51.4 Z-10.1561 I0.075 J-0.1299
G2 X202.925 Y51.2701 Z-10.2704 I-0.15 J0.0
G2 X202.8937 Y51.2942 Z-10.2848 I0.075 J0.1299
G2 X202.925 Y51.5299 Z-10.3847 I0.1063 J0.1058
G2 X203.15 Y51.4 Z-10.4991 I0.075 J-0.1299
G2 X202.925 Y51.2701 Z-10.6134 I-0.15 J0.0
G2 X202.8937 Y51.2942 Z-10.6279 I0.075 J0.1299
G2 X202.925 Y51.5299 Z-10.7278 I0.1063 J0.1058
G2 X203.15 Y51.4 Z-10.8421 I0.075 J-0.1299
G2 X202.925 Y51.2701 Z-10.9565 I-0.15 J0.0
G2 X202.8937 Y51.2942 Z-10.9709 I0.075 J0.1299
G2 X202.925 Y51.5299 Z-11.0708 I0.1063 J0.1058
G2 X203.15 Y51.4 Z-11.1852 I0.075 J-0.1299
G2 X202.925 Y51.2701 Z-11.2995 I-0.15 J0.0
G2 X202.8937 Y51.2942 Z-11.3139 I0.075 J0.1299
G2 X202.925 Y51.5299 Z-11.4138 I0.1063 J0.1058
G2 X203.15 Y51.4 Z-11.5282 I0.075 J-0.1299
G2 X202.925 Y51.2701 Z-11.6425 I-0.15 J0.0
G2 X202.8937 Y51.2942 Z-11.657 I0.075 J0.1299
G2 X202.925 Y51.5299 Z-11.7569 I0.1063 J0.1058
G2 X203.15 Y51.4 Z-11.8712 I0.075 J-0.1299
G2 X202.925 Y51.2701 Z-11.9856 I-0.15 J0.0
G2 X202.8937 Y51.2942 Z-12.0 I0.075 J0.1299
G2 X202.925 Y51.5299 I0.1063 J0.1058
G2 X203.15 Y51.4 I0.075 J-0.1299
G2 X202.925 Y51.2701 I-0.15 J0.0
G2 X202.8937 Y51.2942 I0.075 J0.1299
G1 F800.0 X202.856 Y51.4419
G2 F2000.0 X202.925 Y51.5299 Z-12.0417 I0.144 J-0.0419
G2 X203.15 Y51.4 Z-12.1561 I0.075 J-0.1299
G2 X202.925 Y51.2701 Z-12.2704 I-0.15 J0.0
G2 X202.8937 Y51.2942 Z-12.2848 I0.075 J0.1299
G2 X202.925 Y51.5299 Z-12.3847 I0.1063 J0.1058
G2 X203.15 Y51.4 Z-12.4991 I0.075 J-0.1299
G2 X202.925 Y51.2701 Z-12.6134 I-0.15 J0.0
G2 X202.8937 Y51.2942 Z-12.6279 I0.075 J0.1299
G2 X202.925 Y51.5299 Z-12.7278 I0.1063 J0.1058
G2 X203.15 Y51.4 Z-12.8421 I0.075 J-0.1299
G2 X202.925 Y51.2701 Z-12.9565 I-0.15 J0.0
G2 X202.8937 Y51.2942 Z-12.9709 I0.075 J0.1299
G2 X202.925 Y51.5299 Z-13.0708 I0.1063 J0.1058
G2 X203.15 Y51.4 Z-13.1852 I0.075 J-0.1299
G2 X202.925 Y51.2701 Z-13.2995 I-0.15 J0.0
G2 X202.8937 Y51.2942 Z-13.3139 I0.075 J0.1299
G2 X202.925 Y51.5299 Z-13.4138 I0.1063 J0.1058
G2 X203.15 Y51.4 Z-13.5282 I0.075 J-0.1299
G2 X202.925 Y51.2701 Z-13.6425 I-0.15 J0.0
G2 X202.8937 Y51.2942 Z-13.657 I0.075 J0.1299
G2 X202.925 Y51.5299 Z-13.7569 I0.1063 J0.1058
G2 X203.15 Y51.4 Z-13.8712 I0.075 J-0.1299
G2 X202.925 Y51.2701 Z-13.9856 I-0.15 J0.0
G2 X202.8937 Y51.2942 Z-14.0 I0.075 J0.1299
G2 X202.925 Y51.5299 I0.1063 J0.1058
G2 X203.15 Y51.4 I0.075 J-0.1299
G2 X202.925 Y51.2701 I-0.15 J0.0
G2 X202.8937 Y51.2942 I0.075 J0.1299
G1 F800.0 X202.8547 Y51.3629
G2 F2000.0 X202.925 Y51.5299 Z-14.0708 I0.1453 J0.0371
G2 X203.15 Y51.4 Z-14.1852 I0.075 J-0.1299
G2 X202.925 Y51.2701 Z-14.2995 I-0.15 J0.0
G2 X202.8937 Y51.2942 Z-14.3139 I0.075 J0.1299
G2 X202.925 Y51.5299 Z-14.4138 I0.1063 J0.1058
G2 X203.15 Y51.4 Z-14.5282 I0.075 J-0.1299
G2 X202.925 Y51.2701 Z-14.6425 I-0.15 J0.0
G2 X202.8937 Y51.2942 Z-14.657 I0.075 J0.1299
G2 X202.925 Y51.5299 Z-14.7569 I0.1063 J0.1058
G2 X203.15 Y51.4 Z-14.8712 I0.075 J-0.1299
G2 X202.925 Y51.2701 Z-14.9856 I-0.15 J0.0
G2 X202.8937 Y51.2942 Z-15.0 I0.075 J0.1299
G2 X202.925 Y51.5299 I0.1063 J0.1058
G2 X203.15 Y51.4 I0.075 J-0.1299
G2 X202.925 Y51.2701 I-0.15 J0.0
G2 X202.8937 Y51.2942 I0.075 J0.1299
G0 Z3.0
G0 X160.4581 Y93.756
G0 Z0.1
G1 F800.0 Z0.0
G2 F2000.0 X160.425 Y93.7701 Z-0.0131 I0.0419 J0.144
G2 Y94.0299 Z-0.1275 I0.075 J0.1299
G2 X160.65 Y93.9 Z-0.2418 I0.075 J-0.1299
G2 X160.6058 Y93.7937 Z-0.2848 I-0.15 J0.0
G2 X160.425 Y93.7701 Z-0.3562 I-0.1058 J0.1063
G2 Y94.0299 Z-0.4705 I0.075 J0.1299
G2 X160.65 Y93.9 Z-0.5848 I0.075 J-0.1299
G2 X160.6058 Y93.7937 Z-0.6279 I-0.15 J0.0
G2 X160.425 Y93.7701 Z-0.6992 I-0.1058 J0.1063
G2 Y94.0299 Z-0.8135 I0.075 J0.1299
G2 X160.65 Y93.9 Z-0.9279 I0.075 J-0.1299
G2 X160.6058 Y93.7937 Z-0.9709 I-0.15 J0.0
G2 X160.425 Y93.7701 Z-1.0422 I-0.1058 J0.1063
G2 Y94.0299 Z-1.1566 I0.075 J0.1299
G2 X160.65 Y93.9 Z-1.2709 I0.075 J-0.1299
G2 X160.6058 Y93.7937 Z-1.3139 I-0.15 J0.0
G2 X160.425 Y93.7701 Z-1.3853 I-0.1058 J0.1063
G2 Y94.0299 Z-1.4996 I0.075 J0.1299
G2 X160.65 Y93.9 Z-1.614 I0.075 J-0.1299
G2 X160.6058 Y93.7937 Z-1.657 I-0.15 J0.0
G2 X160.425 Y93.7701 Z-1.7283 I-0.1058 J0.1063
G2 Y94.0299 Z-1.8426 I0.075 J0.1299
G2 X160.65 Y93.9 Z-1.957 I0.075 J-0.1299
G2 X160.6058 Y93.7937 Z-2.0 I-0.15 J0.0
G2 X160.425 Y93.7701 I-0.1058 J0.1063
G2 Y94.0299 I0.075 J0.1299
G2 X160.65 Y93.9 I0.075 J-0.1299
G2 X160.6058 Y93.7937 I-0.15 J0.0
G1 F800.0 X160.4581 Y93.756
G2 F2000.0 X160.425 Y93.7701 Z-2.0131 I0.0419 J0.144
G2 Y94.0299 Z-2.1275 I0.075 J0.1299
G2 X160.65 Y93.9 Z-2.2418 I0.075 J-0.1299
G2 X160.6058 Y93.7937 Z-2.2848 I-0.15 J0.0
G2 X160.425 Y93.7701 Z-2.3562 I-0.1058 J0.1063
G2 Y94.0299 Z-2.4705 I0.075 J0.1299
G2 X160.65 Y93.9 Z-2.5848 I0.075 J-0.1299
G2 X160.6058 Y93.7937 Z-2.6279 I-0.15 J0.0
G2 X160.425 Y93.7701 Z-2.6992 I-0.1058 J0.1063
G2 Y94.0299 Z-2.8135 I0.075 J0.1299
G2 X160.65 Y93.9 Z-2.9279 I0.075 J-0.1299
G2 X160.6058 Y93.7937 Z-2.9709 I-0.15 J0.0
G2 X160.425 Y93.7701 Z-3.0422 I-0.1058 J0.1063
G2 Y94.0299 Z-3.1566 I0.075 J0.1299
G2 X160.65 Y93.9 Z-3.2709 I0.075 J-0.1299
G2 X160.6058 Y93.7937 Z-3.3139 I-0.15 J0.0
G2 X160.425 Y93.7701 Z-3.3853 I-0.1058 J0.1063
G2 Y94.0299 Z-3.4996 I0.075 J0.1299
G2 X160.65 Y93.9 Z-3.614 I0.075 J-0.1299
G2 X160.6058 Y93.7937 Z-3.657 I-0.15 J0.0
G2 X160.425 Y93.7701 Z-3.7283 I-0.1058 J0.1063
G2 Y94.0299 Z-3.8426 I0.075 J0.1299
G2 X160.65 Y93.9 Z-3.957 I0.075 J-0.1299
G2 X160.6058 Y93.7937 Z-4.0 I-0.15 J0.0
G2 X160.425 Y93.7701 I-0.1058 J0.1063
G2 Y94.0299 I0.075 J0.1299
G2 X160.65 Y93.9 I0.075 J-0.1299
G2 X160.6058 Y93.7937 I-0.15 J0.0
G1 F800.0 X160.4581 Y93.756
G2 F2000.0 X160.425 Y93.7701 Z-4.0131 I0.0419 J0.144
G2 Y94.0299 Z-4.1275 I0.075 J0.1299
G2 X160.65 Y93.9 Z-4.2418 I0.075 J-0.1299
G2 X160.6058 Y93.7937 Z-4.2848 I-0.15 J0.0
G2 X160.425 Y93.7701 Z-4.3562 I-0.1058 J0.1063
G2 Y94.0299 Z-4.4705 I0.075 J0.1299
G2 X160.65 Y93.9 Z-4.5848 I0.075 J-0.1299
G2 X160.6058 Y93.7937 Z-4.6279 I-0.15 J0.0
G2 X160.425 Y93.7701 Z-4.6992 I-0.1058 J0.1063
G2 Y94.0299 Z-4.8135 I0.075 J0.1299
G2 X160.65 Y93.9 Z-4.9279 I0.075 J-0.1299
G2 X160.6058 Y93.7937 Z-4.9709 I-0.15 J0.0
G2 X160.425 Y93.7701 Z-5.0422 I-0.1058 J0.1063
G2 Y94.0299 Z-5.1566 I0.075 J0.1299
G2 X160.65 Y93.9 Z-5.2709 I0.075 J-0.1299
G2 X160.6058 Y93.7937 Z-5.3139 I-0.15 J0.0
G2 X160.425 Y93.7701 Z-5.3853 I-0.1058 J0.1063
G2 Y94.0299 Z-5.4996 I0.075 J0.1299
G2 X160.65 Y93.9 Z-5.614 I0.075 J-0.1299
G2 X160.6058 Y93.7937 Z-5.657 I-0.15 J0.0
G2 X160.425 Y93.7701 Z-5.7283 I-0.1058 J0.1063
G2 Y94.0299 Z-5.8426 I0.075 J0.1299
G2 X160.65 Y93.9 Z-5.957 I0.075 J-0.1299
G2 X160.6058 Y93.7937 Z-6.0 I-0.15 J0.0
G2 X160.425 Y93.7701 I-0.1058 J0.1063
G2 Y94.0299 I0.075 J0.1299
G2 X160.65 Y93.9 I0.075 J-0.1299
G2 X160.6058 Y93.7937 I-0.15 J0.0
G1 F800.0 X160.4581 Y93.756
G2 F2000.0 X160.425 Y93.7701 Z-6.0131 I0.0419 J0.144
G2 Y94.0299 Z-6.1275 I0.075 J0.1299
G2 X160.65 Y93.9 Z-6.2418 I0.075 J-0.1299
G2 X160.6058 Y93.7937 Z-6.2848 I-0.15 J0.0
G2 X160.425 Y93.7701 Z-6.3562 I-0.1058 J0.1063
G2 Y94.0299 Z-6.4705 I0.075 J0.1299
G2 X160.65 Y93.9 Z-6.5848 I0.075 J-0.1299
G2 X160.6058 Y93.7937 Z-6.6279 I-0.15 J0.0
G2 X160.425 Y93.7701 Z-6.6992 I-0.1058 J0.1063
G2 Y94.0299 Z-6.8135 I0.075 J0.1299
G2 X160.65 Y93.9 Z-6.9279 I0.075 J-0.1299
G2 X160.6058 Y93.7937 Z-6.9709 I-0.15 J0.0
G2 X160.425 Y93.7701 Z-7.0422 I-0.1058 J0.1063
G2 Y94.0299 Z-7.1566 I0.075 J0.1299
G2 X160.65 Y93.9 Z-7.2709 I0.075 J-0.1299
G2 X160.6058 Y93.7937 Z-7.3139 I-0.15 J0.0
G2 X160.425 Y93.7701 Z-7.3853 I-0.1058 J0.1063
G2 Y94.0299 Z-7.4996 I0.075 J0.1299
G2 X160.65 Y93.9 Z-7.614 I0.075 J-0.1299
G2 X160.6058 Y93.7937 Z-7.657 I-0.15 J0.0
G2 X160.425 Y93.7701 Z-7.7283 I-0.1058 J0.1063
G2 Y94.0299 Z-7.8426 I0.075 J0.1299
G2 X160.65 Y93.9 Z-7.957 I0.075 J-0.1299
G2 X160.6058 Y93.7937 Z-8.0 I-0.15 J0.0
G2 X160.425 Y93.7701 I-0.1058 J0.1063
G2 Y94.0299 I0.075 J0.1299
G2 X160.65 Y93.9 I0.075 J-0.1299
G2 X160.6058 Y93.7937 I-0.15 J0.0
G1 F800.0 X160.4581 Y93.756
G2 F2000.0 X160.425 Y93.7701 Z-8.0131 I0.0419 J0.144
G2 Y94.0299 Z-8.1275 I0.075 J0.1299
G2 X160.65 Y93.9 Z-8.2418 I0.075 J-0.1299
G2 X160.6058 Y93.7937 Z-8.2848 I-0.15 J0.0
G2 X160.425 Y93.7701 Z-8.3562 I-0.1058 J0.1063
G2 Y94.0299 Z-8.4705 I0.075 J0.1299
G2 X160.65 Y93.9 Z-8.5848 I0.075 J-0.1299
G2 X160.6058 Y93.7937 Z-8.6279 I-0.15 J0.0
G2 X160.425 Y93.7701 Z-8.6992 I-0.1058 J0.1063
G2 Y94.0299 Z-8.8135 I0.075 J0.1299
G2 X160.65 Y93.9 Z-8.9279 I0.075 J-0.1299
G2 X160.6058 Y93.7937 Z-8.9709 I-0.15 J0.0
G2 X160.425 Y93.7701 Z-9.0422 I-0.1058 J0.1063
G2 Y94.0299 Z-9.1566 I0.075 J0.1299
G2 X160.65 Y93.9 Z-9.2709 I0.075 J-0.1299
G2 X160.6058 Y93.7937 Z-9.3139 I-0.15 J0.0
G2 X160.425 Y93.7701 Z-9.3853 I-0.1058 J0.1063
G2 Y94.0299 Z-9.4996 I0.075 J0.1299
G2 X160.65 Y93.9 Z-9.614 I0.075 J-0.1299
G2 X160.6058 Y93.7937 Z-9.657 I-0.15 J0.0
G2 X160.425 Y93.7701 Z-9.7283 I-0.1058 J0.1063
G2 Y94.0299 Z-9.8426 I0.075 J0.1299
G2 X160.65 Y93.9 Z-9.957 I0.075 J-0.1299
G2 X160.6058 Y93.7937 Z-10.0 I-0.15 J0.0
G2 X160.425 Y93.7701 I-0.1058 J0.1063
G2 Y94.0299 I0.075 J0.1299
G2 X160.65 Y93.9 I0.075 J-0.1299
G2 X160.6058 Y93.7937 I-0.15 J0.0
G1 F800.0 X160.4581 Y93.756
G2 F2000.0 X160.425 Y93.7701 Z-10.0131 I0.0419 J0.144
G2 Y94.0299 Z-10.1275 I0.075 J0.1299
G2 X160.65 Y93.9 Z-10.2418 I0.075 J-0.1299
G2 X160.6058 Y93.7937 Z-10.2848 I-0.15 J0.0
G2 X160.425 Y93.7701 Z-10.3562 I-0.1058 J0.1063
G2 Y94.0299 Z-10.4705 I0.075 J0.1299
G2 X160.65 Y93.9 Z-10.5848 I0.075 J-0.1299
G2 X160.6058 Y93.7937 Z-10.6279 I-0.15 J0.0
G2 X160.425 Y93.7701 Z-10.6992 I-0.1058 J0.1063
G2 Y94.0299 Z-10.8135 I0.075 J0.1299
G2 X160.65 Y93.9 Z-10.9279 I0.075 J-0.1299
G2 X160.6058 Y93.7937 Z-10.9709 I-0.15 J0.0
G2 X160.425 Y93.7701 Z-11.0422 I-0.1058 J0.1063
G2 Y94.0299 Z-11.1566 I0.075 J0.1299
G2 X160.65 Y93.9 Z-11.2709 I0.075 J-0.1299
G2 X160.6058 Y93.7937 Z-11.3139 I-0.15 J0.0
G2 X160.425 Y93.7701 Z-11.3853 I-0.1058 J0.1063
G2 Y94.0299 Z-11.4996 I0.075 J0.1299
G2 X160.65 Y93.9 Z-11.614 I0.075 J-0.1299
G2 X160.6058 Y93.7937 Z-11.657 I-0.15 J0.0
G2 X160.425 Y93.7701 Z-11.7283 I-0.1058 J0.1063
G2 Y94.0299 Z-11.8426 I0.075 J0.1299
G2 X160.65 Y93.9 Z-11.957 I0.075 J-0.1299
G2 X160.6058 Y93.7937 Z-12.0 I-0.15 J0.0
G2 X160.425 Y93.7701 I-0.1058 J0.1063
G2 Y94.0299 I0.075 J0.1299
G2 X160.65 Y93.9 I0.075 J-0.1299
G2 X160.6058 Y93.7937 I-0.15 J0.0
G1 F800.0 X160.4581 Y93.756
G2 F2000.0 X160.425 Y93.7701 Z-12.0131 I0.0419 J0.144
G2 Y94.0299 Z-12.1275 I0.075 J0.1299
G2 X160.65 Y93.9 Z-12.2418 I0.075 J-0.1299
G2 X160.6058 Y93.7937 Z-12.2848 I-0.15 J0.0
G2 X160.425 Y93.7701 Z-12.3562 I-0.1058 J0.1063
G2 Y94.0299 Z-12.4705 I0.075 J0.1299
G2 X160.65 Y93.9 Z-12.5848 I0.075 J-0.1299
G2 X160.6058 Y93.7937 Z-12.6279 I-0.15 J0.0
G2 X160.425 Y93.7701 Z-12.6992 I-0.1058 J0.1063
G2 Y94.0299 Z-12.8135 I0.075 J0.1299
G2 X160.65 Y93.9 Z-12.9279 I0.075 J-0.1299
G2 X160.6058 Y93.7937 Z-12.9709 I-0.15 J0.0
G2 X160.425 Y93.7701 Z-13.0422 I-0.1058 J0.1063
G2 Y94.0299 Z-13.1566 I0.075 J0.1299
G2 X160.65 Y93.9 Z-13.2709 I0.075 J-0.1299
G2 X160.6058 Y93.7937 Z-13.3139 I-0.15 J0.0
G2 X160.425 Y93.7701 Z-13.3853 I-0.1058 J0.1063
G2 Y94.0299 Z-13.4996 I0.075 J0.1299
G2 X160.65 Y93.9 Z-13.614 I0.075 J-0.1299
G2 X160.6058 Y93.7937 Z-13.657 I-0.15 J0.0
G2 X160.425 Y93.7701 Z-13.7283 I-0.1058 J0.1063
G2 Y94.0299 Z-13.8426 I0.075 J0.1299
G2 X160.65 Y93.9 Z-13.957 I0.075 J-0.1299
G2 X160.6058 Y93.7937 Z-14.0 I-0.15 J0.0
G2 X160.425 Y93.7701 I-0.1058 J0.1063
G2 Y94.0299 I0.075 J0.1299
G2 X160.65 Y93.9 I0.075 J-0.1299
G2 X160.6058 Y93.7937 I-0.15 J0.0
G1 F800.0 X160.5371 Y93.7547
G2 F2000.0 X160.425 Y93.7701 Z-14.0422 I-0.0371 J0.1453
G2 Y94.0299 Z-14.1566 I0.075 J0.1299
G2 X160.65 Y93.9 Z-14.2709 I0.075 J-0.1299
G2 X160.6058 Y93.7937 Z-14.3139 I-0.15 J0.0
G2 X160.425 Y93.7701 Z-14.3853 I-0.1058 J0.1063
G2 Y94.0299 Z-14.4996 I0.075 J0.1299
G2 X160.65 Y93.9 Z-14.614 I0.075 J-0.1299
G2 X160.6058 Y93.7937 Z-14.657 I-0.15 J0.0
G2 X160.425 Y93.7701 Z-14.7283 I-0.1058 J0.1063
G2 Y94.0299 Z-14.8426 I0.075 J0.1299
G2 X160.65 Y93.9 Z-14.957 I0.075 J-0.1299
G2 X160.6058 Y93.7937 Z-15.0 I-0.15 J0.0
G2 X160.425 Y93.7701 I-0.1058 J0.1063
G2 Y94.0299 I0.075 J0.1299
G2 X160.65 Y93.9 I0.075 J-0.1299
G2 X160.6058 Y93.7937 I-0.15 J0.0
G0 Z3.0
G0 X159.8706 Y116.824
G0 Z0.1
G1 F800.0 Z0.0
G2 F2000.0 X159.925 Y117.0299 Z-0.0862 I0.1294 J0.076
G2 X160.15 Y116.9 Z-0.2005 I0.075 J-0.1299
G2 X160.0039 Y116.7501 Z-0.2848 I-0.15 J0.0
G2 X159.925 Y116.7701 Z-0.3148 I-0.0039 J0.1499
G2 Y117.0299 Z-0.4292 I0.075 J0.1299
G2 X160.15 Y116.9 Z-0.5435 I0.075 J-0.1299
G2 X160.0039 Y116.7501 Z-0.6279 I-0.15 J0.0
G2 X159.925 Y116.7701 Z-0.6579 I-0.0039 J0.1499
G2 Y117.0299 Z-0.7722 I0.075 J0.1299
G2 X160.15 Y116.9 Z-0.8866 I0.075 J-0.1299
G2 X160.0039 Y116.7501 Z-0.9709 I-0.15 J0.0
G2 X159.925 Y116.7701 Z-1.0009 I-0.0039 J0.1499
G2 Y117.0299 Z-1.1153 I0.075 J0.1299
G2 X160.15 Y116.9 Z-1.2296 I0.075 J-0.1299
G2 X160.0039 Y116.7501 Z-1.3139 I-0.15 J0.0
G2 X159.925 Y116.7701 Z-1.3439 I-0.0039 J0.1499
G2 Y117.0299 Z-1.4583 I0.075 J0.1299
G2 X160.15 Y116.9 Z-1.5726 I0.075 J-0.1299
G2 X160.0039 Y116.7501 Z-1.657 I-0.15 J0.0
G2 X159.925 Y116.7701 Z-1.687 I-0.0039 J0.1499
G2 Y117.0299 Z-1.8013 I0.075 J0.1299
G2 X160.15 Y116.9 Z-1.9157 I0.075 J-0.1299
G2 X160.0039 Y116.7501 Z-2.0 I-0.15 J0.0
G2 X159.925 Y116.7701 I-0.0039 J0.1499
G2 Y117.0299 I0.075 J0.1299
G2 X160.15 Y116.9 I0.075 J-0.1299
G2 X160.0039 Y116.7501 I-0.15 J0.0
G1 F800.0 X159.8706 Y116.824
G2 F2000.0 X159.925 Y117.0299 Z-2.0862 I0.1294 J0.076
G2 X160.15 Y116.9 Z-2.2005 I0.075 J-0.1299
G2 X160.0039 Y116.7501 Z-2.2848 I-0.15 J0.0
G2 X159.925 Y116.7701 Z-2.3148 I-0.0039 J0.1499
G2 Y117.0299 Z-2.4292 I0.075 J0.1299
G2 X160.15 Y116.9 Z-2.5435 I0.075 J-0.1299
G2 X160.0039 Y116.7501 Z-2.6279 I-0.15 J0.0
G2 X159.925 Y116.7701 Z-2.6579 I-0.0039 J0.1499
G2 Y117.0299 Z-2.7722 I0.075 J0.1299
G2 X160.15 Y116.9 Z-2.8866 I0.075 J-0.1299
G2 X160.0039 Y116.7501 Z-2.9709 I-0.15 J0.0
G2 X159.925 Y116.7701 Z-3.0009 I-0.0039 J0.1499
G2 Y117.0299 Z-3.1153 I0.075 J0.1299
G2 X160.15 Y116.9 Z-3.2296 I0.075 J-0.1299
G2 X160.0039 Y116.7501 Z-3.3139 I-0.15 J0.0
G2 X159.925 Y116.7701 Z-3.3439 I-0.0039 J0.1499
G2 Y117.0299 Z-3.4583 I0.075 J0.1299
G2 X160.15 Y116.9 Z-3.5726 I0.075 J-0.1299
G2 X160.0039 Y116.7501 Z-3.657 I-0.15 J0.0
G2 X159.925 Y116.7701 Z-3.687 I-0.0039 J0.1499
G2 Y117.0299 Z-3.8013 I0.075 J0.1299
G2 X160.15 Y116.9 Z-3.9157 I0.075 J-0.1299
G2 X160.0039 Y116.7501 Z-4.0 I-0.15 J0.0
G2 X159.925 Y116.7701 I-0.0039 J0.1499
G2 Y117.0299 I0.075 J0.1299
G2 X160.15 Y116.9 I0.075 J-0.1299
G2 X160.0039 Y116.7501 I-0.15 J0.0
G1 F800.0 X159.8706 Y116.824
G2 F2000.0 X159.925 Y117.0299 Z-4.0862 I0.1294 J0.076
G2 X160.15 Y116.9 Z-4.2005 I0.075 J-0.1299
G2 X160.0039 Y116.7501 Z-4.2848 I-0.15 J0.0
G2 X159.925 Y116.7701 Z-4.3148 I-0.0039 J0.1499
G2 Y117.0299 Z-4.4292 I0.075 J0.1299
G2 X160.15 Y116.9 Z-4.5435 I0.075 J-0.1299
G2 X160.0039 Y116.7501 Z-4.6279 I-0.15 J0.0
G2 X159.925 Y116.7701 Z-4.6579 I-0.0039 J0.1499
G2 Y117.0299 Z-4.7722 I0.075 J0.1299
G2 X160.15 Y116.9 Z-4.8866 I0.075 J-0.1299
G2 X160.0039 Y116.7501 Z-4.9709 I-0.15 J0.0
G2 X159.925 Y116.7701 Z-5.0009 I-0.0039 J0.1499
G2 Y117.0299 Z-5.1153 I0.075 J0.1299
G2 X160.15 Y116.9 Z-5.2296 I0.075 J-0.1299
G2 X160.0039 Y116.7501 Z-5.3139 I-0.15 J0.0
G2 X159.925 Y116.7701 Z-5.3439 I-0.0039 J0.1499
G2 Y117.0299 Z-5.4583 I0.075 J0.1299
G2 X160.15 Y116.9 Z-5.5726 I0.075 J-0.1299
G2 X160.0039 Y116.7501 Z-5.657 I-0.15 J0.0
G2 X159.925 Y116.7701 Z-5.687 I-0.0039 J0.1499
G2 Y117.0299 Z-5.8013 I0.075 J0.1299
G2 X160.15 Y116.9 Z-5.9157 I0.075 J-0.1299
G2 X160.0039 Y116.7501 Z-6.0 I-0.15 J0.0
G2 X159.925 Y116.7701 I-0.0039 J0.1499
G2 Y117.0299 I0.075 J0.1299
G2 X160.15 Y116.9 I0.075 J-0.1299
G2 X160.0039 Y116.7501 I-0.15 J0.0
G1 F800.0 X159.8706 Y116.824
G2 F2000.0 X159.925 Y117.0299 Z-6.0862 I0.1294 J0.076
G2 X160.15 Y116.9 Z-6.2005 I0.075 J-0.1299
G2 X160.0039 Y116.7501 Z-6.2848 I-0.15 J0.0
G2 X159.925 Y116.7701 Z-6.3148 I-0.0039 J0.1499
G2 Y117.0299 Z-6.4292 I0.075 J0.1299
G2 X160.15 Y116.9 Z-6.5435 I0.075 J-0.1299
G2 X160.0039 Y116.7501 Z-6.6279 I-0.15 J0.0
G2 X159.925 Y116.7701 Z-6.6579 I-0.0039 J0.1499
G2 Y117.0299 Z-6.7722 I0.075 J0.1299
G2 X160.15 Y116.9 Z-6.8866 I0.075 J-0.1299
G2 X160.0039 Y116.7501 Z-6.9709 I-0.15 J0.0
G2 X159.925 Y116.7701 Z-7.0009 I-0.0039 J0.1499
G2 Y117.0299 Z-7.1153 I0.075 J0.1299
G2 X160.15 Y116.9 Z-7.2296 I0.075 J-0.1299
G2 X160.0039 Y116.7501 Z-7.3139 I-0.15 J0.0
G2 X159.925 Y116.7701 Z-7.3439 I-0.0039 J0.1499
G2 Y117.0299 Z-7.4583 I0.075 J0.1299
G2 X160.15 Y116.9 Z-7.5726 I0.075 J-0.1299
G2 X160.0039 Y116.7501 Z-7.657 I-0.15 J0.0
G2 X159.925 Y116.7701 Z-7.687 I-0.0039 J0.1499
G2 Y117.0299 Z-7.8013 I0.075 J0.1299
G2 X160.15 Y116.9 Z-7.9157 I0.075 J-0.1299
G2 X160.0039 Y116.7501 Z-8.0 I-0.15 J0.0
G2 X159.925 Y116.7701 I-0.0039 J0.1499
G2 Y117.0299 I0.075 J0.1299
G2 X160.15 Y116.9 I0.075 J-0.1299
G2 X160.0039 Y116.7501 I-0.15 J0.0
G1 F800.0 X159.8706 Y116.824
G2 F2000.0 X159.925 Y117.0299 Z-8.0862 I0.1294 J0.076
G2 X160.15 Y116.9 Z-8.2005 I0.075 J-0.1299
G2 X160.0039 Y116.7501 Z-8.2848 I-0.15 J0.0
G2 X159.925 Y116.7701 Z-8.3148 I-0.0039 J0.1499
G2 Y117.0299 Z-8.4292 I0.075 J0.1299
G2 X160.15 Y116.9 Z-8.5435 I0.075 J-0.1299
G2 X160.0039 Y116.7501 Z-8.6279 I-0.15 J0.0
G2 X159.925 Y116.7701 Z-8.6579 I-0.0039 J0.1499
G2 Y117.0299 Z-8.7722 I0.075 J0.1299
G2 X160.15 Y116.9 Z-8.8866 I0.075 J-0.1299
G2 X160.0039 Y116.7501 Z-8.9709 I-0.15 J0.0
G2 X159.925 Y116.7701 Z-9.0009 I-0.0039 J0.1499
G2 Y117.0299 Z-9.1153 I0.075 J0.1299
G2 X160.15 Y116.9 Z-9.2296 I0.075 J-0.1299
G2 X160.0039 Y116.7501 Z-9.3139 I-0.15 J0.0
G2 X159.925 Y116.7701 Z-9.3439 I-0.0039 J0.1499
G2 Y117.0299 Z-9.4583 I0.075 J0.1299
G2 X160.15 Y116.9 Z-9.5726 I0.075 J-0.1299
G2 X160.0039 Y116.7501 Z-9.657 I-0.15 J0.0
G2 X159.925 Y116.7701 Z-9.687 I-0.0039 J0.1499
G2 Y117.0299 Z-9.8013 I0.075 J0.1299
G2 X160.15 Y116.9 Z-9.9157 I0.075 J-0.1299
G2 X160.0039 Y116.7501 Z-10.0 I-0.15 J0.0
G2 X159.925 Y116.7701 I-0.0039 J0.1499
G2 Y117.0299 I0.075 J0.1299
G2 X160.15 Y116.9 I0.075 J-0.1299
G2 X160.0039 Y116.7501 I-0.15 J0.0
G1 F800.0 X159.8706 Y116.824
G2 F2000.0 X159.925 Y117.0299 Z-10.0862 I0.1294 J0.076
G2 X160.15 Y116.9 Z-10.2005 I0.075 J-0.1299
G2 X160.0039 Y116.7501 Z-10.2848 I-0.15 J0.0
G2 X159.925 Y116.7701 Z-10.3148 I-0.0039 J0.1499
G2 Y117.0299 Z-10.4292 I0.075 J0.1299
G2 X160.15 Y116.9 Z-10.5435 I0.075 J-0.1299
G2 X160.0039 Y116.7501 Z-10.6279 I-0.15 J0.0
G2 X159.925 Y116.7701 Z-10.6579 I-0.0039 J0.1499
G2 Y117.0299 Z-10.7722 I0.075 J0.1299
G2 X160.15 Y116.9 Z-10.8866 I0.075 J-0.1299
G2 X160.0039 Y116.7501 Z-10.9709 I-0.15 J0.0
G2 X159.925 Y116.7701 Z-11.0009 I-0.0039 J0.1499
G2 Y117.0299 Z-11.1153 I0.075 J0.1299
G2 X160.15 Y116.9 Z-11.2296 I0.075 J-0.1299
G2 X160.0039 Y116.7501 Z-11.3139 I-0.15 J0.0
G2 X159.925 Y116.7701 Z-11.3439 I-0.0039 J0.1499
G2 Y117.0299 Z-11.4583 I0.075 J0.1299
G2 X160.15 Y116.9 Z-11.5726 I0.075 J-0.1299
G2 X160.0039 Y116.7501 Z-11.657 I-0.15 J0.0
G2 X159.925 Y116.7701 Z-11.687 I-0.0039 J0.1499
G2 Y117.0299 Z-11.8013 I0.075 J0.1299
G2 X160.15 Y116.9 Z-11.9157 I0.075 J-0.1299
G2 X160.0039 Y116.7501 Z-12.0 I-0.15 J0.0
G2 X159.925 Y116.7701 I-0.0039 J0.1499
G2 Y117.0299 I0.075 J0.1299
G2 X160.15 Y116.9 I0.075 J-0.1299
G2 X160.0039 Y116.7501 I-0.15 J0.0
G1 F800.0 X159.8706 Y116.824
G2 F2000.0 X159.925 Y117.0299 Z-12.0862 I0.1294 J0.076
G2 X160.15 Y116.9 Z-12.2005 I0.075 J-0.1299
G2 X160.0039 Y116.7501 Z-12.2848 I-0.15 J0.0
G2 X159.925 Y116.7701 Z-12.3148 I-0.0039 J0.1499
G2 Y117.0299 Z-12.4292 I0.075 J0.1299
G2 X160.15 Y116.9 Z-12.5435 I0.075 J-0.1299
G2 X160.0039 Y116.7501 Z-12.6279 I-0.15 J0.0
G2 X159.925 Y116.7701 Z-12.6579 I-0.0039 J0.1499
G2 Y117.0299 Z-12.7722 I0.075 J0.1299
G2 X160.15 Y116.9 Z-12.8866 I0.075 J-0.1299
G2 X160.0039 Y116.7501 Z-12.9709 I-0.15 J0.0
G2 X159.925 Y116.7701 Z-13.0009 I-0.0039 J0.1499
G2 Y117.0299 Z-13.1153 I0.075 J0.1299
G2 X160.15 Y116.9 Z-13.2296 I0.075 J-0.1299
G2 X160.0039 Y116.7501 Z-13.3139 I-0.15 J0.0
G2 X159.925 Y116.7701 Z-13.3439 I-0.0039 J0.1499
G2 Y117.0299 Z-13.4583 I0.075 J0.1299
G2 X160.15 Y116.9 Z-13.5726 I0.075 J-0.1299
G2 X160.0039 Y116.7501 Z-13.657 I-0.15 J0.0
G2 X159.925 Y116.7701 Z-13.687 I-0.0039 J0.1499
G2 Y117.0299 Z-13.8013 I0.075 J0.1299
G2 X160.15 Y116.9 Z-13.9157 I0.075 J-0.1299
G2 X160.0039 Y116.7501 Z-14.0 I-0.15 J0.0
G2 X159.925 Y116.7701 I-0.0039 J0.1499
G2 Y117.0299 I0.075 J0.1299
G2 X160.15 Y116.9 I0.075 J-0.1299
G2 X160.0039 Y116.7501 I-0.15 J0.0
G1 F800.0 X159.9272 Y116.7689
G2 F2000.0 X159.925 Y116.7701 Z-14.0009 I0.0728 J0.1311
G2 Y117.0299 Z-14.1153 I0.075 J0.1299
G2 X160.15 Y116.9 Z-14.2296 I0.075 J-0.1299
G2 X160.0039 Y116.7501 Z-14.3139 I-0.15 J0.0
G2 X159.925 Y116.7701 Z-14.3439 I-0.0039 J0.1499
G2 Y117.0299 Z-14.4583 I0.075 J0.1299
G2 X160.15 Y116.9 Z-14.5726 I0.075 J-0.1299
G2 X160.0039 Y116.7501 Z-14.657 I-0.15 J0.0
G2 X159.925 Y116.7701 Z-14.687 I-0.0039 J0.1499
G2 Y117.0299 Z-14.8013 I0.075 J0.1299
G2 X160.15 Y116.9 Z-14.9157 I0.075 J-0.1299
G2 X160.0039 Y116.7501 Z-15.0 I-0.15 J0.0
G2 X159.925 Y116.7701 I-0.0039 J0.1499
G2 Y117.0299 I0.075 J0.1299
G2 X160.15 Y116.9 I0.075 J-0.1299
G2 X160.0039 Y116.7501 I-0.15 J0.0
G0 Z3.0
G0 X202.3558 Y159.4413
G0 Z0.1
G1 F800.0 Z0.0
G2 F2000.0 X202.425 Y159.5299 Z-0.0419 I0.1442 J-0.0413
G2 X202.65 Y159.4 Z-0.1563 I0.075 J-0.1299
G2 X202.425 Y159.2701 Z-0.2706 I-0.15 J0.0
G2 X202.3941 Y159.2937 Z-0.2848 I0.075 J0.1299
G2 X202.425 Y159.5299 Z-0.385 I0.1059 J0.1063
G2 X202.65 Y159.4 Z-0.4993 I0.075 J-0.1299
G2 X202.425 Y159.2701 Z-0.6137 I-0.15 J0.0
G2 X202.3941 Y159.2937 Z-0.6279 I0.075 J0.1299
G2 X202.425 Y159.5299 Z-0.728 I0.1059 J0.1063
G2 X202.65 Y159.4 Z-0.8424 I0.075 J-0.1299
G2 X202.425 Y159.2701 Z-0.9567 I-0.15 J0.0
G2 X202.3941 Y159.2937 Z-0.9709 I0.075 J0.1299
G2 X202.425 Y159.5299 Z-1.071 I0.1059 J0.1063
G2 X202.65 Y159.4 Z-1.1854 I0.075 J-0.1299
G2 X202.425 Y159.2701 Z-1.2997 I-0.15 J0.0
G2 X202.3941 Y159.2937 Z-1.3139 I0.075 J0.1299
G2 X202.425 Y159.5299 Z-1.4141 I0.1059 J0.1063
G2 X202.65 Y159.4 Z-1.5284 I0.075 J-0.1299
G2 X202.425 Y159.2701 Z-1.6428 I-0.15 J0.0
G2 X202.3941 Y159.2937 Z-1.657 I0.075 J0.1299
G2 X202.425 Y159.5299 Z-1.7571 I0.1059 J0.1063
G2 X202.65 Y159.4 Z-1.8715 I0.075 J-0.1299
G2 X202.425 Y159.2701 Z-1.9858 I-0.15 J0.0
G2 X202.3941 Y159.2937 Z-2.0 I0.075 J0.1299
G2 X202.425 Y159.5299 I0.1059 J0.1063
G2 X202.65 Y159.4 I0.075 J-0.1299
G2 X202.425 Y159.2701 I-0.15 J0.0
G2 X202.3941 Y159.2937 I0.075 J0.1299
G1 F800.0 X202.3558 Y159.4413
G2 F2000.0 X202.425 Y159.5299 Z-2.0419 I0.1442 J-0.0413
G2 X202.65 Y159.4 Z-2.1563 I0.075 J-0.1299
G2 X202.425 Y159.2701 Z-2.2706 I-0.15 J0.0
