( Made using CamBam - http://www.cambam.co.uk )
( Untitled 4/6/2018 3:35:42 PM )
( T6 : 6.0 )
G21 G90 G64 G40
G0 Z1.0
( T6 : 6.0 )
T6 M6
( Profile1 )
G17
M3 S1000
G0 X-3.0 Y13.0
G0 Z0.1
G1 F40.0 Z-0.4
G1 F300.0 Y-13.0
G0 Z1.0
G0 Y13.0
G0 Z-0.3
G1 F40.0 Z-0.8
G1 F300.0 Y-13.0
G0 Z1.0
G0 Y13.0
G0 Z-0.7
G1 F40.0 Z-1.2
G1 F300.0 Y-13.0
G0 Z1.0
G0 Y13.0
G0 Z-1.1
G1 F40.0 Z-1.6
G1 F300.0 Y-13.0
G0 Z1.0
G0 Y13.0
G0 Z-1.5
G1 F40.0 Z-2.0
G1 F300.0 Y-13.0
G0 Z1.0
G0 Y13.0
G0 Z-1.9
G1 F40.0 Z-2.4
G1 F300.0 Y-13.0
G0 Z1.0
G0 Y13.0
G0 Z-2.3
G1 F40.0 Z-2.8
G1 F300.0 Y-13.0
G0 Z1.0
G0 Y13.0
G0 Z-2.7
G1 F40.0 Z-3.2
G1 F300.0 Y-13.0
G0 Z1.0
G0 Y13.0
G0 Z-3.1
G1 F40.0 Z-3.6
G1 F300.0 Y-13.0
G0 Z1.0
G0 Y13.0
G0 Z-3.5
G1 F40.0 Z-4.0
G1 F300.0 Y-13.0
G0 Z1.0
G0 Y13.0
G0 Z-3.9
G1 F40.0 Z-4.4
G1 F300.0 Y-13.0
G0 Z1.0
G0 Y13.0
G0 Z-4.3
G1 F40.0 Z-4.8
G1 F300.0 Y-13.0
G0 Z1.0
G0 Y13.0
G0 Z-4.7
G1 F40.0 Z-5.2
G1 F300.0 Y-13.0
G0 Z1.0
G0 Y13.0
G0 Z-5.1
G1 F40.0 Z-5.6
G1 F300.0 Y-13.0
G0 Z1.0
G0 Y13.0
G0 Z-5.5
G1 F40.0 Z-6.0
G1 F300.0 Y-13.0
G0 Z1.0
G0 Y13.0
G0 Z-5.9
G1 F40.0 Z-6.4
G1 F300.0 Y-13.0
G0 Z1.0
G0 Y13.0
G0 Z-6.3
G1 F40.0 Z-6.8
G1 F300.0 Y-13.0
G0 Z1.0
G0 Y13.0
G0 Z-6.7
G1 F40.0 Z-7.2
G1 F300.0 Y-13.0
G0 Z1.0
G0 Y13.0
G0 Z-7.1
G1 F40.0 Z-7.6
G1 F300.0 Y-13.0
G0 Z1.0
G0 Y13.0
G0 Z-7.5
G1 F40.0 Z-8.0
G1 F300.0 Y-13.0
G0 Z1.0
G0 Y13.0
G0 Z-7.9
G1 F40.0 Z-8.4
G1 F300.0 Y-13.0
G0 Z1.0
G0 Y13.0
G0 Z-8.3
G1 F40.0 Z-8.8
G1 F300.0 Y-13.0
G0 Z1.0
G0 Y13.0
G0 Z-8.7
G1 F40.0 Z-9.2
G1 F300.0 Y-13.0
G0 Z1.0
G0 Y13.0
G0 Z-9.1
G1 F40.0 Z-9.6
G1 F300.0 Y-13.0
G0 Z1.0
G0 Y13.0
G0 Z-9.5
G1 F40.0 Z-10.0
G1 F300.0 Y-13.0
G0 Z1.0
G0 Y13.0
G0 Z-9.9
G1 F40.0 Z-10.4
G1 F300.0 Y-13.0
G0 Z1.0
G0 Y13.0
G0 Z-10.3
G1 F40.0 Z-10.8
G1 F300.0 Y-13.0
G0 Z1.0
G0 Y13.0
G0 Z-10.7
G1 F40.0 Z-11.2
G1 F300.0 Y-13.0
G0 Z1.0
G0 Y13.0
G0 Z-11.1
G1 F40.0 Z-11.6
G1 F300.0 Y-13.0
G0 Z1.0
G0 Y13.0
G0 Z-11.5
G1 F40.0 Z-12.0
G1 F300.0 Y-13.0
G0 Z1.0
G0 Y13.0
G0 Z-11.9
G1 F40.0 Z-12.4
G1 F300.0 Y-13.0
G0 Z1.0
G0 Y13.0
G0 Z-12.3
G1 F40.0 Z-12.8
G1 F300.0 Y-13.0
G0 Z1.0
G0 Y13.0
G0 Z-12.7
G1 F40.0 Z-13.2
G1 F300.0 Y-13.0
G0 Z1.0
G0 Y13.0
G0 Z-13.1
G1 F40.0 Z-13.6
G1 F300.0 Y-13.0
G0 Z1.0
G0 Y13.0
G0 Z-13.5
G1 F40.0 Z-14.0
G1 F300.0 Y-13.0
G0 Z1.0
G0 Y13.0
G0 Z-13.9
G1 F40.0 Z-14.4
G1 F300.0 Y-13.0
G0 Z1.0
G0 Y13.0
G0 Z-14.3
G1 F40.0 Z-14.8
G1 F300.0 Y-13.0
G0 Z1.0
G0 Y13.0
G0 Z-14.7
G1 F40.0 Z-15.2
G1 F300.0 Y-13.0
G0 Z1.0
G0 Y13.0
G0 Z-15.1
G1 F40.0 Z-15.6
G1 F300.0 Y-13.0
G0 Z1.0
G0 Y13.0
G0 Z-15.5
G1 F40.0 Z-16.0
G1 F300.0 Y-13.0
G0 Z1.0
G0 Y13.0
G0 Z-15.9
G1 F40.0 Z-16.4
G1 F300.0 Y-13.0
G0 Z1.0
G0 Y13.0
G0 Z-16.3
G1 F40.0 Z-16.8
G1 F300.0 Y-13.0
G0 Z1.0
G0 Y13.0
G0 Z-16.7
G1 F40.0 Z-17.2
G1 F300.0 Y-13.0
G0 Z1.0
G0 Y13.0
G0 Z-17.1
G1 F40.0 Z-17.6
G1 F300.0 Y-13.0
G0 Z1.0
G0 Y13.0
G0 Z-17.5
G1 F40.0 Z-18.0
G1 F300.0 Y-13.0
G0 Z1.0
M5
M30
