( Made using CamBam - http://www.cambam.co.uk )
( Part1 4/4/2018 5:07:57 PM )
( T6 : 6.0 )
G21 G90 G64 G40
T3 M6
G1 F2000 X100 Y100
T6 M6
G1 F2000 X0 Z100
T3 M6
G1 F2000 Y0 Z0
T6 M6
G1 F2000 X100 Y100 Z100
T3 M6
G1 F2000 X0 Y50
T6 M6
G1 F2000 X100 Z50
T3 M6
G1 F2000 Y0 Z75
T6 M6
G1 F2000 X0 Y0 Z0
T3 M6
G1 F2000 X100 Y64.18 Z80.37
G0 X0 Y0
G2 X10 I5
M30