( Made using CamBam - http://www.cambam.co.uk )
( Part1 4/4/2018 5:07:57 PM )
( T6 : 6.0 )
G21 G90 G64 G40
G0 Z3.0
( T6 : 6.0 )
T6 M6
( Profile1 )
G17
M3 S1000
G0 X47.0 Y50.0
G0 Z0.1
G1 F80.0 Z-5.5
G3 F200.0 X63.0 I8.0 J0.0
G1 Y93.0
G2 X67.0 Y97.0 I4.0 J0.0
G1 X83.0
G2 X87.0 Y93.0 I0.0 J-4.0
G1 Y7.0
G2 X83.0 Y3.0 I-4.0 J0.0
G1 X77.0
G2 X73.0 Y7.0 I0.0 J4.0
G1 Y15.0
G3 X70.0 Y18.0 I-3.0 J0.0
G1 X50.0
G3 X47.0 Y15.0 I0.0 J-3.0
G1 Y7.0
G2 X43.0 Y3.0 I-4.0 J0.0
G1 X7.0
G2 X3.0 Y7.0 I0.0 J4.0
G1 Y73.0
G2 X7.0 Y77.0 I4.0 J0.0
G1 X43.0
G2 X47.0 Y73.0 I0.0 J-4.0
G1 Y50.0
G0 Z3.0
M5
M30
