( Made using CamBam - http://www.cambam.co.uk )
( Untitled 4/3/2018 5:50:58 PM )
( T3 : 2.0 )
G21 G90 G64 G40
G0 Z3.0
( T3 : 2.0 )
T3 M6
( Profile1 )
G17
M3 S1000
G0 X18.3249 Y-5.0197
G0 Z0.1
G1 F100.0 Z0.0
G2 F200.0 X-9.5 Y-16.4545 Z-3.037 I-18.3249 J5.0197
G2 Y16.4545 Z-6.5185 I9.5 J16.4545
G2 X19.0 Y0.0 Z-10.0 I9.5 J-16.4545
G2 X-9.5 Y-16.4545 I-19.0 J0.0
G2 Y16.4545 I9.5 J16.4545
G2 X19.0 Y0.0 I9.5 J-16.4545
G0 Z3.0
M5
M30
