( Made using CamBam - http://www.cambam.co.uk )
( Support_servo 3/15/2018 2:11:39 PM )
( T2 : 1.8 )
G21 G90 G64 G40
G0 Z3.0
( T2 : 1.8 )
T2 M6
( Profile1 )
G17
M3 S1000
G0 X-24.65 Y20.9
G0 Z0.1
G1 F100.0 Z-1.1
G2 F200.0 X-25.175 Y20.5969 I-0.35 J0.0
G2 Y21.2031 I0.175 J0.3031
G2 X-24.65 Y20.9 I0.175 J-0.3031
G1 F100.0 Z-2.1
G2 F200.0 X-25.175 Y20.5969 I-0.35 J0.0
G2 Y21.2031 I0.175 J0.3031
G2 X-24.65 Y20.9 I0.175 J-0.3031
G1 F100.0 Z-3.2
G2 F200.0 X-25.175 Y20.5969 I-0.35 J0.0
G2 Y21.2031 I0.175 J0.3031
G2 X-24.65 Y20.9 I0.175 J-0.3031
G0 Z3.0
G0 X-15.35
G0 Z0.1
G1 F100.0 Z-1.1
G2 F200.0 X-15.175 Y21.2031 I0.35 J0.0
G2 X-14.65 Y20.9 I0.175 J-0.3031
G2 X-15.175 Y20.5969 I-0.35 J0.0
G2 X-15.35 Y20.9 I0.175 J0.3031
G1 F100.0 Z-2.1
G2 F200.0 X-15.175 Y21.2031 I0.35 J0.0
G2 X-14.65 Y20.9 I0.175 J-0.3031
G2 X-15.175 Y20.5969 I-0.35 J0.0
G2 X-15.35 Y20.9 I0.175 J0.3031
G1 F100.0 Z-3.2
G2 F200.0 X-15.175 Y21.2031 I0.35 J0.0
G2 X-14.65 Y20.9 I0.175 J-0.3031
G2 X-15.175 Y20.5969 I-0.35 J0.0
G2 X-15.35 Y20.9 I0.175 J0.3031
G0 Z3.0
G0 X-15.0209 Y8.2997
G0 Z0.1
G1 F100.0 Z-1.1
G2 F200.0 X-14.2 Y7.5 I0.0209 J-0.7997
G2 X-15.4 Y6.8072 I-0.8 J0.0
G2 Y8.1928 I0.4 J0.6928
G2 X-15.0209 Y8.2997 I0.4 J-0.6928
G1 F100.0 Z-2.1
G2 F200.0 X-14.2 Y7.5 I0.0209 J-0.7997
G2 X-15.4 Y6.8072 I-0.8 J0.0
G2 Y8.1928 I0.4 J0.6928
G2 X-15.0209 Y8.2997 I0.4 J-0.6928
G1 F100.0 Z-3.2
G2 F200.0 X-14.2 Y7.5 I0.0209 J-0.7997
G2 X-15.4 Y6.8072 I-0.8 J0.0
G2 Y8.1928 I0.4 J0.6928
G2 X-15.0209 Y8.2997 I0.4 J-0.6928
G0 Z3.0
G0 X-24.2026 Y7.5639
G0 Z0.1
G1 F100.0 Z-1.1
G2 F200.0 X-24.2 Y7.5 I-0.7974 J-0.0639
G2 X-25.4 Y6.8072 I-0.8 J0.0
G2 Y8.1928 I0.4 J0.6928
G2 X-24.2026 Y7.5639 I0.4 J-0.6928
G1 F100.0 Z-2.1
G2 F200.0 X-24.2 Y7.5 I-0.7974 J-0.0639
G2 X-25.4 Y6.8072 I-0.8 J0.0
G2 Y8.1928 I0.4 J0.6928
G2 X-24.2026 Y7.5639 I0.4 J-0.6928
G1 F100.0 Z-3.2
G2 F200.0 X-24.2 Y7.5 I-0.7974 J-0.0639
G2 X-25.4 Y6.8072 I-0.8 J0.0
G2 Y8.1928 I0.4 J0.6928
G2 X-24.2026 Y7.5639 I0.4 J-0.6928
G0 Z3.0
G0 X-24.9955 Y68.75
G0 Z0.1
G1 F100.0 Z-1.1
G2 F200.0 X-25.175 Y68.7969 I-0.0045 J0.35
G2 Y69.4031 I0.175 J0.3031
G2 X-24.65 Y69.1 I0.175 J-0.3031
G2 X-24.9955 Y68.75 I-0.35 J0.0
G1 F100.0 Z-2.1
G2 F200.0 X-25.175 Y68.7969 I-0.0045 J0.35
G2 Y69.4031 I0.175 J0.3031
G2 X-24.65 Y69.1 I0.175 J-0.3031
G2 X-24.9955 Y68.75 I-0.35 J0.0
G1 F100.0 Z-3.2
G2 F200.0 X-25.175 Y68.7969 I-0.0045 J0.35
G2 Y69.4031 I0.175 J0.3031
G2 X-24.65 Y69.1 I0.175 J-0.3031
G2 X-24.9955 Y68.75 I-0.35 J0.0
G0 Z3.0
G0 X-15.3498 Y69.0878
G0 Z0.1
G1 F100.0 Z-1.1
G2 F200.0 X-15.175 Y69.4031 I0.3498 J0.0122
G2 X-14.65 Y69.1 I0.175 J-0.3031
G2 X-15.175 Y68.7969 I-0.35 J0.0
G2 X-15.3498 Y69.0878 I0.175 J0.3031
G1 F100.0 Z-2.1
G2 F200.0 X-15.175 Y69.4031 I0.3498 J0.0122
G2 X-14.65 Y69.1 I0.175 J-0.3031
G2 X-15.175 Y68.7969 I-0.35 J0.0
G2 X-15.3498 Y69.0878 I0.175 J0.3031
G1 F100.0 Z-3.2
G2 F200.0 X-15.175 Y69.4031 I0.3498 J0.0122
G2 X-14.65 Y69.1 I0.175 J-0.3031
G2 X-15.175 Y68.7969 I-0.35 J0.0
G2 X-15.3498 Y69.0878 I0.175 J0.3031
G0 Z3.0
G0 X-15.0209 Y81.7003
G0 Z0.1
G1 F100.0 Z-1.1
G2 F200.0 X-15.4 Y81.8072 I0.0209 J0.7997
G2 Y83.1928 I0.4 J0.6928
G2 X-14.2 Y82.5 I0.4 J-0.6928
G2 X-15.0209 Y81.7003 I-0.8 J0.0
G1 F100.0 Z-2.1
G2 F200.0 X-15.4 Y81.8072 I0.0209 J0.7997
G2 Y83.1928 I0.4 J0.6928
G2 X-14.2 Y82.5 I0.4 J-0.6928
G2 X-15.0209 Y81.7003 I-0.8 J0.0
G1 F100.0 Z-3.2
G2 F200.0 X-15.4 Y81.8072 I0.0209 J0.7997
G2 Y83.1928 I0.4 J0.6928
G2 X-14.2 Y82.5 I0.4 J-0.6928
G2 X-15.0209 Y81.7003 I-0.8 J0.0
G0 Z3.0
G0 X-24.2026 Y82.4361
G0 Z0.1
G1 F100.0 Z-1.1
G2 F200.0 X-25.4 Y81.8072 I-0.7974 J0.0639
G2 Y83.1928 I0.4 J0.6928
G2 X-24.2 Y82.5 I0.4 J-0.6928
G2 X-24.2026 Y82.4361 I-0.8 J0.0
G1 F100.0 Z-2.1
G2 F200.0 X-25.4 Y81.8072 I-0.7974 J0.0639
G2 Y83.1928 I0.4 J0.6928
G2 X-24.2 Y82.5 I0.4 J-0.6928
G2 X-24.2026 Y82.4361 I-0.8 J0.0
G1 F100.0 Z-3.2
G2 F200.0 X-25.4 Y81.8072 I-0.7974 J0.0639
G2 Y83.1928 I0.4 J0.6928
G2 X-24.2 Y82.5 I0.4 J-0.6928
G2 X-24.2026 Y82.4361 I-0.8 J0.0
( Profile2 )
S1000
G0 Z3.0
G0 X-10.9 Y25.65
G0 Z0.1
G1 F100.0 Z-1.1
G1 F200.0 X-30.0
G3 X-30.9 Y24.75 I0.0 J-0.9
G1 Y0.0
G3 X-30.0 Y-0.9 I0.9 J0.0
G1 X0.0
G3 X0.9 Y0.0 I0.0 J0.9
G1 Y90.0
G3 X0.0 Y90.9 I-0.9 J0.0
G1 X-30.0
G3 X-30.9 Y90.0 I0.0 J-0.9
G1 Y65.25
G3 X-30.0 Y64.35 I0.9 J0.0
G1 X-10.9
G1 Y25.65
G1 F100.0 Z-2.1
G1 F200.0 X-30.0
G3 X-30.9 Y24.75 I0.0 J-0.9
G1 Y0.0
G3 X-30.0 Y-0.9 I0.9 J0.0
G1 X-23.5
G0 Z-1.2
G1 X-19.7
G1 F100.0 Z-2.1
G1 F200.0 X0.0
G3 X0.9 Y0.0 I0.0 J0.9
G1 Y41.7
G0 Z-1.2
G1 Y45.5
G1 F100.0 Z-2.1
G1 F200.0 Y90.0
G3 X0.0 Y90.9 I-0.9 J0.0
G1 X-19.2
G0 Z-1.2
G1 X-23.0
G1 F100.0 Z-2.1
G1 F200.0 X-30.0
G3 X-30.9 Y90.0 I0.0 J-0.9
G1 Y65.25
G3 X-30.0 Y64.35 I0.9 J0.0
G1 X-10.9
G1 Y25.65
G1 F100.0 Z-3.2
G1 F200.0 X-30.0
G3 X-30.9 Y24.75 I0.0 J-0.9
G1 Y0.0
G3 X-30.0 Y-0.9 I0.9 J0.0
G1 X-23.5
G0 Z-1.2
G1 X-19.7
G0 Z-2.0
G1 F100.0 Z-3.2
G1 F200.0 X0.0
G3 X0.9 Y0.0 I0.0 J0.9
G1 Y41.7
G0 Z-1.2
G1 Y45.5
G0 Z-2.0
G1 F100.0 Z-3.2
G1 F200.0 Y90.0
G3 X0.0 Y90.9 I-0.9 J0.0
G1 X-19.2
G0 Z-1.2
G1 X-23.0
G0 Z-2.0
G1 F100.0 Z-3.2
G1 F200.0 X-30.0
G3 X-30.9 Y90.0 I0.0 J-0.9
G1 Y65.25
G3 X-30.0 Y64.35 I0.9 J0.0
G1 X-10.9
G1 Y25.65
G0 Z3.0
M5
M30
