( Made using CamBam - http://www.cambam.co.uk )
( Untitled 3/21/2018 12:09:52 PM )
( T2 : 1.8 )
G21 G90 G64 G40
G0 Z3.0
( T2 : 1.8 )
T2 M6
( Profile1 )
G17
M3 S1000
G0 X-47.8 Y-40.5
G0 Z0.1
G1 F100.0 Z-1.1
G1 F200.0 Y58.5
G1 X50.2
G1 Y-40.5
G1 X-47.8
T6
G1 F100.0 Z-2.2
G1 F200.0 Y58.5
G1 X50.2
G1 Y-40.5
T2
G1 X-47.8
G0 Z3.0
M5
M30